;FLAVOR:Marlin
;TIME:2999
;Filament used: 5.33317m
;Layer height: 0.28
;Generated with Cura_SteamEngine 3.6.0
M140 S50
M105
M190 S50
M104 S210
M105
M109 S210
M82 ;absolute extrusion mode
; Ender 3 Custom Start G-code
G28 ; Home all axes
G92 E0 ; Reset Extruder
G1 Z2.0 F3000 ; Move Z Axis up little to prevent scratching of Heat Bed
G1 X0.1 Y20 Z0.3 F5000.0 ; Move to start position
G1 X0.1 Y200.0 Z0.3 F1500.0 E15 ; Draw the first line
G1 X0.4 Y200.0 Z0.3 F5000.0 ; Move to side a little
G1 X0.4 Y20 Z0.3 F1500.0 E30 ; Draw the second line
G92 E0 ; Reset Extruder
G1 Z2.0 F3000 ; Move Z Axis up little to prevent scratching of Heat Bed
; End of custom start GCode
G92 E0
G1 F1500 E-5
;LAYER_COUNT:54
;LAYER:0
M107
M204 S5000
M205 X30 Y30
G0 F3600 X73.021 Y87.596 Z0.2
M204 S500
M205 X20 Y20
;TYPE:SKIRT
G1 F1500 E0
G1 F2400 X73.82 Y87.039 E0.03239
G1 X74.391 Y86.69 E0.05465
G1 X74.835 Y86.478 E0.07102
G1 X75.935 Y86.011 E0.11076
G1 X76.565 Y85.787 E0.133
G1 X76.889 Y85.704 E0.14413
G1 X77.407 Y85.587 E0.16179
G1 X78.067 Y85.478 E0.18404
G1 X78.455 Y85.452 E0.19697
G1 X85.195 Y85.228 E0.42127
G1 X90.529 Y84.772 E0.59933
G1 X95.826 Y84.014 E0.7773
G1 X101.056 Y82.963 E0.95473
G1 X103.608 Y82.336 E1.04213
G1 X108.787 Y80.828 E1.22154
G1 X113.792 Y79.057 E1.39812
G1 X118.734 Y76.989 E1.5763
G1 X123.531 Y74.653 E1.75377
G1 X130.513 Y70.748 E2.01984
G1 X131.024 Y70.495 E2.03881
G1 X132.906 Y69.681 E2.10701
G1 X133.374 Y69.503 E2.12366
G1 X135.228 Y68.891 E2.1886
G1 X135.813 Y68.733 E2.20875
G1 X139.268 Y67.995 E2.32626
G1 X139.8 Y67.907 E2.34419
G1 X142.06 Y67.648 E2.41985
G1 X142.452 Y67.617 E2.43293
G1 X145.023 Y67.504 E2.51852
G1 X145.422 Y67.501 E2.5318
G1 X149.805 Y67.621 E2.67763
G1 X150.197 Y67.646 E2.69069
G1 X153.737 Y67.992 E2.809
G1 X154.228 Y68.062 E2.82549
G1 X155.874 Y68.372 E2.8812
G1 X156.474 Y68.519 E2.90175
G1 X158.009 Y68.988 E2.95513
G1 X158.341 Y69.101 E2.9668
G1 X160.057 Y69.745 E3.02776
G1 X160.354 Y69.867 E3.03844
G1 X162.841 Y70.967 E3.12888
G1 X163.436 Y71.273 E3.15114
G1 X163.914 Y71.592 E3.17025
G1 X164.85 Y72.287 E3.20903
G1 X165.363 Y72.717 E3.23129
G1 X165.623 Y72.98 E3.24359
G1 X166.105 Y73.501 E3.2672
G1 X166.633 Y74.167 E3.29546
G1 X167.174 Y74.967 E3.32759
G1 X167.63 Y75.781 E3.35862
G1 X168.194 Y77.018 E3.40384
G1 X168.525 Y77.957 E3.43695
G1 X168.729 Y78.757 E3.46441
G1 X168.856 Y79.414 E3.48667
G1 X168.899 Y79.93 E3.50389
G1 X168.941 Y81.045 E3.541
G1 X168.926 Y81.714 E3.56326
G1 X168.832 Y82.376 E3.5855
G1 X168.727 Y82.805 E3.60018
G1 X168.525 Y83.507 E3.62448
G1 X168.302 Y84.137 E3.64671
G1 X168.062 Y84.635 E3.6651
G1 X167.797 Y85.122 E3.68354
G1 X167.443 Y85.689 E3.70577
G1 X167.017 Y86.217 E3.72833
G1 X165.035 Y88.392 E3.8262
G1 X161.492 Y92.525 E4.00726
G1 X158.261 Y96.758 E4.18438
G1 X155.237 Y101.221 E4.36369
G1 X153.883 Y103.416 E4.44947
G1 X151.258 Y108.104 E4.62817
G1 X148.909 Y112.918 E4.80633
G1 X146.848 Y117.825 E4.98335
G1 X145.058 Y122.873 E5.16149
G1 X143.556 Y128.014 E5.33962
G1 X142.913 Y130.616 E5.42877
G1 X142.364 Y133.152 E5.51507
G1 X141.449 Y138.45 E5.69389
G1 X140.839 Y143.75 E5.87134
G1 X140.404 Y151.47 E6.12851
G1 X140.364 Y151.894 E6.14268
G1 X139.997 Y154.651 E6.23518
G1 X139.869 Y155.308 E6.25745
G1 X139.762 Y155.671 E6.27003
G1 X139.169 Y157.463 E6.33281
G1 X138.857 Y158.218 E6.35999
G1 X138.422 Y159.084 E6.39222
G1 X137.968 Y159.835 E6.42141
G1 X136.807 Y161.453 E6.48764
G1 X136.385 Y161.972 E6.50989
G1 X136.004 Y162.35 E6.52774
G1 X134.601 Y163.613 E6.59053
G1 X133.873 Y164.167 E6.62095
G1 X132.856 Y164.818 E6.66112
G1 X132.32 Y165.122 E6.68161
G1 X131.402 Y165.576 E6.71567
G1 X130.879 Y165.802 E6.73462
G1 X129.822 Y166.197 E6.77215
G1 X129.24 Y166.379 E6.79244
G1 X127.609 Y166.793 E6.8484
G1 X126.95 Y166.919 E6.87072
G1 X124.308 Y167.261 E6.95933
G1 X123.975 Y167.294 E6.97046
G1 X121.265 Y167.481 E7.0608
G1 X120.293 Y167.463 E7.09314
G1 X119.628 Y167.393 E7.11538
G1 X118.706 Y167.217 E7.1466
G1 X117.998 Y167.019 E7.17105
G1 X117.55 Y166.873 E7.18672
G1 X111.853 Y164.749 E7.38895
G1 X106.756 Y163.187 E7.56625
G1 X101.508 Y161.897 E7.746
G1 X98.995 Y161.394 E7.83124
G1 X93.669 Y160.556 E8.01056
G1 X88.337 Y160.025 E8.18878
G1 X85.647 Y159.872 E8.2784
G1 X80.57 Y159.635 E8.44744
G1 X79.905 Y159.564 E8.46969
G1 X79.472 Y159.474 E8.4844
G1 X77.729 Y159.038 E8.54416
G1 X76.981 Y158.794 E8.57032
G1 X74.703 Y157.869 E8.6521
G1 X74.089 Y157.574 E8.67476
G1 X72.447 Y156.661 E8.73724
G1 X71.882 Y156.302 E8.75951
G1 X71.367 Y155.879 E8.78167
G1 X71.063 Y155.598 E8.79544
G1 X70.6 Y155.116 E8.81767
G1 X70.205 Y154.594 E8.83944
G1 X69.66 Y153.777 E8.87211
G1 X69.323 Y153.199 E8.89436
G1 X69.06 Y152.594 E8.9163
G1 X68.787 Y151.848 E8.94273
G1 X68.595 Y151.207 E8.96498
G1 X68.516 Y150.804 E8.97864
G1 X67.884 Y146.838 E9.11221
G1 X67.855 Y146.633 E9.1191
G1 X66.833 Y138.23 E9.40064
G1 X66.807 Y137.963 E9.40957
G1 X66.585 Y134.932 E9.51065
G1 X66.57 Y134.595 E9.52187
G1 X66.438 Y124.363 E9.86221
G1 X66.086 Y118.994 E10.04117
G1 X66.074 Y118.68 E10.05162
G1 X66.044 Y115.434 E10.15959
G1 X66.051 Y115.111 E10.17034
G1 X66.298 Y110.01 E10.34019
G1 X66.318 Y109.729 E10.34956
G1 X66.935 Y103.501 E10.55772
G1 X66.964 Y103.262 E10.56573
G1 X67.547 Y99.175 E10.70304
G1 X67.587 Y98.935 E10.71113
G1 X68.226 Y95.522 E10.82662
G1 X68.375 Y94.915 E10.84741
G1 X68.819 Y93.463 E10.89791
G1 X69.052 Y92.836 E10.92016
G1 X69.204 Y92.521 E10.93179
G1 X69.969 Y91.047 E10.98703
G1 X70.438 Y90.295 E11.0165
G1 X70.897 Y89.675 E11.04216
G1 X71.46 Y89.026 E11.07074
G1 X72.286 Y88.209 E11.10938
G1 X73.021 Y87.596 E11.14121
M204 S5000
M205 X30 Y30
G0 F3600 X73.25 Y87.924
M204 S500
M205 X20 Y20
G1 F2400 X74.049 Y87.367 E11.17361
G1 X74.6 Y87.032 E11.19505
G1 X74.991 Y86.846 E11.20945
G1 X76.091 Y86.379 E11.2492
G1 X76.977 Y86.094 E11.28016
G1 X77.495 Y85.977 E11.29782
G1 X78.132 Y85.874 E11.31928
G1 X78.468 Y85.852 E11.33048
G1 X85.223 Y85.628 E11.55528
G1 X90.568 Y85.17 E11.7337
G1 X95.89 Y84.409 E11.91251
G1 X101.156 Y83.351 E12.09116
G1 X103.701 Y82.726 E12.17832
G1 X108.906 Y81.21 E12.35864
G1 X113.938 Y79.43 E12.53616
G1 X118.906 Y77.35 E12.7153
G1 X123.716 Y75.008 E12.89324
G1 X130.709 Y71.097 E13.15973
G1 X131.183 Y70.862 E13.17732
G1 X133.065 Y70.048 E13.24552
G1 X133.499 Y69.883 E13.26097
G1 X135.353 Y69.271 E13.3259
G1 X135.897 Y69.124 E13.34465
G1 X139.352 Y68.386 E13.46215
G1 X139.846 Y68.305 E13.4788
G1 X142.106 Y68.046 E13.55446
G1 X142.47 Y68.017 E13.56661
G1 X145.041 Y67.904 E13.6522
G1 X145.411 Y67.901 E13.66451
G1 X149.794 Y68.021 E13.81034
G1 X150.158 Y68.044 E13.82247
G1 X153.698 Y68.39 E13.94078
G1 X154.154 Y68.455 E13.95609
G1 X155.8 Y68.765 E14.0118
G1 X156.357 Y68.902 E14.03088
G1 X157.892 Y69.371 E14.08427
G1 X158.2 Y69.476 E14.09509
G1 X159.916 Y70.12 E14.15605
G1 X160.192 Y70.232 E14.16596
G1 X162.679 Y71.332 E14.2564
G1 X163.252 Y71.629 E14.27787
G1 X163.676 Y71.913 E14.29484
G1 X164.612 Y72.608 E14.33362
G1 X165.329 Y73.252 E14.36567
G1 X165.811 Y73.773 E14.38928
G1 X166.302 Y74.391 E14.41553
G1 X166.843 Y75.191 E14.44765
G1 X167.266 Y75.947 E14.47647
G1 X167.83 Y77.184 E14.52169
G1 X168.138 Y78.056 E14.55244
G1 X168.342 Y78.856 E14.5799
G1 X168.462 Y79.489 E14.60133
G1 X168.499 Y79.945 E14.61655
G1 X168.541 Y81.06 E14.65366
G1 X168.526 Y81.705 E14.67512
G1 X168.43 Y82.342 E14.69654
G1 X168.342 Y82.694 E14.70861
G1 X168.14 Y83.396 E14.73291
G1 X167.924 Y84.003 E14.75434
G1 X167.711 Y84.443 E14.7706
G1 X167.446 Y84.93 E14.78904
G1 X167.103 Y85.477 E14.81051
G1 X166.722 Y85.947 E14.83063
G1 X164.718 Y88.146 E14.92959
G1 X161.186 Y92.266 E15.11008
G1 X157.942 Y96.517 E15.28794
G1 X154.902 Y101.003 E15.46818
G1 X153.537 Y103.216 E15.55466
G1 X150.895 Y107.933 E15.73448
G1 X148.548 Y112.744 E15.91252
G1 X146.476 Y117.678 E16.0905
G1 X144.677 Y122.748 E16.26943
G1 X143.167 Y127.92 E16.44864
G1 X142.526 Y130.515 E16.53754
G1 X141.973 Y133.069 E16.62446
G1 X141.054 Y138.39 E16.80405
G1 X140.44 Y143.716 E16.98237
G1 X140.005 Y151.447 E17.23991
G1 X139.968 Y151.841 E17.25307
G1 X139.601 Y154.598 E17.34558
G1 X139.476 Y155.231 E17.36704
G1 X139.383 Y155.546 E17.37796
G1 X138.79 Y157.338 E17.44075
G1 X138.5 Y158.038 E17.46595
G1 X138.065 Y158.904 E17.49818
G1 X137.643 Y159.602 E17.52531
G1 X136.482 Y161.22 E17.59154
G1 X136.074 Y161.719 E17.61298
G1 X135.736 Y162.053 E17.62879
G1 X134.333 Y163.316 E17.69157
G1 X133.657 Y163.831 E17.71984
G1 X132.64 Y164.482 E17.76
G1 X132.142 Y164.763 E17.77902
G1 X131.224 Y165.217 E17.81308
G1 X130.739 Y165.427 E17.83066
G1 X129.682 Y165.822 E17.86819
G1 X129.141 Y165.991 E17.88704
G1 X127.51 Y166.405 E17.94301
G1 X126.899 Y166.522 E17.9637
G1 X124.257 Y166.864 E18.05231
G1 X123.947 Y166.895 E18.06267
G1 X121.237 Y167.082 E18.15302
G1 X120.335 Y167.065 E18.18302
G1 X119.67 Y166.995 E18.20526
G1 X118.813 Y166.832 E18.23428
G1 X118.105 Y166.634 E18.25873
G1 X117.689 Y166.498 E18.27329
G1 X111.988 Y164.372 E18.47566
G1 X106.859 Y162.801 E18.65407
G1 X101.591 Y161.506 E18.8345
G1 X99.067 Y161.001 E18.92012
G1 X93.719 Y160.16 E19.10018
G1 X88.374 Y159.627 E19.27884
G1 X85.641 Y159.471 E19.36988
G1 X85.641 Y159.47 E19.36992
G1 X80.589 Y159.235 E19.53813
G1 X79.948 Y159.165 E19.55958
G1 X79.569 Y159.086 E19.57245
G1 X77.826 Y158.65 E19.63221
G1 X77.132 Y158.423 E19.6565
G1 X74.854 Y157.498 E19.73827
G1 X74.283 Y157.225 E19.75932
G1 X72.641 Y156.312 E19.82181
G1 X72.098 Y155.964 E19.84326
G1 X71.638 Y155.586 E19.86306
G1 X71.334 Y155.305 E19.87683
G1 X70.889 Y154.838 E19.89829
G1 X70.538 Y154.372 E19.91769
G1 X69.993 Y153.555 E19.95036
G1 X69.669 Y152.997 E19.97182
G1 X69.436 Y152.456 E19.99141
G1 X69.163 Y151.71 E20.01783
G1 X68.979 Y151.092 E20.03928
G1 X68.911 Y150.741 E20.05117
G1 X68.279 Y146.775 E20.18474
G1 X68.252 Y146.585 E20.19112
G1 X67.23 Y138.182 E20.47267
G1 X67.206 Y137.934 E20.48096
G1 X66.984 Y134.903 E20.58204
G1 X66.97 Y134.59 E20.59246
G1 X66.838 Y124.351 E20.93304
G1 X66.485 Y118.968 E21.11246
G1 X66.474 Y118.676 E21.12218
G1 X66.444 Y115.43 E21.23015
G1 X66.45 Y115.131 E21.24009
G1 X66.697 Y110.03 E21.40995
G1 X66.716 Y109.768 E21.41869
G1 X67.333 Y103.54 E21.62685
G1 X67.36 Y103.319 E21.63425
G1 X67.943 Y99.232 E21.77156
G1 X67.98 Y99.009 E21.77908
G1 X68.619 Y95.596 E21.89457
G1 X68.757 Y95.032 E21.91388
G1 X69.201 Y93.58 E21.96438
G1 X69.559 Y92.706 E21.9958
G1 X70.324 Y91.232 E22.05103
G1 X70.76 Y90.533 E22.07843
G1 X71.219 Y89.913 E22.10409
G1 X71.741 Y89.31 E22.13062
G1 X72.567 Y88.493 E22.16926
G1 X73.25 Y87.924 E22.19882
M204 S5000
M205 X30 Y30
G1 F1500 E17.19882
;MESH:225b9f36-0a0e-4d15-89e7-a555becfabb1.stl
G0 F3600 X77.708 Y90.589
G0 X78.166 Y91.789
G0 X87.568 Y114.7
G0 X88.031 Y115.295
G0 X88.782 Y115.744
G0 X90.258 Y116.301
G0 X91.657 Y116.731
G0 X96.024 Y117.623
G0 X100.698 Y118.261
G0 X105.831 Y118.664
G0 X111.596 Y118.854
G0 X112.27 Y118.814
G0 X112.898 Y118.677
G0 X113.058 Y118.606
G0 X113.996 Y118.089
G0 X113.926 Y118.019
M204 S500
M205 X20 Y20
;TYPE:WALL-INNER
G1 F1500 E22.19882
G1 F2400 X114.305 Y117.533 E22.21932
G1 X114.582 Y116.954 E22.24067
G1 X114.768 Y116.29 E22.26361
G1 X114.878 Y115.553 E22.28839
G1 X115.074 Y113.718 E22.34977
G1 X115.31 Y111.777 E22.4148
G1 X115.594 Y109.775 E22.48206
G1 X115.943 Y107.736 E22.55086
G1 X116.365 Y105.623 E22.62253
G1 X116.852 Y103.548 E22.69342
G1 X117.559 Y100.461 E22.79875
G1 X117.863 Y98.892 E22.85191
G1 X118.092 Y97.346 E22.90389
G1 X118.289 Y95.95 E22.95078
G1 X118.55 Y94.629 E22.99556
G1 X118.89 Y93.296 E23.04132
G1 X119.292 Y92.024 E23.08569
G1 X119.774 Y90.758 E23.13074
G1 X120.324 Y89.529 E23.17553
G1 X120.949 Y88.323 E23.22071
G1 X121.644 Y87.147 E23.26614
G1 X122.42 Y85.983 E23.31267
G1 X123.286 Y84.821 E23.36087
G1 X124.2 Y83.716 E23.40857
G1 X125.231 Y82.584 E23.45949
G1 X126.305 Y81.507 E23.51008
G1 X127.485 Y80.42 E23.56344
G1 X128.736 Y79.355 E23.61808
G1 X130.094 Y78.284 E23.67561
G1 X130.84 Y77.738 E23.70636
G1 X131.638 Y77.21 E23.73818
G1 X132.464 Y76.718 E23.77016
G1 X133.304 Y76.269 E23.80184
G1 X134.165 Y75.861 E23.83353
G1 X135.053 Y75.487 E23.86558
G1 X135.996 Y75.141 E23.89898
G1 X136.951 Y74.835 E23.93234
G1 X137.93 Y74.568 E23.96609
G1 X138.943 Y74.336 E24.00065
G1 X139.985 Y74.14 E24.03592
G1 X141.067 Y73.976 E24.07232
G1 X142.165 Y73.851 E24.10907
G1 X143.295 Y73.763 E24.14677
G1 X144.483 Y73.709 E24.18632
G1 X145.837 Y73.691 E24.23136
G1 X146.956 Y73.701 E24.26858
G1 X148.042 Y73.733 E24.30472
G1 X149.093 Y73.782 E24.33971
G1 X150.102 Y73.847 E24.37334
G1 X151.99 Y74.022 E24.43641
G1 X153.756 Y74.24 E24.49559
G1 X154.562 Y74.415 E24.52302
G1 X155.376 Y74.637 E24.55108
G1 X157.003 Y75.192 E24.60826
G1 X158.613 Y75.851 E24.66612
G1 X160.221 Y76.57 E24.72471
G1 X160.515 Y76.73 E24.73584
G1 X160.798 Y76.929 E24.74735
G1 X161.35 Y77.451 E24.77262
G1 X161.841 Y78.091 E24.79944
G1 X162.24 Y78.794 E24.82633
G1 X162.538 Y79.527 E24.85265
G1 X162.722 Y80.25 E24.87746
G1 X162.779 Y80.888 E24.89877
G1 X162.763 Y81.156 E24.90769
G1 X162.718 Y81.379 E24.91526
G1 X162.588 Y81.752 E24.9284
G1 X162.388 Y82.111 E24.94207
G1 X162.097 Y82.46 E24.95718
G1 X161.692 Y82.789 E24.97454
G1 X161.44 Y82.941 E24.98432
G1 X161.163 Y83.076 E24.99457
G1 X160.811 Y83.213 E25.00714
G1 X160.431 Y83.326 E25.02032
G1 X160.017 Y83.418 E25.03443
G1 X159.528 Y83.493 E25.05088
G1 X159.01 Y83.541 E25.06818
G1 X158.394 Y83.563 E25.08869
G1 X156.01 Y83.563 E25.16798
G1 X153.166 Y83.489 E25.2626
G1 X152.453 Y83.52 E25.28634
G1 X151.767 Y83.611 E25.30935
G1 X150.337 Y83.906 E25.35792
G1 X148.971 Y84.27 E25.40494
G1 X147.661 Y84.703 E25.45083
G1 X146.41 Y85.207 E25.49568
G1 X145.219 Y85.781 E25.53966
G1 X144.087 Y86.424 E25.58296
G1 X143.016 Y87.138 E25.62577
G1 X142.008 Y87.919 E25.66818
G1 X141.06 Y88.77 E25.71055
G1 X140.176 Y89.69 E25.75299
G1 X139.355 Y90.676 E25.79566
G1 X138.599 Y91.728 E25.83875
G1 X137.906 Y92.846 E25.8825
G1 X137.279 Y94.029 E25.92703
G1 X136.716 Y95.277 E25.97257
G1 X136.218 Y96.59 E26.01928
G1 X135.673 Y98.394 E26.08195
G1 X135.231 Y100.245 E26.14525
G1 X134.529 Y103.939 E26.27031
G1 X133.686 Y108.73 E26.43211
G1 X133.429 Y110.815 E26.50198
G1 X133.28 Y112.886 E26.57104
G1 X133.244 Y114.947 E26.6396
G1 X133.319 Y117 E26.70793
G1 X133.505 Y119.05 E26.77639
G1 X133.805 Y121.099 E26.84527
G1 X134.213 Y123.141 E26.91453
G1 X134.46 Y124.273 E26.95307
G1 X134.67 Y125.447 E26.99273
G1 X134.845 Y126.669 E27.03379
G1 X134.987 Y127.953 E27.07676
G1 X135.097 Y129.297 E27.12161
G1 X135.173 Y130.693 E27.16811
G1 X135.218 Y132.172 E27.21732
G1 X135.233 Y133.727 E27.26904
G1 X135.215 Y135.646 E27.33287
G1 X135.12 Y137.529 E27.39558
G1 X134.799 Y141.302 E27.52153
G1 X134.48 Y145.164 E27.65041
G1 X134.36 Y147.958 E27.74343
G1 X134.287 Y150.133 E27.81581
G1 X134.126 Y152.313 E27.88851
G1 X134.006 Y153.149 E27.91661
G1 X133.841 Y153.911 E27.94254
G1 X133.618 Y154.668 E27.96878
G1 X133.353 Y155.37 E27.99374
G1 X133.041 Y156.028 E28.01796
G1 X132.673 Y156.667 E28.04249
G1 X132.271 Y157.248 E28.06599
G1 X131.817 Y157.795 E28.08963
G1 X131.313 Y158.309 E28.11357
G1 X130.775 Y158.772 E28.13718
G1 X130.188 Y159.197 E28.16128
G1 X129.545 Y159.589 E28.18633
G1 X128.882 Y159.924 E28.21104
G1 X128.149 Y160.228 E28.23743
G1 X127.376 Y160.485 E28.26453
G1 X126.578 Y160.689 E28.29192
G1 X125.701 Y160.86 E28.32164
G1 X124.844 Y160.977 E28.35041
G1 X123.08 Y161.155 E28.40938
G1 X121.234 Y161.309 E28.47099
G1 X120.825 Y161.304 E28.48459
G1 X120.428 Y161.262 E28.49787
G1 X120.07 Y161.187 E28.51004
G1 X119.728 Y161.077 E28.52198
G1 X119.4 Y160.93 E28.53394
G1 X119.109 Y160.759 E28.54517
G1 X118.819 Y160.542 E28.55721
G1 X118.568 Y160.309 E28.5686
G1 X118.32 Y160.021 E28.58124
G1 X118.107 Y159.72 E28.59351
G1 X117.901 Y159.36 E28.6073
G1 X117.73 Y158.991 E28.62083
G1 X117.565 Y158.542 E28.63674
G1 X117.442 Y158.107 E28.65178
G1 X117.335 Y157.594 E28.66921
G1 X117.232 Y156.793 E28.69607
G1 X117.2 Y155.968 E28.72353
G1 X117.247 Y155.175 E28.74995
G1 X117.374 Y154.391 E28.77636
G1 X117.636 Y152.975 E28.82426
G1 X117.802 Y151.524 E28.87284
G1 X117.884 Y150.08 E28.92094
G1 X117.894 Y148.649 E28.96854
G1 X117.851 Y147.238 E29.01549
G1 X117.766 Y145.853 E29.06164
