;FLAVOR:Marlin
;TIME:2606
;Filament used: 4.48316m
;Layer height: 0.28
;Generated with Cura_SteamEngine 3.6.0
M140 S50
M105
M190 S50
M104 S210
M105
M109 S210
M82 ;absolute extrusion mode
; Ender 3 Custom Start G-code
G28 ; Home all axes
G92 E0 ; Reset Extruder
G1 Z2.0 F3000 ; Move Z Axis up little to prevent scratching of Heat Bed
G1 X0.1 Y20 Z0.3 F5000.0 ; Move to start position
G1 X0.1 Y200.0 Z0.3 F1500.0 E15 ; Draw the first line
G1 X0.4 Y200.0 Z0.3 F5000.0 ; Move to side a little
G1 X0.4 Y20 Z0.3 F1500.0 E30 ; Draw the second line
G92 E0 ; Reset Extruder
G1 Z2.0 F3000 ; Move Z Axis up little to prevent scratching of Heat Bed
; End of custom start GCode
G92 E0
G1 F1500 E-5
;LAYER_COUNT:54
;LAYER:0
M107
M204 S5000
M205 X30 Y30
G0 F3600 X77.194 Y97.794 Z0.2
M204 S500
M205 X20 Y20
;TYPE:SKIRT
G1 F1500 E0
G1 F2400 X77.433 Y97.606 E0.01011
G1 X80.978 Y94.978 E0.15689
G1 X81.401 Y94.694 E0.17383
G1 X83.065 Y93.681 E0.23863
G1 X83.488 Y93.447 E0.2547
G1 X85.814 Y92.293 E0.34107
G1 X86.36 Y92.058 E0.36084
G1 X90.623 Y90.481 E0.51201
G1 X90.732 Y90.442 E0.51587
G1 X99.397 Y87.439 E0.82088
G1 X99.917 Y87.286 E0.83891
G1 X101.935 Y86.799 E0.90796
G1 X102.665 Y86.674 E0.93259
G1 X103.829 Y86.552 E0.97152
G1 X104.413 Y86.521 E0.99097
G1 X105.369 Y86.521 E1.02276
G1 X105.993 Y86.556 E1.04355
G1 X107.295 Y86.702 E1.08713
G1 X108.109 Y86.855 E1.11467
G1 X109.637 Y87.261 E1.16726
G1 X110.484 Y87.56 E1.19713
G1 X111.999 Y88.237 E1.25233
G1 X112.705 Y88.616 E1.27898
G1 X117.921 Y91.911 E1.48418
G1 X122.59 Y94.543 E1.66244
G1 X127.371 Y96.895 E1.83966
G1 X132.294 Y98.979 E2.01747
G1 X137.314 Y100.776 E2.19481
G1 X142.457 Y102.295 E2.37317
G1 X147.698 Y103.528 E2.55225
G1 X150.213 Y104.004 E2.63738
G1 X155.552 Y104.788 E2.81686
G1 X160.951 Y105.271 E2.99715
G1 X164.051 Y105.457 E3.10044
G1 X164.794 Y105.552 E3.12535
G1 X165.426 Y105.676 E3.14678
G1 X166.167 Y105.875 E3.17229
G1 X167.381 Y106.292 E3.21499
G1 X168 Y106.546 E3.23724
G1 X168.402 Y106.761 E3.2524
G1 X169.636 Y107.487 E3.30002
G1 X170.191 Y107.86 E3.32226
G1 X170.622 Y108.224 E3.34103
G1 X171.521 Y109.065 E3.38197
G1 X172.162 Y109.778 E3.41386
G1 X172.667 Y110.446 E3.44171
G1 X173.131 Y111.169 E3.47029
G1 X173.658 Y112.148 E3.50727
G1 X173.939 Y112.755 E3.52951
G1 X174.054 Y113.075 E3.54082
G1 X174.443 Y114.275 E3.58278
G1 X174.606 Y114.897 E3.60417
G1 X174.907 Y116.392 E3.65489
G1 X174.975 Y116.811 E3.66901
G1 X175.414 Y120.367 E3.78818
G1 X175.453 Y121.235 E3.81708
G1 X175.387 Y123.263 E3.88456
G1 X175.356 Y123.697 E3.89904
G1 X175.017 Y126.76 E4.00153
G1 X174.862 Y127.587 E4.02952
G1 X174.618 Y128.502 E4.06102
G1 X174.407 Y129.137 E4.08327
G1 X174.249 Y129.496 E4.09632
G1 X173.651 Y130.733 E4.14202
G1 X173.324 Y131.317 E4.16428
G1 X172.906 Y131.887 E4.18779
G1 X172.331 Y132.575 E4.21761
G1 X171.787 Y133.14 E4.2437
G1 X171.323 Y133.559 E4.26449
G1 X170.584 Y134.123 E4.29541
G1 X168.866 Y135.22 E4.36321
G1 X168.451 Y135.461 E4.37917
G1 X166.462 Y136.503 E4.45385
G1 X166.074 Y136.687 E4.46813
G1 X164.152 Y137.513 E4.53771
G1 X163.622 Y137.71 E4.55652
G1 X161.086 Y138.508 E4.64494
G1 X160.797 Y138.59 E4.65493
G1 X145.357 Y142.552 E5.18511
G1 X135.377 Y145.292 E5.52933
G1 X135.083 Y145.364 E5.5394
G1 X131.98 Y146.038 E5.64501
G1 X131.677 Y146.096 E5.65527
G1 X126.327 Y146.953 E5.83548
G1 X126.121 Y146.982 E5.8424
G1 X117.778 Y148.002 E6.12195
G1 X117.516 Y148.027 E6.13071
G1 X112.977 Y148.367 E6.2821
G1 X112.337 Y148.379 E6.30339
G1 X104.308 Y148.06 E6.57064
G1 X101.706 Y148.044 E6.65719
G1 X92.658 Y148.414 E6.95838
G1 X92.538 Y148.418 E6.96237
G1 X89.405 Y148.479 E7.0666
G1 X88.983 Y148.471 E7.08063
G1 X86.784 Y148.348 E7.15389
G1 X86.385 Y148.312 E7.16721
G1 X83.795 Y147.98 E7.25406
G1 X83.384 Y147.911 E7.26792
G1 X81.054 Y147.434 E7.34703
G1 X80.752 Y147.364 E7.35734
G1 X79.065 Y146.92 E7.41536
G1 X78.669 Y146.8 E7.42912
G1 X74.934 Y145.516 E7.56048
G1 X74.267 Y145.237 E7.58453
G1 X73.049 Y144.633 E7.62975
G1 X72.324 Y144.203 E7.65778
G1 X70.805 Y143.139 E7.71947
G1 X70.15 Y142.601 E7.74766
G1 X69.457 Y141.939 E7.77953
G1 X69.015 Y141.466 E7.80107
G1 X65.229 Y136.903 E7.99827
G1 X65.113 Y136.758 E8.00445
G1 X63.738 Y134.984 E8.0791
G1 X63.39 Y134.48 E8.09947
G1 X61.951 Y132.133 E8.19103
G1 X61.553 Y131.353 E8.22016
G1 X60.632 Y129.134 E8.30007
G1 X60.347 Y128.244 E8.33115
G1 X59.841 Y126.048 E8.4061
G1 X59.713 Y125.201 E8.4346
G1 X59.555 Y123.049 E8.50636
G1 X59.551 Y122.286 E8.53174
G1 X59.637 Y120.923 E8.57717
G1 X59.703 Y120.351 E8.59632
G1 X59.952 Y118.865 E8.64643
G1 X60.135 Y118.104 E8.67246
G1 X60.848 Y115.846 E8.75122
G1 X61.177 Y115.032 E8.78042
G1 X62.164 Y113.054 E8.85394
G1 X62.559 Y112.384 E8.87981
G1 X63.857 Y110.494 E8.95607
G1 X64.262 Y109.973 E8.97802
G1 X65.709 Y108.322 E9.05104
G1 X66.001 Y108.012 E9.0652
G1 X70.142 Y103.956 E9.25799
G1 X70.326 Y103.785 E9.26635
G1 X74.73 Y99.842 E9.46296
G1 X74.891 Y99.703 E9.47003
G1 X77.194 Y97.794 E9.56952
M204 S5000
M205 X30 Y30
G0 F3600 X77.449 Y98.102
M204 S500
M205 X20 Y20
G1 F2400 X77.671 Y97.928 E9.5789
G1 X81.216 Y95.3 E9.72568
G1 X81.609 Y95.035 E9.74144
G1 X83.273 Y94.022 E9.80624
G1 X83.666 Y93.806 E9.82115
G1 X85.992 Y92.652 E9.90751
G1 X86.499 Y92.433 E9.92588
G1 X90.762 Y90.856 E10.07706
G1 X90.863 Y90.82 E10.08063
G1 X99.528 Y87.817 E10.38564
G1 X100.011 Y87.675 E10.40239
G1 X102.029 Y87.188 E10.47143
G1 X102.707 Y87.071 E10.49432
G1 X103.871 Y86.949 E10.53324
G1 X104.413 Y86.921 E10.55129
G1 X105.369 Y86.921 E10.58309
G1 X105.948 Y86.953 E10.60238
G1 X107.25 Y87.099 E10.64595
G1 X108.006 Y87.241 E10.67154
G1 X109.534 Y87.647 E10.72412
G1 X110.321 Y87.925 E10.75188
G1 X111.836 Y88.602 E10.80708
G1 X112.491 Y88.954 E10.83181
G1 X117.705 Y92.248 E11.03693
G1 X122.41 Y94.9 E11.21657
G1 X127.217 Y97.265 E11.39475
G1 X132.13 Y99.345 E11.5722
G1 X137.203 Y101.161 E11.75142
G1 X142.345 Y102.68 E11.92975
G1 X147.623 Y103.921 E12.11008
G1 X150.15 Y104.399 E12.19562
G1 X155.512 Y105.187 E12.37588
G1 X160.891 Y105.668 E12.5555
G1 X164.027 Y105.856 E12.65999
G1 X164.717 Y105.944 E12.68312
G1 X165.349 Y106.068 E12.70454
G1 X166.037 Y106.253 E12.72824
G1 X167.251 Y106.67 E12.77093
G1 X167.847 Y106.917 E12.79239
G1 X168.199 Y107.106 E12.80568
G1 X169.433 Y107.832 E12.8533
G1 X169.967 Y108.193 E12.87474
G1 X170.348 Y108.517 E12.89137
G1 X171.247 Y109.358 E12.93232
G1 X171.843 Y110.019 E12.96192
G1 X172.348 Y110.687 E12.98977
G1 X172.779 Y111.358 E13.0163
G1 X173.306 Y112.337 E13.05328
G1 X173.674 Y113.198 E13.08442
G1 X174.063 Y114.398 E13.12638
G1 X174.214 Y114.976 E13.14624
G1 X174.515 Y116.471 E13.19697
G1 X174.578 Y116.86 E13.21007
G1 X175.017 Y120.416 E13.32924
G1 X175.053 Y121.222 E13.35608
G1 X174.987 Y123.25 E13.42357
G1 X174.958 Y123.653 E13.437
G1 X174.619 Y126.716 E13.5395
G1 X174.475 Y127.484 E13.56549
G1 X174.231 Y128.399 E13.59699
G1 X174.027 Y129.01 E13.61841
G1 X173.889 Y129.322 E13.62976
G1 X173.291 Y130.559 E13.67546
G1 X172.975 Y131.121 E13.6969
G1 X172.599 Y131.631 E13.71798
G1 X172.024 Y132.319 E13.7478
G1 X171.519 Y132.843 E13.772
G1 X171.055 Y133.262 E13.7928
G1 X170.369 Y133.786 E13.82151
G1 X168.651 Y134.883 E13.8893
G1 X168.265 Y135.106 E13.90413
G1 X166.276 Y136.148 E13.97881
G1 X165.916 Y136.319 E13.99207
G1 X163.994 Y137.145 E14.06165
G1 X163.502 Y137.328 E14.07911
G1 X160.966 Y138.126 E14.16753
G1 X160.697 Y138.203 E14.17684
G1 X145.221 Y142.174 E14.70825
G1 X135.271 Y144.906 E15.05143
G1 X134.998 Y144.974 E15.06079
G1 X131.895 Y145.648 E15.16641
G1 X131.613 Y145.701 E15.17595
G1 X126.263 Y146.558 E15.35616
G1 X126.072 Y146.585 E15.36257
G1 X117.729 Y147.605 E15.64213
G1 X117.486 Y147.628 E15.65025
G1 X112.947 Y147.968 E15.80164
G1 X112.353 Y147.979 E15.8214
G1 X104.326 Y147.66 E16.08859
G1 X101.713 Y147.644 E16.1755
G1 X92.642 Y148.015 E16.47745
G1 X92.53 Y148.018 E16.48118
G1 X89.397 Y148.079 E16.5854
G1 X89.006 Y148.072 E16.59841
G1 X86.807 Y147.949 E16.67166
G1 X86.436 Y147.915 E16.68406
G1 X83.846 Y147.583 E16.7709
G1 X83.464 Y147.519 E16.78379
G1 X81.134 Y147.042 E16.86289
G1 X80.853 Y146.977 E16.87248
G1 X79.166 Y146.533 E16.9305
G1 X78.799 Y146.422 E16.94326
G1 X75.064 Y145.138 E17.07462
G1 X74.445 Y144.879 E17.09694
G1 X73.227 Y144.275 E17.14215
G1 X72.554 Y143.875 E17.16819
G1 X71.035 Y142.811 E17.22988
G1 X70.426 Y142.312 E17.25606
G1 X69.733 Y141.65 E17.28794
G1 X69.323 Y141.21 E17.30794
G1 X65.537 Y136.647 E17.50515
G1 X65.429 Y136.513 E17.51087
G1 X64.054 Y134.739 E17.58552
G1 X63.731 Y134.271 E17.60444
G1 X62.292 Y131.924 E17.696
G1 X61.922 Y131.199 E17.72307
G1 X61.001 Y128.98 E17.80298
G1 X60.737 Y128.155 E17.83179
G1 X60.231 Y125.959 E17.90675
G1 X60.112 Y125.172 E17.93322
G1 X59.954 Y123.02 E18.00499
G1 X59.95 Y122.312 E18.02854
G1 X60.036 Y120.949 E18.07396
G1 X60.097 Y120.417 E18.09177
G1 X60.346 Y118.931 E18.14188
G1 X60.516 Y118.224 E18.16607
G1 X61.229 Y115.966 E18.24483
G1 X61.535 Y115.21 E18.27195
G1 X62.522 Y113.232 E18.34548
G1 X62.889 Y112.61 E18.3695
G1 X64.187 Y110.72 E18.44576
G1 X64.562 Y110.237 E18.46609
G1 X66.009 Y108.586 E18.53911
G1 X66.281 Y108.298 E18.55229
G1 X70.422 Y104.242 E18.74508
G1 X70.592 Y104.083 E18.75282
G1 X74.996 Y100.14 E18.94943
G1 X75.146 Y100.011 E18.95601
G1 X77.449 Y98.102 E19.0555
M204 S5000
M205 X30 Y30
G1 F1500 E14.0555
;MESH:67bc7493-bf84-4fb7-8fea-5b3426d9e457.stl
G0 F3600 X78.569 Y103.047
G0 X79.384 Y104.039
G0 X82.351 Y118.599
G0 X82.445 Y118.568
M204 S500
M205 X20 Y20
;TYPE:WALL-INNER
G1 F1500 E19.0555
G1 F2400 X82.595 Y118.801 E19.06472
G1 X82.726 Y118.949 E19.07129
G1 X82.889 Y119.091 E19.07848
G1 X83.087 Y119.23 E19.08653
G1 X83.329 Y119.366 E19.09576
G1 X83.614 Y119.499 E19.10622
G1 X83.952 Y119.625 E19.11822
G1 X84.736 Y119.861 E19.14545
G1 X85.642 Y120.094 E19.17657
G1 X86.532 Y120.236 E19.20654
G1 X87.947 Y120.348 E19.25375
G1 X89.323 Y120.4 E19.29955
G1 X91.589 Y120.157 E19.37535
G1 X94.236 Y119.9 E19.4638
G1 X95.565 Y119.814 E19.5081
G1 X96.902 Y119.764 E19.5526
G1 X98.061 Y119.768 E19.59115
G1 X99.218 Y119.826 E19.62968
G1 X103.761 Y120.24 E19.7814
G1 X105.18 Y120.24 E19.8286
G1 X105.786 Y120.152 E19.84897
G1 X106.344 Y119.955 E19.86865
G1 X106.827 Y119.65 E19.88765
G1 X107.225 Y119.231 E19.90687
G1 X107.467 Y118.725 E19.92552
G1 X107.583 Y118.185 E19.94389
G1 X107.582 Y117.609 E19.96305
G1 X107.464 Y117.019 E19.98306
G1 X107.285 Y116.515 E20.00085
G1 X107.076 Y116.047 E20.0179
G1 X106.585 Y115.219 E20.04992
G1 X105.989 Y114.475 E20.08163
G1 X105.313 Y113.813 E20.11309
G1 X104.576 Y113.218 E20.1446
G1 X103.791 Y112.67 E20.17644
G1 X102.146 Y111.66 E20.24064
G1 X101.056 Y111.054 E20.28212
G1 X99.991 Y110.556 E20.32123
G1 X98.953 Y110.169 E20.35807
G1 X97.938 Y109.888 E20.3931
G1 X96.946 Y109.708 E20.42663
G1 X95.972 Y109.63 E20.45913
G1 X95.018 Y109.646 E20.49087
G1 X94.083 Y109.755 E20.52218
G1 X93.162 Y109.949 E20.55348
G1 X92.257 Y110.224 E20.58494
G1 X91.365 Y110.572 E20.61679
G1 X90.481 Y110.99 E20.64931
G1 X89.603 Y111.472 E20.68262
G1 X88.726 Y112.01 E20.71684
G1 X87.845 Y112.603 E20.75216
G1 X86.952 Y113.25 E20.78884
G1 X85.947 Y114.068 E20.83194
G1 X85.018 Y114.906 E20.87355
G1 X84.176 Y115.723 E20.91258
G1 X83.422 Y116.498 E20.94854
G1 X83.15 Y116.801 E20.96208
G1 X82.923 Y117.092 E20.97436
G1 X82.743 Y117.365 E20.98523
G1 X82.609 Y117.615 E20.99467
G1 X82.512 Y117.846 E21.003
G1 X82.45 Y118.064 E21.01054
G1 X82.422 Y118.279 E21.01775
G1 X82.445 Y118.568 E21.02739
M204 S5000
M205 X30 Y30
G0 F3600 X82.351 Y118.599
G0 X82.865 Y119.122
G0 X83.599 Y119.535
G0 X85.634 Y120.133
G0 X86.528 Y120.275
G0 X89.324 Y120.439
G0 X105.182 Y120.279
G0 X125.088 Y117.001
G0 X125.141 Y116.917
M204 S500
M205 X20 Y20
G1 F2400 X125.727 Y117.193 E21.04894
G1 X126.375 Y117.337 E21.07101
G1 X127.076 Y117.366 E21.09435
G1 X127.825 Y117.3 E21.11936
G1 X129.944 Y117.019 E21.19045
G1 X134.295 Y116.414 E21.33656
G1 X138.653 Y115.747 E21.4832
G1 X161.045 Y111.698 E22.24003
G1 X161.751 Y111.596 E22.26376
G1 X162.43 Y111.554 E22.28639
G1 X163.093 Y111.572 E22.30845
G1 X163.723 Y111.644 E22.32954
G1 X164.323 Y111.77 E22.34993
G1 X164.9 Y111.949 E22.37002
G1 X165.445 Y112.178 E22.38968
G1 X165.959 Y112.456 E22.40912
G1 X166.419 Y112.77 E22.42764
G1 X166.861 Y113.142 E22.44686
G1 X167.261 Y113.558 E22.46605
G1 X167.61 Y114.005 E22.48491
G1 X167.925 Y114.508 E22.50465
G1 X168.186 Y115.038 E22.5243
G1 X168.403 Y115.618 E22.5449
G1 X168.57 Y116.249 E22.56661
G1 X168.771 Y117.25 E22.60057
G1 X168.93 Y118.273 E22.635
G1 X169.054 Y119.232 E22.66716
G1 X169.212 Y120.668 E22.71521
G1 X169.268 Y121.106 E22.7299
G1 X169.268 Y121.286 E22.73589
G1 X169.235 Y122.24 E22.76764
G1 X169.193 Y123.119 E22.79691
G1 X169.143 Y123.91 E22.82327
G1 X169.08 Y124.622 E22.84704
G1 X168.999 Y125.277 E22.86899
G1 X168.903 Y125.863 E22.88874
G1 X168.79 Y126.382 E22.90641
G1 X168.651 Y126.859 E22.92293
G1 X168.499 Y127.264 E22.93732
G1 X168.318 Y127.638 E22.95114
G1 X168.115 Y127.972 E22.96414
G1 X167.874 Y128.293 E22.97749
G1 X167.603 Y128.586 E22.99077
G1 X167.297 Y128.863 E23.00449
G1 X166.932 Y129.144 E23.01981
G1 X166.549 Y129.4 E23.03514
G1 X164.957 Y130.328 E23.09643
G1 X163.35 Y131.135 E23.15624
G1 X161.721 Y131.819 E23.215
G1 X160.906 Y132.109 E23.24377
G1 X160.095 Y132.359 E23.272
G1 X155.315 Y133.648 E23.43666
G1 X150.52 Y134.851 E23.60109
G1 X147.638 Y135.538 E23.69963
G1 X144.748 Y136.285 E23.79891
G1 X140.098 Y137.597 E23.95961
G1 X136.244 Y138.67 E24.09267
G1 X134.285 Y139.181 E24.16
G1 X132.303 Y139.654 E24.22778
G1 X129.885 Y140.134 E24.30977
G1 X127.428 Y140.538 E24.39258
G1 X124.975 Y140.882 E24.47497
G1 X122.527 Y141.189 E24.55703
G1 X121.177 Y141.348 E24.60224
G1 X118.738 Y141.658 E24.68401
G1 X116.383 Y141.917 E24.76281
G1 X114.1 Y142.109 E24.83902
G1 X111.831 Y142.217 E24.91457
G1 X110.944 Y142.196 E24.94408
G1 X110.061 Y142.14 E24.97351
G1 X108.256 Y141.942 E25.0339
G1 X106.656 Y141.777 E25.0874
G1 X105.064 Y141.701 E25.14041
G1 X101.902 Y141.782 E25.24561
G1 X98.752 Y141.9 E25.35046
G1 X95.618 Y142.048 E25.45481
G1 X92.526 Y142.218 E25.5578
G1 X91.694 Y142.257 E25.58551
G1 X89.954 Y142.299 E25.6434
G1 X88.209 Y142.247 E25.70146
G1 X86.452 Y142.101 E25.7601
G1 X84.707 Y141.859 E25.8187
G1 X82.923 Y141.515 E25.87912
G1 X81.147 Y141.074 E25.93999
G1 X79.326 Y140.527 E26.00323
G1 X77.498 Y139.878 E26.06775
G1 X76.825 Y139.61 E26.09184
G1 X76.224 Y139.325 E26.11396
G1 X75.63 Y138.992 E26.13661
G1 X75.094 Y138.64 E26.15794
G1 X74.567 Y138.24 E26.17995
G1 X74.079 Y137.812 E26.20153
G1 X73.605 Y137.335 E26.2239
G1 X73.174 Y136.837 E26.24581
G1 X69.333 Y132.125 E26.448
G1 X68.54 Y131.065 E26.49203
G1 X67.851 Y130.012 E26.53388
G1 X67.26 Y128.956 E26.57413
G1 X66.769 Y127.899 E26.6129
G1 X66.376 Y126.839 E26.6505
G1 X66.076 Y125.753 E26.68797
G1 X65.875 Y124.67 E26.72461
G1 X65.77 Y123.56 E26.76169
G1 X65.732 Y122.805 E26.78683
G1 X65.751 Y122.11 E26.80996
G1 X65.807 Y121.398 E26.83371
G1 X65.898 Y120.723 E26.85637
G1 X66.03 Y120.023 E26.88006
G1 X66.195 Y119.342 E26.90336
G1 X66.402 Y118.657 E26.92716
G1 X66.64 Y117.998 E26.95047
G1 X66.914 Y117.344 E26.97405
G1 X67.228 Y116.688 E26.99824
G1 X67.589 Y116.023 E27.02341
G1 X67.968 Y115.397 E27.04775
G1 X68.395 Y114.761 E27.07323
G1 X68.869 Y114.119 E27.09977
G1 X69.365 Y113.505 E27.12602
G1 X69.897 Y112.897 E27.15289
G1 X70.477 Y112.287 E27.18089
G1 X72.678 Y110.101 E27.28406
G1 X74.903 Y107.985 E27.38619
G1 X77.122 Y105.969 E27.48591
G1 X79.372 Y104.024 E27.58483
G1 X81.799 Y102.037 E27.68915
G1 X83.029 Y101.098 E27.74062
G1 X84.266 Y100.221 E27.79105
G1 X85.538 Y99.405 E27.84132
G1 X86.857 Y98.655 E27.89178
G1 X88.209 Y97.994 E27.94184
G1 X89.638 Y97.419 E27.99307
G1 X92.337 Y96.444 E28.08852
G1 X95.053 Y95.521 E28.18393
G1 X98.038 Y94.483 E28.28904
G1 X101.041 Y93.42 E28.39499
G1 X101.885 Y93.147 E28.42449
G1 X102.693 Y92.944 E28.4522
G1 X103.497 Y92.8 E28.47937
G1 X104.28 Y92.721 E28.50555
G1 X105.055 Y92.701 E28.53133
G1 X105.813 Y92.743 E28.55658
G1 X106.56 Y92.846 E28.58166
G1 X107.281 Y93.007 E28.60623
G1 X108.018 Y93.236 E28.6319
G1 X108.719 Y93.516 E28.65701
G1 X109.431 Y93.868 E28.68342
G1 X110.123 Y94.277 E28.71016
G1 X110.806 Y94.751 E28.73781
