;FLAVOR:Marlin
;TIME:2857
;Filament used: 5.01433m
;Layer height: 0.28
;Generated with Cura_SteamEngine 3.6.0
M140 S50
M105
M190 S50
M104 S210
M105
M109 S210
M82 ;absolute extrusion mode
; Ender 3 Custom Start G-code
G28 ; Home all axes
G92 E0 ; Reset Extruder
G1 Z2.0 F3000 ; Move Z Axis up little to prevent scratching of Heat Bed
G1 X0.1 Y20 Z0.3 F5000.0 ; Move to start position
G1 X0.1 Y200.0 Z0.3 F1500.0 E15 ; Draw the first line
G1 X0.4 Y200.0 Z0.3 F5000.0 ; Move to side a little
G1 X0.4 Y20 Z0.3 F1500.0 E30 ; Draw the second line
G92 E0 ; Reset Extruder
G1 Z2.0 F3000 ; Move Z Axis up little to prevent scratching of Heat Bed
; End of custom start GCode
G92 E0
G1 F1500 E-5
;LAYER_COUNT:54
;LAYER:0
M107
M204 S5000
M205 X30 Y30
G0 F3600 X70.189 Y109.268 Z0.2
M204 S500
M205 X20 Y20
;TYPE:SKIRT
G1 F1500 E0
G1 F2400 X76.401 Y105.49 E0.24182
G1 X76.666 Y105.339 E0.25197
G1 X82.621 Y102.148 E0.47667
G1 X82.87 Y102.023 E0.48594
G1 X86.07 Y100.508 E0.6037
G1 X86.305 Y100.403 E0.61226
G1 X93.631 Y97.339 E0.87638
G1 X93.924 Y97.226 E0.88682
G1 X104.188 Y93.593 E1.24896
G1 X109.57 Y91.565 E1.44025
G1 X109.833 Y91.473 E1.44952
G1 X113.057 Y90.438 E1.56214
G1 X113.492 Y90.318 E1.57715
G1 X117.036 Y89.488 E1.69821
G1 X117.588 Y89.387 E1.71687
G1 X122.26 Y88.777 E1.87358
G1 X127.56 Y87.882 E2.05236
G1 X137.319 Y85.597 E2.38572
G1 X137.915 Y85.492 E2.40585
G1 X139.328 Y85.319 E2.4532
G1 X139.996 Y85.277 E2.47546
G1 X140.886 Y85.346 E2.50515
G1 X142.21 Y85.556 E2.54974
G1 X142.864 Y85.7 E2.57201
G1 X143.768 Y86.044 E2.60418
G1 X145.456 Y86.859 E2.66653
G1 X146.04 Y87.185 E2.68877
G1 X146.394 Y87.432 E2.70313
G1 X147.298 Y88.114 E2.74079
G1 X147.947 Y88.688 E2.76961
G1 X148.69 Y89.455 E2.80513
G1 X149.242 Y90.12 E2.83387
G1 X149.896 Y91.046 E2.87158
G1 X150.213 Y91.55 E2.89138
G1 X153.665 Y97.739 E3.12708
G1 X156.534 Y102.212 E3.30383
G1 X159.672 Y106.539 E3.48161
G1 X163.053 Y110.69 E3.65967
G1 X166.642 Y114.618 E3.83664
G1 X170.488 Y118.376 E4.01549
G1 X172.967 Y120.598 E4.12621
G1 X173.346 Y120.972 E4.14392
G1 X174.231 Y121.932 E4.18735
G1 X174.635 Y122.424 E4.20852
G1 X175.273 Y123.297 E4.24449
G1 X175.622 Y123.837 E4.26587
G1 X176.285 Y125.005 E4.31054
G1 X176.548 Y125.53 E4.33007
G1 X176.862 Y126.25 E4.3562
G1 X177.102 Y126.912 E4.37962
G1 X177.516 Y128.323 E4.42853
G1 X177.709 Y129.279 E4.46096
G1 X177.866 Y130.687 E4.50808
G1 X177.9 Y131.356 E4.53036
G1 X177.864 Y131.939 E4.54979
G1 X177.735 Y133.076 E4.58785
G1 X177.62 Y133.735 E4.6101
G1 X177.448 Y134.321 E4.63041
G1 X176.94 Y135.75 E4.68086
G1 X176.678 Y136.366 E4.70312
G1 X176.344 Y136.947 E4.72541
G1 X175.719 Y137.899 E4.76329
G1 X175.319 Y138.436 E4.78556
G1 X175.04 Y138.744 E4.79938
G1 X174.247 Y139.554 E4.83708
G1 X173.751 Y140.003 E4.85934
G1 X173.337 Y140.305 E4.87638
G1 X171.874 Y141.274 E4.93474
G1 X171.27 Y141.622 E4.95793
G1 X168.89 Y142.802 E5.04628
G1 X168.599 Y142.936 E5.05694
G1 X166.262 Y143.933 E5.14145
G1 X165.952 Y144.055 E5.15253
G1 X163.535 Y144.92 E5.23791
G1 X163.188 Y145.031 E5.25003
G1 X160.03 Y145.934 E5.35927
G1 X159.686 Y146.021 E5.37107
G1 X157.183 Y146.568 E5.45629
G1 X156.809 Y146.636 E5.46893
G1 X153.033 Y147.196 E5.5959
G1 X152.602 Y147.243 E5.61032
G1 X148.516 Y147.529 E5.74655
G1 X148.331 Y147.539 E5.75271
G1 X125.04 Y148.395 E6.5279
G1 X124.835 Y148.399 E6.53472
G1 X120.917 Y148.4 E6.66503
G1 X120.675 Y148.395 E6.67308
G1 X108.745 Y147.881 E7.07024
G1 X103.36 Y147.92 E7.24935
G1 X97.308 Y148.246 E7.45093
G1 X83.707 Y149.259 E7.90456
G1 X83.639 Y149.263 E7.90682
G1 X77.288 Y149.658 E8.11847
G1 X77.059 Y149.668 E8.12609
G1 X74.607 Y149.72 E8.20766
G1 X74.049 Y149.704 E8.22623
G1 X72.307 Y149.567 E8.28435
G1 X71.58 Y149.461 E8.30878
G1 X69.719 Y149.065 E8.37207
G1 X68.86 Y148.809 E8.40188
G1 X67.349 Y148.223 E8.45578
G1 X66.682 Y147.913 E8.48024
G1 X65.675 Y147.361 E8.51844
G1 X64.977 Y146.907 E8.54613
G1 X63.29 Y145.624 E8.61663
G1 X62.563 Y144.963 E8.64931
G1 X61.37 Y143.669 E8.70785
G1 X60.881 Y143.059 E8.73385
G1 X60.161 Y142.018 E8.77595
G1 X59.804 Y141.426 E8.79894
G1 X59.113 Y140.104 E8.84855
G1 X58.848 Y139.517 E8.86998
G1 X58.337 Y138.186 E8.9174
G1 X58.173 Y137.691 E8.93474
G1 X57.819 Y136.429 E8.97833
G1 X57.695 Y135.881 E8.99702
G1 X57.381 Y134.084 E9.0577
G1 X57.313 Y133.547 E9.0757
G1 X57.115 Y130.957 E9.16209
G1 X57.104 Y130.298 E9.18402
G1 X57.2 Y127.987 E9.26095
G1 X57.272 Y127.295 E9.28409
G1 X57.633 Y125.137 E9.35686
G1 X57.815 Y124.377 E9.38285
G1 X58.581 Y121.948 E9.46756
G1 X58.874 Y121.208 E9.49403
G1 X59.684 Y119.521 E9.55628
G1 X60.03 Y118.903 E9.57983
G1 X61.269 Y116.988 E9.65569
G1 X61.625 Y116.498 E9.67584
G1 X62.432 Y115.505 E9.7184
G1 X62.78 Y115.116 E9.73576
G1 X64.218 Y113.65 E9.80406
G1 X64.688 Y113.222 E9.8252
G1 X66.411 Y111.824 E9.899
G1 X66.819 Y111.523 E9.91586
G1 X69.979 Y109.403 E10.04243
G1 X70.189 Y109.268 E10.05073
M204 S5000
M205 X30 Y30
G0 F3600 X70.397 Y109.61
M204 S500
M205 X20 Y20
G1 F2400 X76.609 Y105.832 E10.29255
G1 X76.855 Y105.692 E10.30197
G1 X82.81 Y102.501 E10.52667
G1 X83.041 Y102.384 E10.53529
G1 X86.241 Y100.869 E10.65304
G1 X86.46 Y100.772 E10.66101
G1 X93.786 Y97.708 E10.92513
G1 X94.057 Y97.603 E10.93479
G1 X104.322 Y93.97 E11.29696
G1 X109.711 Y91.939 E11.48851
G1 X109.956 Y91.854 E11.49713
G1 X113.18 Y90.819 E11.60975
G1 X113.583 Y90.707 E11.62366
G1 X117.127 Y89.877 E11.74473
G1 X117.64 Y89.784 E11.76207
G1 X122.326 Y89.172 E11.91925
G1 X127.64 Y88.275 E12.09849
G1 X137.411 Y85.987 E12.43227
G1 X137.964 Y85.889 E12.45095
G1 X139.377 Y85.716 E12.4983
G1 X140.021 Y85.677 E12.51976
G1 X140.824 Y85.741 E12.54655
G1 X142.148 Y85.951 E12.59113
G1 X142.777 Y86.091 E12.61257
G1 X143.594 Y86.404 E12.64167
G1 X145.282 Y87.219 E12.70401
G1 X145.844 Y87.535 E12.72546
G1 X146.153 Y87.751 E12.738
G1 X147.057 Y88.433 E12.77566
G1 X147.66 Y88.966 E12.80243
G1 X148.403 Y89.733 E12.83794
G1 X148.915 Y90.351 E12.86464
G1 X149.569 Y91.277 E12.90234
G1 X149.864 Y91.744 E12.92071
G1 X153.323 Y97.947 E13.15694
G1 X156.206 Y102.44 E13.33449
G1 X159.36 Y106.789 E13.51318
G1 X162.748 Y110.949 E13.69162
G1 X166.358 Y114.901 E13.86965
G1 X170.212 Y118.666 E14.04885
G1 X172.7 Y120.896 E14.15997
G1 X173.052 Y121.243 E14.17641
G1 X173.937 Y122.203 E14.21984
G1 X174.312 Y122.66 E14.2395
G1 X174.95 Y123.533 E14.27547
G1 X175.274 Y124.034 E14.29531
G1 X175.937 Y125.202 E14.33998
G1 X176.181 Y125.69 E14.35813
G1 X176.495 Y126.41 E14.38425
G1 X176.719 Y127.025 E14.40602
G1 X177.133 Y128.436 E14.45493
G1 X177.311 Y129.324 E14.48505
G1 X177.468 Y130.732 E14.53217
G1 X177.5 Y131.376 E14.55362
G1 X177.467 Y131.894 E14.57088
G1 X177.338 Y133.031 E14.60894
G1 X177.226 Y133.666 E14.63039
G1 X177.071 Y134.187 E14.64847
G1 X176.563 Y135.616 E14.69891
G1 X176.309 Y136.209 E14.72037
G1 X176.01 Y136.728 E14.74029
G1 X175.385 Y137.68 E14.77817
G1 X174.998 Y138.196 E14.79962
G1 X174.754 Y138.464 E14.81167
G1 X173.961 Y139.274 E14.84938
G1 X173.482 Y139.706 E14.87083
G1 X173.116 Y139.971 E14.88586
G1 X171.653 Y140.94 E14.94422
G1 X171.092 Y141.264 E14.96577
G1 X168.712 Y142.444 E15.05413
G1 X168.442 Y142.568 E15.06401
G1 X166.105 Y143.565 E15.14851
G1 X165.817 Y143.678 E15.1588
G1 X163.4 Y144.543 E15.24419
G1 X163.078 Y144.647 E15.25544
G1 X159.92 Y145.55 E15.36469
G1 X159.6 Y145.63 E15.37566
G1 X157.097 Y146.177 E15.46087
G1 X156.75 Y146.241 E15.47261
G1 X152.974 Y146.801 E15.59957
G1 X152.574 Y146.844 E15.61295
G1 X148.488 Y147.13 E15.74919
G1 X148.316 Y147.139 E15.75491
G1 X125.025 Y147.995 E16.5301
G1 X124.835 Y147.999 E16.53642
G1 X120.917 Y148 E16.66673
G1 X120.692 Y147.995 E16.67422
G1 X108.759 Y147.481 E17.07148
G1 X103.336 Y147.52 E17.25185
G1 X97.303 Y147.845 E17.4528
G1 X83.677 Y148.86 E17.90726
G1 X83.614 Y148.864 E17.90936
G1 X77.263 Y149.259 E18.12101
G1 X77.05 Y149.268 E18.1281
G1 X74.598 Y149.32 E18.20967
G1 X74.08 Y149.305 E18.2269
G1 X72.338 Y149.168 E18.28502
G1 X71.664 Y149.07 E18.30768
G1 X69.803 Y148.674 E18.37096
G1 X69.005 Y148.436 E18.39866
G1 X67.494 Y147.85 E18.45256
G1 X66.874 Y147.562 E18.4753
G1 X65.867 Y147.01 E18.51349
G1 X65.219 Y146.589 E18.53919
G1 X63.532 Y145.306 E18.60969
G1 X62.857 Y144.692 E18.64003
G1 X61.664 Y143.398 E18.69857
G1 X61.21 Y142.831 E18.72273
G1 X60.49 Y141.79 E18.76483
G1 X60.159 Y141.241 E18.78615
G1 X59.468 Y139.919 E18.83577
G1 X59.221 Y139.374 E18.85567
G1 X58.71 Y138.043 E18.90309
G1 X58.558 Y137.583 E18.9192
G1 X58.204 Y136.321 E18.9628
G1 X58.089 Y135.812 E18.98015
G1 X57.775 Y134.015 E19.04083
G1 X57.712 Y133.516 E19.05755
G1 X57.514 Y130.926 E19.14395
G1 X57.503 Y130.314 E19.16431
G1 X57.599 Y128.003 E19.24124
G1 X57.666 Y127.361 E19.26271
G1 X58.027 Y125.203 E19.33548
G1 X58.197 Y124.497 E19.35963
G1 X58.963 Y122.068 E19.44434
G1 X59.234 Y121.381 E19.46891
G1 X60.044 Y119.694 E19.53115
G1 X60.366 Y119.12 E19.55304
G1 X61.605 Y117.205 E19.6289
G1 X61.936 Y116.75 E19.64762
G1 X62.743 Y115.757 E19.69017
G1 X63.066 Y115.396 E19.70629
G1 X64.504 Y113.93 E19.77459
G1 X64.94 Y113.533 E19.7942
G1 X66.663 Y112.135 E19.868
G1 X67.042 Y111.855 E19.88367
G1 X70.202 Y109.735 E20.01023
G1 X70.397 Y109.61 E20.01794
M204 S5000
M205 X30 Y30
G1 F1500 E15.01794
;MESH:3ec8fffc-162d-49ba-809f-5685c3556068.stl
G0 F3600 X73.242 Y113.164
G0 X73.947 Y114.236
G0 X85.522 Y119.553
G0 X85.619 Y119.532
M204 S500
M205 X20 Y20
;TYPE:WALL-INNER
G1 F1500 E20.01794
G1 F2400 X85.979 Y119.892 E20.03487
G1 X86.195 Y120.057 E20.04391
G1 X86.529 Y120.235 E20.0565
G1 X86.971 Y120.388 E20.07206
G1 X88.246 Y120.717 E20.11585
G1 X89.436 Y120.964 E20.15627
G1 X90.568 Y121.13 E20.19433
G1 X91.64 Y121.206 E20.23007
G1 X94.964 Y121.301 E20.34067
G1 X102.292 Y121.44 E20.58445
G1 X106.397 Y121.603 E20.72109
G1 X107.887 Y121.731 E20.77083
G1 X109.374 Y121.925 E20.82071
G1 X112.319 Y122.427 E20.92007
G1 X114.065 Y122.744 E20.97909
G1 X115.517 Y123.025 E21.02828
G1 X118.268 Y123.624 E21.12192
G1 X119.572 Y123.876 E21.1661
G1 X120.867 Y124.071 E21.20965
G1 X122.156 Y124.183 E21.25269
G1 X124.434 Y124.238 E21.32848
G1 X126.723 Y124.233 E21.40461
G1 X135.529 Y123.985 E21.69761
G1 X137.364 Y124.024 E21.75866
G1 X138.183 Y124.059 E21.78593
G1 X138.975 Y124.064 E21.81227
G1 X142.272 Y124.064 E21.92193
G1 X146.45 Y124.044 E22.06089
G1 X148.57 Y123.997 E22.13142
G1 X150.681 Y123.904 E22.2017
G1 X153.492 Y123.691 E22.29546
G1 X156.254 Y123.426 E22.38775
G1 X158.907 Y123.131 E22.47653
G1 X161.36 Y122.834 E22.55871
G1 X163.712 Y122.834 E22.63694
G1 X164.501 Y122.913 E22.66331
G1 X165.277 Y123.087 E22.68976
G1 X166.069 Y123.363 E22.71766
G1 X166.838 Y123.73 E22.746
G1 X167.597 Y124.192 E22.77555
G1 X168.316 Y124.734 E22.8055
G1 X168.997 Y125.36 E22.83627
G1 X169.62 Y126.058 E22.86739
G1 X170.106 Y126.7 E22.89417
G1 X170.525 Y127.353 E22.91997
G1 X170.882 Y128.021 E22.94516
G1 X171.179 Y128.706 E22.97
G1 X171.41 Y129.388 E22.99395
G1 X171.577 Y130.073 E23.0174
G1 X171.68 Y130.773 E23.04093
G1 X171.714 Y131.436 E23.06301
G1 X171.689 Y131.878 E23.07773
G1 X171.664 Y132.017 E23.08243
G1 X171.617 Y132.152 E23.08719
G1 X171.518 Y132.607 E23.10267
G1 X171.407 Y132.975 E23.11546
G1 X171.111 Y133.659 E23.14025
G1 X170.743 Y134.248 E23.16335
G1 X170.323 Y134.751 E23.18514
G1 X169.844 Y135.2 E23.20698
G1 X169.371 Y135.561 E23.22677
G1 X168.866 Y135.882 E23.24667
G1 X168.383 Y136.149 E23.26503
G1 X166.125 Y137.264 E23.34878
G1 X163.833 Y138.238 E23.43161
G1 X161.466 Y139.085 E23.51523
G1 X159.024 Y139.808 E23.59994
G1 X156.558 Y140.388 E23.68419
G1 X154.023 Y140.835 E23.76981
G1 X151.432 Y141.146 E23.8566
G1 X148.793 Y141.318 E23.94456
G1 X142.875 Y141.532 E24.14153
G1 X137.012 Y141.715 E24.33663
G1 X130.021 Y141.953 E24.56928
G1 X125.519 Y142.182 E24.71921
G1 X123.451 Y142.231 E24.78801
G1 X121.307 Y142.21 E24.85933
G1 X119.092 Y142.152 E24.93302
G1 X116.807 Y142.064 E25.00908
G1 X114.446 Y141.954 E25.08769
G1 X113.189 Y141.847 E25.12965
G1 X111.99 Y141.682 E25.16991
G1 X110.442 Y141.479 E25.22183
G1 X108.898 Y141.398 E25.27326
G1 X105.454 Y141.533 E25.38789
G1 X102.069 Y141.756 E25.50072
G1 X98.895 Y141.955 E25.6065
G1 X96.598 Y142.074 E25.683
G1 X93.255 Y142.272 E25.79438
G1 X87.771 Y142.71 E25.97736
G1 X85.392 Y142.911 E26.05677
G1 X82.984 Y143.096 E26.1371
G1 X78.151 Y143.422 E26.29821
G1 X77.883 Y143.422 E26.30712
G1 X75.561 Y143.534 E26.38444
G1 X74.448 Y143.53 E26.42146
G1 X73.318 Y143.459 E26.45912
G1 X72.216 Y143.303 E26.49614
G1 X71.11 Y143.038 E26.53396
G1 X70.017 Y142.646 E26.57258
G1 X69.481 Y142.399 E26.59221
G1 X68.955 Y142.116 E26.61208
G1 X68.144 Y141.596 E26.64412
G1 X67.423 Y141.041 E26.67438
G1 X66.78 Y140.451 E26.70341
G1 X66.219 Y139.842 E26.73095
G1 X65.697 Y139.17 E26.75925
G1 X65.263 Y138.511 E26.78549
G1 X64.877 Y137.819 E26.81185
G1 X64.551 Y137.126 E26.83732
G1 X64.266 Y136.405 E26.86311
G1 X64.03 Y135.69 E26.88815
G1 X63.838 Y134.984 E26.91249
G1 X63.681 Y134.272 E26.93674
G1 X63.46 Y132.881 E26.98358
G1 X63.338 Y131.614 E27.02592
G1 X63.285 Y130.384 E27.06686
G1 X63.307 Y129.236 E27.10505
G1 X63.399 Y128.105 E27.1428
G1 X63.563 Y126.986 E27.18041
G1 X63.794 Y125.919 E27.21672
G1 X64.091 Y124.892 E27.25228
G1 X64.471 Y123.851 E27.28914
G1 X64.91 Y122.873 E27.32479
G1 X65.419 Y121.922 E27.36067
G1 X65.993 Y121.009 E27.39654
G1 X66.648 Y120.112 E27.43348
G1 X67.349 Y119.276 E27.46977
G1 X68.14 Y118.45 E27.50781
G1 X68.976 Y117.682 E27.54556
G1 X69.905 Y116.929 E27.58534
G1 X70.886 Y116.226 E27.62548
G1 X73.937 Y114.22 E27.74692
G1 X77.04 Y112.295 E27.86838
G1 X80.202 Y110.451 E27.99012
G1 X83.374 Y108.716 E28.11037
G1 X86.332 Y107.215 E28.2207
G1 X89.307 Y105.842 E28.32968
G1 X92.252 Y104.575 E28.43631
G1 X95.145 Y103.384 E28.54037
G1 X97.72 Y102.436 E28.63163
G1 X100.31 Y101.571 E28.72245
G1 X102.739 Y100.779 E28.80743
G1 X105.182 Y99.894 E28.89385
G1 X106.338 Y99.416 E28.93545
G1 X109.45 Y98.199 E29.04659
G1 X112.599 Y97.063 E29.15794
G1 X114.216 Y96.547 E29.21439
G1 X115.828 Y96.094 E29.27008
G1 X117.456 Y95.709 E29.32572
G1 X119.105 Y95.403 E29.3815
G1 X122.573 Y95.01 E29.49759
G1 X124.732 Y94.776 E29.56982
G1 X125.802 Y94.632 E29.60573
G1 X126.87 Y94.445 E29.64179
G1 X130.575 Y93.619 E29.76804
G1 X134.24 Y92.733 E29.89345
G1 X136.552 Y92.142 E29.97282
G1 X138.905 Y91.587 E30.05323
G1 X139.547 Y91.478 E30.07489
G1 X140.174 Y91.467 E30.09575
G1 X140.749 Y91.539 E30.11502
G1 X141.283 Y91.688 E30.13346
G1 X141.77 Y91.893 E30.15104
G1 X142.271 Y92.143 E30.16966
G1 X142.706 Y92.402 E30.1865
G1 X143.133 Y92.7 E30.20382
G1 X143.528 Y93.023 E30.22079
G1 X143.89 Y93.369 E30.23744
G1 X144.23 Y93.748 E30.25438
G1 X144.529 Y94.138 E30.27072
G1 X144.798 Y94.552 E30.28714
G1 X145.055 Y95.024 E30.30502
G1 X145.262 Y95.481 E30.3217
G1 X145.448 Y95.983 E30.33951
G1 X145.606 Y96.521 E30.35816
G1 X145.73 Y97.08 E30.3772
G1 X145.821 Y97.662 E30.3968
G1 X145.878 Y98.25 E30.41645
G1 X145.88 Y98.639 E30.42938
G1 X145.829 Y99.1 E30.44481
G1 X145.73 Y99.573 E30.46088
G1 X145.574 Y100.064 E30.47802
G1 X145.37 Y100.521 E30.49466
G1 X145.113 Y100.941 E30.51104
G1 X144.828 Y101.269 E30.52549
G1 X144.482 Y101.53 E30.53991
G1 X143.673 Y101.989 E30.57084
G1 X142.852 Y102.424 E30.60175
G1 X142.069 Y102.806 E30.63072
G1 X141.287 Y103.155 E30.65921
G1 X140.525 Y103.462 E30.68653
G1 X139.773 Y103.731 E30.71309
G1 X139.048 Y103.956 E30.73834
G1 X138.325 Y104.147 E30.76321
G1 X135.38 Y104.834 E30.86379
G1 X133.854 Y105.161 E30.9157
G1 X132.264 Y105.482 E30.96965
G1 X130.605 Y105.799 E31.02583
G1 X128.855 Y106.116 E31.08498
G1 X127.018 Y106.436 E31.147
G1 X123.681 Y106.994 E31.25953
G1 X122.326 Y107.255 E31.30543
G1 X121.009 Y107.538 E31.35023
G1 X119.718 Y107.846 E31.39437
G1 X117.234 Y108.535 E31.48011
G1 X114.859 Y109.32 E31.56331
G1 X112.281 Y110.14 E31.65329
G1 X109.651 Y110.819 E31.74363
G1 X106.972 Y111.357 E31.83451
G1 X104.211 Y111.757 E31.9273
G1 X102.463 Y111.977 E31.9859
G1 X100.776 Y112.228 E32.04263
G1 X99.152 Y112.52 E32.09751
G1 X97.584 Y112.865 E32.15091
G1 X96.067 Y113.274 E32.20316
G1 X94.593 Y113.758 E32.25476
G1 X93.155 Y114.326 E32.30619
G1 X91.754 Y114.992 E32.35778
G1 X90.338 Y115.763 E32.41141
G1 X89.001 Y116.559 E32.46316
G1 X87.738 Y117.379 E32.51324
G1 X86.538 Y118.228 E32.56214
