;FLAVOR:Marlin
;TIME:4054
;Filament used: 6.57494m
;Layer height: 0.28
;Generated with Cura_SteamEngine 3.6.0
M140 S50
M105
M190 S50
M104 S210
M105
M109 S210
M82 ;absolute extrusion mode
; Ender 3 Custom Start G-code
G28 ; Home all axes
G92 E0 ; Reset Extruder
G1 Z2.0 F3000 ; Move Z Axis up little to prevent scratching of Heat Bed
G1 X0.1 Y20 Z0.3 F5000.0 ; Move to start position
G1 X0.1 Y200.0 Z0.3 F1500.0 E15 ; Draw the first line
G1 X0.4 Y200.0 Z0.3 F5000.0 ; Move to side a little
G1 X0.4 Y20 Z0.3 F1500.0 E30 ; Draw the second line
G92 E0 ; Reset Extruder
G1 Z2.0 F3000 ; Move Z Axis up little to prevent scratching of Heat Bed
; End of custom start GCode
G92 E0
G1 F1500 E-5
;LAYER_COUNT:54
;LAYER:0
M107
M204 S5000
M205 X30 Y30
G0 F3600 X59.293 Y86.118 Z0.2
M204 S500
M205 X20 Y20
;TYPE:SKIRT
G1 F1500 E0
G1 F2400 X60.977 Y85.082 E0.06576
G1 X61.768 Y84.678 E0.0953
G1 X64.873 Y83.392 E0.20708
G1 X65.332 Y83.225 E0.22333
G1 X66.791 Y82.765 E0.27421
G1 X67.174 Y82.659 E0.28743
G1 X69.028 Y82.216 E0.35083
G1 X69.56 Y82.116 E0.36883
G1 X71.883 Y81.794 E0.44683
G1 X72.324 Y81.751 E0.46157
G1 X78.506 Y81.389 E0.66754
G1 X87.383 Y80.577 E0.96402
G1 X95.875 Y79.605 E1.24831
G1 X102.282 Y78.655 E1.46374
G1 X102.526 Y78.624 E1.47192
G1 X106.471 Y78.215 E1.60383
G1 X106.91 Y78.187 E1.61846
G1 X120.357 Y77.856 E2.06585
G1 X126.235 Y77.417 E2.26189
G1 X131.68 Y76.852 E2.44397
G1 X132.033 Y76.827 E2.45574
G1 X133.697 Y76.76 E2.51113
G1 X134.234 Y76.764 E2.52899
G1 X143.871 Y77.302 E2.85002
G1 X144.013 Y77.311 E2.85475
G1 X150.655 Y77.851 E3.07639
G1 X158.26 Y78.357 E3.32989
G1 X158.718 Y78.407 E3.34522
G1 X163.276 Y79.089 E3.4985
G1 X163.772 Y79.186 E3.51531
G1 X165.689 Y79.653 E3.58094
G1 X166.04 Y79.751 E3.59306
G1 X168.336 Y80.471 E3.67309
G1 X168.745 Y80.617 E3.68754
G1 X170.647 Y81.38 E3.7557
G1 X170.924 Y81.499 E3.76572
G1 X172.775 Y82.36 E3.83362
G1 X173.423 Y82.716 E3.85821
G1 X175.39 Y83.97 E3.9358
G1 X175.932 Y84.363 E3.95807
G1 X176.223 Y84.619 E3.97096
G1 X177.657 Y85.972 E4.03653
G1 X178.254 Y86.633 E4.06616
G1 X178.755 Y87.285 E4.09351
G1 X179.138 Y87.851 E4.11624
G1 X179.777 Y88.934 E4.15806
G1 X180.146 Y89.681 E4.18577
G1 X180.727 Y91.118 E4.23732
G1 X180.985 Y91.93 E4.26566
G1 X181.345 Y93.455 E4.31778
G1 X181.477 Y94.292 E4.34596
G1 X181.609 Y95.928 E4.40055
G1 X181.621 Y96.645 E4.4244
G1 X181.562 Y97.883 E4.46562
G1 X181.5 Y98.484 E4.48572
G1 X181.277 Y99.906 E4.53359
G1 X181.146 Y100.517 E4.55438
G1 X180.71 Y102.109 E4.60928
G1 X180.495 Y102.743 E4.63154
G1 X180.342 Y103.085 E4.644
G1 X179.926 Y103.938 E4.67557
G1 X179.435 Y104.758 E4.70736
G1 X178.869 Y105.543 E4.73955
G1 X178.446 Y106.061 E4.76179
G1 X178.199 Y106.313 E4.77353
G1 X177.497 Y106.985 E4.80585
G1 X176.987 Y107.418 E4.8281
G1 X176.645 Y107.656 E4.84196
G1 X175.755 Y108.226 E4.87711
G1 X175.049 Y108.609 E4.90383
G1 X174.562 Y108.83 E4.92161
G1 X173.945 Y109.068 E4.94361
G1 X166.13 Y111.554 E5.21637
G1 X161.182 Y113.489 E5.39308
G1 X156.333 Y115.712 E5.5705
G1 X151.618 Y118.204 E5.74787
G1 X147.048 Y120.961 E5.92539
G1 X142.62 Y123.987 E6.10377
G1 X138.406 Y127.23 E6.28063
G1 X134.363 Y130.724 E6.45836
G1 X130.486 Y134.477 E6.63783
G1 X127.457 Y137.66 E6.78397
G1 X126.969 Y138.116 E6.80618
G1 X126.212 Y138.742 E6.83885
G1 X125.75 Y139.085 E6.85799
G1 X118.233 Y144.098 E7.15851
G1 X118.017 Y144.235 E7.16701
G1 X112.981 Y147.271 E7.3626
G1 X112.591 Y147.485 E7.37739
G1 X107.32 Y150.116 E7.57333
G1 X100.967 Y153.544 E7.81343
G1 X100.669 Y153.694 E7.82453
G1 X98.933 Y154.501 E7.8882
G1 X98.453 Y154.698 E7.90546
G1 X93.834 Y156.345 E8.06856
G1 X93.329 Y156.498 E8.08611
G1 X91.093 Y157.065 E8.16283
G1 X90.73 Y157.145 E8.1752
G1 X86.957 Y157.839 E8.30279
G1 X86.61 Y157.891 E8.31446
G1 X84.807 Y158.107 E8.37486
G1 X84.333 Y158.144 E8.39067
G1 X81.677 Y158.235 E8.47906
G1 X80.966 Y158.214 E8.50272
G1 X78.891 Y158.021 E8.57204
G1 X78.136 Y157.898 E8.59748
G1 X76.005 Y157.4 E8.67026
G1 X75.342 Y157.201 E8.69329
G1 X74.086 Y156.738 E8.73781
G1 X73.47 Y156.468 E8.76018
G1 X72.006 Y155.718 E8.81489
G1 X71.491 Y155.419 E8.8347
G1 X70.523 Y154.785 E8.87318
G1 X70.114 Y154.49 E8.88996
G1 X69.172 Y153.744 E8.92992
G1 X68.625 Y153.248 E8.95448
G1 X66.86 Y151.424 E9.0389
G1 X66.421 Y150.912 E9.06133
G1 X65.567 Y149.785 E9.10836
G1 X65.314 Y149.424 E9.12303
G1 X64.234 Y147.738 E9.18962
G1 X63.918 Y147.174 E9.21112
G1 X62.76 Y144.802 E9.29892
G1 X62.495 Y144.163 E9.32192
G1 X61.933 Y142.526 E9.37949
G1 X61.794 Y142.054 E9.39586
G1 X61.53 Y140.988 E9.43238
G1 X61.421 Y140.425 E9.45146
G1 X61.154 Y138.533 E9.51501
G1 X61.108 Y138.066 E9.53061
G1 X60.971 Y135.639 E9.61147
G1 X60.448 Y130.26 E9.79122
G1 X59.635 Y124.999 E9.96827
G1 X58.52 Y119.769 E10.14613
G1 X57.105 Y114.587 E10.3248
G1 X56.312 Y112.1 E10.41162
G1 X54.456 Y106.913 E10.59485
G1 X54.291 Y106.363 E10.61395
G1 X54.19 Y105.952 E10.62803
G1 X54.084 Y105.405 E10.64656
G1 X53.533 Y101.533 E10.77664
G1 X53.484 Y101.017 E10.79388
G1 X53.377 Y98.826 E10.86684
G1 X53.371 Y98.469 E10.87871
G1 X53.393 Y96.996 E10.92771
G1 X53.466 Y96.175 E10.95513
G1 X53.786 Y94.221 E11.02098
G1 X53.933 Y93.568 E11.04324
G1 X54.073 Y93.149 E11.05794
G1 X54.579 Y91.808 E11.10561
G1 X54.974 Y90.975 E11.13627
G1 X55.564 Y89.958 E11.17538
G1 X56.053 Y89.247 E11.20408
G1 X56.813 Y88.307 E11.24428
G1 X57.451 Y87.64 E11.27498
G1 X58.51 Y86.7 E11.32208
G1 X59.293 Y86.118 E11.35453
M204 S5000
M205 X30 Y30
G0 F3600 X59.502 Y86.459
M204 S500
M205 X20 Y20
G1 F2400 X61.186 Y85.423 E11.42029
G1 X61.921 Y85.048 E11.44773
G1 X65.026 Y83.762 E11.55951
G1 X65.452 Y83.607 E11.57459
G1 X66.911 Y83.147 E11.62547
G1 X67.267 Y83.048 E11.63776
G1 X69.121 Y82.605 E11.70116
G1 X69.615 Y82.512 E11.71788
G1 X71.938 Y82.19 E11.79588
G1 X72.348 Y82.15 E11.80958
G1 X78.566 Y81.785 E12.01675
G1 X87.417 Y80.976 E12.31236
G1 X95.892 Y80.006 E12.59608
G1 X102.341 Y79.05 E12.81292
G1 X102.567 Y79.022 E12.8205
G1 X106.512 Y78.613 E12.95241
G1 X106.92 Y78.587 E12.96601
G1 X120.356 Y78.257 E13.41303
G1 X126.307 Y77.812 E13.61151
G1 X131.721 Y77.25 E13.79255
G1 X132.049 Y77.226 E13.80349
G1 X133.713 Y77.159 E13.85888
G1 X134.212 Y77.163 E13.87547
G1 X143.849 Y77.701 E14.1965
G1 X143.981 Y77.71 E14.2009
G1 X150.596 Y78.248 E14.42164
G1 X158.234 Y78.756 E14.67625
G1 X158.658 Y78.802 E14.69043
G1 X163.216 Y79.484 E14.84372
G1 X163.678 Y79.575 E14.85938
G1 X165.595 Y80.042 E14.925
G1 X165.92 Y80.132 E14.93622
G1 X168.216 Y80.852 E15.01625
G1 X168.596 Y80.988 E15.02968
G1 X170.498 Y81.751 E15.09784
G1 X170.755 Y81.862 E15.10715
G1 X172.606 Y82.723 E15.17505
G1 X173.208 Y83.053 E15.19788
G1 X175.175 Y84.307 E15.27547
G1 X175.696 Y84.687 E15.29692
G1 X175.949 Y84.91 E15.30813
G1 X177.383 Y86.263 E15.37371
G1 X177.937 Y86.877 E15.40121
G1 X178.438 Y87.529 E15.42856
G1 X178.794 Y88.055 E15.44969
G1 X179.433 Y89.138 E15.49151
G1 X179.775 Y89.831 E15.51721
G1 X180.356 Y91.268 E15.56877
G1 X180.596 Y92.022 E15.59508
G1 X180.956 Y93.547 E15.6472
G1 X181.078 Y94.324 E15.67336
G1 X181.21 Y95.96 E15.72795
G1 X181.221 Y96.626 E15.7501
G1 X181.162 Y97.864 E15.79133
G1 X181.105 Y98.422 E15.80998
G1 X180.882 Y99.844 E15.85786
G1 X180.76 Y100.412 E15.87718
G1 X180.324 Y102.004 E15.93208
G1 X180.116 Y102.614 E15.95351
G1 X179.983 Y102.909 E15.96428
G1 X179.567 Y103.762 E15.99584
G1 X179.111 Y104.524 E16.02538
G1 X178.545 Y105.309 E16.05757
G1 X177.923 Y106.024 E16.08909
G1 X177.221 Y106.696 E16.12141
G1 X176.728 Y107.112 E16.14286
G1 X176.429 Y107.319 E16.15496
G1 X175.539 Y107.889 E16.19011
G1 X174.884 Y108.245 E16.21491
G1 X174.397 Y108.466 E16.23269
G1 X173.824 Y108.686 E16.25311
G1 X166.012 Y111.171 E16.52577
G1 X161.027 Y113.121 E16.7038
G1 X156.158 Y115.353 E16.88195
G1 X151.417 Y117.858 E17.06029
G1 X146.816 Y120.634 E17.23902
G1 X142.395 Y123.655 E17.41711
G1 X138.145 Y126.925 E17.59547
G1 X134.096 Y130.425 E17.77348
G1 X130.2 Y134.196 E17.95382
G1 X127.167 Y137.384 E18.10017
G1 X126.714 Y137.807 E18.12079
G1 X125.957 Y138.433 E18.15346
G1 X125.528 Y138.752 E18.17124
G1 X118.011 Y143.765 E18.47175
G1 X117.811 Y143.892 E18.47963
G1 X112.775 Y146.928 E18.67521
G1 X112.412 Y147.128 E18.689
G1 X107.118 Y149.77 E18.88579
G1 X100.777 Y153.192 E19.12544
G1 X100.5 Y153.331 E19.13575
G1 X98.764 Y154.138 E19.19942
G1 X98.318 Y154.321 E19.21546
G1 X93.699 Y155.968 E19.37856
G1 X93.231 Y156.11 E19.39482
G1 X90.995 Y156.677 E19.47155
G1 X90.658 Y156.751 E19.48302
G1 X86.885 Y157.445 E19.61062
G1 X86.563 Y157.494 E19.62145
G1 X84.76 Y157.71 E19.68185
G1 X84.319 Y157.744 E19.69656
G1 X81.663 Y157.835 E19.78495
G1 X81.003 Y157.816 E19.80691
G1 X78.928 Y157.623 E19.87622
G1 X78.227 Y157.509 E19.89985
G1 X76.096 Y157.011 E19.97263
G1 X75.48 Y156.826 E19.99403
G1 X74.224 Y156.363 E20.03855
G1 X73.652 Y156.112 E20.05932
G1 X72.188 Y155.362 E20.11404
G1 X71.71 Y155.084 E20.13243
G1 X70.742 Y154.45 E20.17091
G1 X70.363 Y154.177 E20.18645
G1 X69.421 Y153.431 E20.22641
G1 X68.912 Y152.97 E20.24926
G1 X67.147 Y151.146 E20.33367
G1 X66.739 Y150.671 E20.3545
G1 X65.885 Y149.544 E20.40153
G1 X65.651 Y149.208 E20.41515
G1 X64.571 Y147.522 E20.48175
G1 X64.277 Y146.998 E20.50173
G1 X63.119 Y144.626 E20.58952
G1 X62.874 Y144.033 E20.61086
G1 X62.312 Y142.396 E20.66843
G1 X62.182 Y141.958 E20.68362
G1 X61.918 Y140.892 E20.72015
G1 X61.817 Y140.369 E20.73787
G1 X61.55 Y138.477 E20.80142
G1 X61.507 Y138.043 E20.81592
G1 X61.369 Y135.602 E20.89724
G1 X60.846 Y130.214 E21.07729
G1 X60.028 Y124.926 E21.25526
G1 X58.908 Y119.669 E21.43403
G1 X57.491 Y114.48 E21.61294
G1 X56.687 Y111.962 E21.70085
G1 X54.833 Y106.779 E21.88394
G1 X54.679 Y106.268 E21.90169
G1 X54.578 Y105.857 E21.91577
G1 X54.48 Y105.349 E21.93297
G1 X53.929 Y101.477 E22.06306
G1 X53.883 Y100.998 E22.07906
G1 X53.776 Y98.807 E22.15202
G1 X53.771 Y98.475 E22.16306
G1 X53.793 Y97.002 E22.21206
G1 X53.86 Y96.24 E22.2375
G1 X54.18 Y94.286 E22.30336
G1 X54.324 Y93.657 E22.32482
G1 X54.447 Y93.29 E22.33769
G1 X54.953 Y91.949 E22.38537
G1 X55.32 Y91.176 E22.41383
G1 X55.91 Y90.159 E22.45293
G1 X56.364 Y89.499 E22.47958
G1 X57.124 Y88.559 E22.51978
G1 X57.716 Y87.939 E22.54829
G1 X58.775 Y86.999 E22.59539
G1 X59.502 Y86.459 E22.62551
M204 S5000
M205 X30 Y30
G1 F1500 E17.62551
;MESH:c7378085-ad09-4856-8c8f-a517d9fc1bb7.stl
G0 F3600 X63.763 Y89.175
G0 X64.341 Y90.321
G0 X93.189 Y102.511
G0 X93.592 Y103.376
G0 X93.495 Y103.352
M204 S500
M205 X20 Y20
;TYPE:WALL-INNER
G1 F1500 E22.62551
G1 F2400 X93.168 Y102.544 E22.6545
G1 X90.98 Y102.693 E22.72744
G1 X88.058 Y102.969 E22.82506
G1 X86.023 Y103.231 E22.89331
G1 X84.007 Y103.555 E22.96122
G1 X82.01 Y103.944 E23.02889
G1 X80.032 Y104.398 E23.09639
G1 X78.077 Y104.913 E23.16363
G1 X76.144 Y105.494 E23.23076
G1 X73.649 Y106.336 E23.31834
G1 X71.548 Y107.07 E23.39236
G1 X70.482 Y107.406 E23.42954
G1 X69.406 Y107.701 E23.46665
G1 X68.34 Y107.934 E23.50294
G1 X67.211 Y108.105 E23.54092
G1 X66.105 Y108.186 E23.5778
G1 X64.938 Y108.168 E23.61662
G1 X64.181 Y108.1 E23.6419
G1 X63.418 Y107.96 E23.6677
G1 X62.685 Y107.727 E23.69328
G1 X61.996 Y107.37 E23.71909
G1 X61.704 Y107.159 E23.73108
G1 X61.402 Y106.891 E23.74451
G1 X61.142 Y106.6 E23.75749
G1 X60.885 Y106.236 E23.77231
G1 X60.658 Y105.831 E23.78775
G1 X60.455 Y105.357 E23.8049
G1 X60.281 Y104.811 E23.82396
G1 X60.144 Y104.206 E23.84459
G1 X59.868 Y102.48 E23.90273
G1 X59.678 Y100.812 E23.95856
G1 X59.576 Y99.193 E24.01252
G1 X59.561 Y97.641 E24.06414
G1 X59.588 Y96.998 E24.08554
G1 X59.653 Y96.379 E24.10625
G1 X59.755 Y95.794 E24.126
G1 X59.89 Y95.248 E24.1447
G1 X60.062 Y94.723 E24.16308
G1 X60.272 Y94.21 E24.18152
G1 X60.52 Y93.714 E24.19996
G1 X60.811 Y93.229 E24.21877
G1 X61.113 Y92.804 E24.23611
G1 X61.467 Y92.378 E24.25453
G1 X61.856 Y91.975 E24.27316
G1 X62.289 Y91.586 E24.29252
G1 X62.737 Y91.236 E24.31143
G1 X63.244 Y90.895 E24.33175
G1 X63.762 Y90.591 E24.35173
G1 X64.333 Y90.303 E24.373
G1 X65.611 Y89.738 E24.41948
G1 X66.845 Y89.257 E24.46353
G1 X68.069 Y88.843 E24.5065
G1 X69.254 Y88.51 E24.54744
G1 X70.434 Y88.245 E24.58767
G1 X71.616 Y88.048 E24.62752
G1 X72.805 Y87.919 E24.6673
G1 X73.992 Y87.857 E24.70684
G1 X76.921 Y87.72 E24.80436
G1 X79.856 Y87.508 E24.90223
G1 X85.648 Y86.981 E25.09567
G1 X88.431 Y86.704 E25.18869
G1 X93.32 Y86.177 E25.35224
G1 X95.689 Y85.887 E25.43163
G1 X97.978 Y85.589 E25.5084
G1 X103.779 Y84.696 E25.70361
G1 X105.142 Y84.523 E25.74931
G1 X106.488 Y84.405 E25.79425
G1 X111.141 Y84.241 E25.94911
G1 X118.708 Y84.122 E26.20082
G1 X121.734 Y84.048 E26.30149
G1 X123.588 Y83.931 E26.36328
G1 X125.463 Y83.727 E26.42601
G1 X127.445 Y83.529 E26.49226
G1 X129.631 Y83.29 E26.5654
G1 X132.271 Y83.014 E26.65369
G1 X133.565 Y82.947 E26.69678
G1 X134.902 Y82.976 E26.74126
G1 X143.042 Y83.455 E27.01247
G1 X145.766 Y83.663 E27.10333
G1 X148.488 Y83.927 E27.19429
G1 X155.285 Y84.364 E27.42083
G1 X157.056 Y84.467 E27.47983
G1 X158.753 Y84.63 E27.53653
G1 X160.361 Y84.847 E27.5905
G1 X161.949 Y85.13 E27.64415
G1 X163.427 Y85.46 E27.69452
G1 X164.885 Y85.857 E27.74478
G1 X166.292 Y86.312 E27.79396
G1 X167.632 Y86.818 E27.8416
G1 X169.759 Y87.766 E27.91905
G1 X170.761 Y88.308 E27.95694
G1 X171.712 Y88.924 E27.99463
G1 X172.586 Y89.628 E28.03196
G1 X173.378 Y90.444 E28.06978
G1 X173.718 Y90.878 E28.08811
G1 X174.051 Y91.373 E28.10796
G1 X174.351 Y91.899 E28.1281
G1 X174.614 Y92.454 E28.14852
G1 X174.982 Y93.425 E28.18306
G1 X175.236 Y94.391 E28.21628
G1 X175.387 Y95.396 E28.25008
G1 X175.438 Y96.425 E28.28435
G1 X175.403 Y97.287 E28.31304
G1 X175.302 Y98.172 E28.34267
G1 X175.135 Y99.077 E28.37328
G1 X174.906 Y99.987 E28.40449
G1 X174.753 Y100.433 E28.42017
G1 X174.558 Y100.869 E28.43606
G1 X174.336 Y101.268 E28.45124
G1 X174.091 Y101.627 E28.4657
G1 X173.81 Y101.966 E28.48035
G1 X173.499 Y102.275 E28.49493
G1 X173.164 Y102.552 E28.50939
G1 X172.814 Y102.79 E28.52346
G1 X172.421 Y103.008 E28.53841
G1 X172.006 Y103.192 E28.55351
G1 X171.571 Y103.341 E28.5688
G1 X171.097 Y103.461 E28.58507
G1 X170.621 Y103.541 E28.60112
G1 X170.12 Y103.586 E28.61785
G1 X169.577 Y103.596 E28.63591
G1 X169.036 Y103.566 E28.65393
G1 X167.805 Y103.415 E28.69518
G1 X166.621 Y103.214 E28.73513
G1 X162.155 Y102.268 E28.88696
G1 X158.702 Y101.514 E29.00452
G1 X154.892 Y100.717 E29.13398
G1 X152.953 Y100.39 E29.19938
G1 X151.013 Y100.154 E29.26438
G1 X149.19 Y100.028 E29.32516
G1 X147.357 Y99.987 E29.38614
G1 X145.513 Y100.028 E29.44749
G1 X143.66 Y100.154 E29.50926
G1 X141.801 Y100.361 E29.57148
G1 X139.935 Y100.651 E29.63428
G1 X138.067 Y101.025 E29.69765
G1 X136.206 Y101.479 E29.76136
G1 X133.738 Y102.116 E29.84614
G1 X129.089 Y103.363 E30.00623
G1 X124.418 Y104.701 E30.16783
G1 X122.087 Y105.424 E30.24901
G1 X119.771 Y106.192 E30.33016
G1 X117.476 Y107.013 E30.41123
G1 X115.217 Y107.893 E30.49187
G1 X110.851 Y109.622 E30.64805
G1 X109.621 Y110.154 E30.69262
G1 X108.41 Y110.736 E30.73731
G1 X106.872 Y111.61 E30.79615
G1 X105.389 Y112.589 E30.85525
G1 X103.289 Y113.936 E30.93823
G1 X100.059 Y115.788 E31.06207
G1 X97.133 Y117.444 E31.17389
G1 X95.689 Y118.333 E31.23029
G1 X94.293 Y119.271 E31.28623
G1 X91.651 Y121.24 E31.39582
G1 X89.054 Y123.293 E31.50593
G1 X86.476 Y125.417 E31.61703
G1 X83.887 Y127.604 E31.72975
G1 X82.589 Y128.775 E31.78789
G1 X81.306 Y130.084 E31.84886
G1 X80.694 Y130.817 E31.88062
G1 X80.13 Y131.599 E31.91269
G1 X79.627 Y132.442 E31.94534
G1 X79.205 Y133.337 E31.97825
G1 X78.967 Y133.957 E32.00034
G1 X78.797 Y134.57 E32.02149
G1 X78.696 Y135.168 E32.04166
G1 X78.665 Y135.751 E32.06108
G1 X78.704 Y136.312 E32.07979
G1 X78.815 Y136.85 E32.09806
G1 X78.998 Y137.358 E32.11602
G1 X79.252 Y137.829 E32.13381
G1 X79.578 Y138.254 E32.15163
G1 X79.97 Y138.624 E32.16956
G1 X80.419 Y138.933 E32.18769
G1 X80.917 Y139.182 E32.20621
G1 X81.456 Y139.371 E32.2252
G1 X82.033 Y139.505 E32.2449
G1 X82.645 Y139.584 E32.26543
G1 X83.289 Y139.61 E32.28687
G1 X84.855 Y139.546 E32.33899
G1 X86.389 Y139.364 E32.39037
G1 X87.897 Y139.08 E32.44141
G1 X89.385 Y138.711 E32.4924
G1 X90.861 Y138.275 E32.54359
G1 X92.332 Y137.785 E32.59516
G1 X95.407 Y136.674 E32.70391
G1 X97.211 Y135.969 E32.76833
G1 X98.986 Y135.185 E32.83286
G1 X100.73 Y134.336 E32.89738
