;FLAVOR:Marlin
;TIME:4159
;Filament used: 7.26741m
;Layer height: 0.28
;Generated with Cura_SteamEngine 3.6.0
M140 S50
M105
M190 S50
M104 S210
M105
M109 S210
M82 ;absolute extrusion mode
; Ender 3 Custom Start G-code
G28 ; Home all axes
G92 E0 ; Reset Extruder
G1 Z2.0 F3000 ; Move Z Axis up little to prevent scratching of Heat Bed
G1 X0.1 Y20 Z0.3 F5000.0 ; Move to start position
G1 X0.1 Y200.0 Z0.3 F1500.0 E15 ; Draw the first line
G1 X0.4 Y200.0 Z0.3 F5000.0 ; Move to side a little
G1 X0.4 Y20 Z0.3 F1500.0 E30 ; Draw the second line
G92 E0 ; Reset Extruder
G1 Z2.0 F3000 ; Move Z Axis up little to prevent scratching of Heat Bed
; End of custom start GCode
G92 E0
G1 F1500 E-6
;LAYER_COUNT:54
;LAYER:0
M107
M204 S5000
M205 X30 Y30
G0 F3600 X46.972 Y78.973 Z0.2
M204 S500
M205 X20 Y20
;TYPE:SKIRT
G1 F1500 E0
G1 F2400 X47.325 Y78.79 E0.01322
G1 X49.041 Y77.973 E0.07644
G1 X49.661 Y77.722 E0.09868
G1 X49.99 Y77.622 E0.11012
G1 X51.566 Y77.197 E0.16441
G1 X52.289 Y77.052 E0.18894
G1 X53.528 Y76.888 E0.23051
G1 X53.847 Y76.855 E0.24117
G1 X57.197 Y76.605 E0.3529
G1 X63.648 Y75.79 E0.56917
G1 X67.28 Y75.241 E0.69134
G1 X67.553 Y75.206 E0.7005
G1 X71.378 Y74.819 E0.82837
G1 X71.585 Y74.802 E0.83528
G1 X74.611 Y74.609 E0.93613
G1 X80.693 Y73.929 E1.13967
G1 X85.128 Y73.378 E1.28832
G1 X85.7 Y73.336 E1.30739
G1 X96.506 Y73.109 E1.66688
G1 X96.566 Y73.108 E1.66888
G1 X113.09 Y72.938 E2.2185
G1 X113.241 Y72.939 E2.22352
G1 X122.724 Y73.097 E2.53897
G1 X133.484 Y72.925 E2.89689
G1 X134.114 Y72.95 E2.91786
G1 X138.741 Y73.399 E3.07248
G1 X138.858 Y73.412 E3.0764
G1 X149.423 Y74.663 E3.43025
G1 X155.573 Y75.16 E3.63546
G1 X173.673 Y75.936 E4.23802
G1 X174.495 Y76.033 E4.26555
G1 X175.479 Y76.223 E4.29889
G1 X176.189 Y76.409 E4.3233
G1 X178.347 Y77.129 E4.39896
G1 X178.733 Y77.273 E4.41266
G1 X180.031 Y77.815 E4.45945
G1 X180.447 Y78.01 E4.47473
G1 X182.46 Y79.052 E4.55012
G1 X182.969 Y79.35 E4.56974
G1 X184.822 Y80.572 E4.64356
G1 X185.31 Y80.933 E4.66375
G1 X186.981 Y82.316 E4.7359
G1 X187.383 Y82.683 E4.754
G1 X188.586 Y83.894 E4.81078
G1 X188.95 Y84.298 E4.82886
G1 X190.343 Y86.003 E4.90209
G1 X190.701 Y86.494 E4.9223
G1 X191.971 Y88.448 E4.99981
G1 X192.236 Y88.9 E5.01724
G1 X192.864 Y90.098 E5.06223
G1 X193.118 Y90.656 E5.08262
G1 X193.443 Y91.486 E5.11227
G1 X193.66 Y92.163 E5.13591
G1 X193.891 Y93.082 E5.16743
G1 X194.045 Y94.04 E5.1997
G1 X194.146 Y95.425 E5.24589
G1 X194.155 Y96.094 E5.26814
G1 X194.11 Y96.589 E5.28467
G1 X193.921 Y97.974 E5.33117
G1 X193.791 Y98.63 E5.35341
G1 X193.502 Y99.464 E5.38277
G1 X193.089 Y100.407 E5.41701
G1 X192.784 Y101.002 E5.43924
G1 X192.509 Y101.424 E5.456
G1 X190.46 Y104.28 E5.57291
G1 X187.462 Y108.786 E5.75292
G1 X184.75 Y113.406 E5.9311
G1 X182.319 Y118.141 E6.10813
G1 X180.133 Y123.068 E6.28741
G1 X179.168 Y125.516 E6.37492
G1 X178.277 Y127.986 E6.46226
G1 X176.666 Y133.117 E6.64113
G1 X175.345 Y138.332 E6.82006
G1 X174.8 Y140.944 E6.90881
G1 X174.065 Y145.024 E7.04669
G1 X173.946 Y145.544 E7.06444
G1 X173.537 Y147.002 E7.1148
G1 X173.337 Y147.588 E7.13539
G1 X172.934 Y148.585 E7.17116
G1 X172.666 Y149.153 E7.19205
G1 X171.942 Y150.49 E7.24262
G1 X171.514 Y151.161 E7.26909
G1 X170.894 Y151.996 E7.30368
G1 X170.345 Y152.631 E7.3316
G1 X169.583 Y153.388 E7.36733
G1 X169.081 Y153.83 E7.38957
G1 X168.648 Y154.136 E7.40721
G1 X167.3 Y154.996 E7.46039
G1 X166.715 Y155.322 E7.48266
G1 X165.907 Y155.636 E7.5115
G1 X164.496 Y156.062 E7.56052
G1 X163.845 Y156.217 E7.58278
G1 X163.18 Y156.293 E7.60504
G1 X162.783 Y156.3 E7.61824
G1 X160.989 Y156.27 E7.67792
G1 X160.322 Y156.219 E7.70017
G1 X159.778 Y156.117 E7.71858
G1 X159.219 Y155.983 E7.7377
G1 X158.434 Y155.732 E7.76511
G1 X155.771 Y154.661 E7.86058
G1 X150.635 Y152.814 E8.04211
G1 X148.169 Y152.043 E8.12805
G1 X142.929 Y150.648 E8.3084
G1 X140.393 Y150.088 E8.39478
G1 X135.1 Y149.15 E8.57357
G1 X129.81 Y148.519 E8.75076
G1 X124.481 Y148.187 E8.92835
G1 X119.138 Y148.157 E9.10606
G1 X113.806 Y148.428 E9.28363
G1 X108.495 Y149.001 E9.4613
G1 X103.184 Y149.881 E9.64035
G1 X100.667 Y150.406 E9.72587
G1 X95.451 Y151.733 E9.90488
G1 X90.343 Y153.343 E10.08301
G1 X85.348 Y155.235 E10.26067
G1 X80.474 Y157.403 E10.43809
G1 X74.279 Y160.541 E10.66906
G1 X73.749 Y160.776 E10.68835
G1 X72.666 Y161.19 E10.72691
G1 X72.2 Y161.345 E10.74324
G1 X71.017 Y161.682 E10.78416
G1 X70.214 Y161.848 E10.81143
G1 X68.825 Y162.031 E10.85803
G1 X67.91 Y162.076 E10.8885
G1 X66.877 Y162.042 E10.92287
G1 X66.019 Y161.947 E10.95158
G1 X65.032 Y161.76 E10.985
G1 X64.142 Y161.514 E11.01571
G1 X63.19 Y161.164 E11.04944
G1 X62.313 Y160.753 E11.08166
G1 X61.373 Y160.208 E11.1178
G1 X60.815 Y159.838 E11.14006
G1 X60.33 Y159.428 E11.16119
G1 X59.339 Y158.489 E11.20659
G1 X58.882 Y158.001 E11.22883
G1 X58.413 Y157.344 E11.25568
G1 X57.739 Y156.241 E11.29867
G1 X57.424 Y155.65 E11.32095
G1 X57.19 Y155.047 E11.34246
G1 X56.482 Y152.862 E11.41885
G1 X56.345 Y152.362 E11.4361
G1 X55.534 Y148.746 E11.55935
G1 X55.45 Y148.278 E11.57517
G1 X55.262 Y146.902 E11.62136
G1 X55.22 Y146.475 E11.63563
G1 X55.112 Y144.646 E11.69657
G1 X54.59 Y139.302 E11.87516
G1 X53.761 Y133.968 E12.0547
G1 X53.251 Y131.398 E12.14184
G1 X52.664 Y128.828 E12.22952
G1 X51.246 Y123.644 E12.40828
G1 X49.534 Y118.544 E12.5872
G1 X48.606 Y116.121 E12.6735
G1 X47.578 Y113.648 E12.76258
G1 X45.296 Y108.762 E12.94194
G1 X42.803 Y103.979 E13.12133
G1 X42.434 Y103.093 E13.15326
G1 X41.93 Y101.514 E13.20838
G1 X41.762 Y100.847 E13.23126
G1 X41.417 Y99.014 E13.2933
G1 X41.352 Y98.572 E13.30816
G1 X40.867 Y94.025 E13.46025
G1 X40.838 Y93.252 E13.48598
G1 X40.928 Y90.443 E13.57945
G1 X40.948 Y90.111 E13.59051
G1 X41.159 Y87.808 E13.66743
G1 X41.238 Y87.258 E13.68591
G1 X41.382 Y86.512 E13.71118
G1 X41.617 Y85.661 E13.74055
G1 X42.037 Y84.505 E13.78146
G1 X42.429 Y83.654 E13.81262
G1 X42.817 Y82.97 E13.83877
G1 X43.181 Y82.409 E13.86102
G1 X43.444 Y82.08 E13.87503
G1 X44.341 Y81.038 E13.92075
G1 X44.807 Y80.557 E13.94303
G1 X45.263 Y80.182 E13.96267
G1 X46.41 Y79.337 E14.01005
G1 X46.972 Y78.973 E14.03232
M204 S5000
M205 X30 Y30
G0 F3600 X47.189 Y79.31
M204 S500
M205 X20 Y20
G1 F2400 X47.497 Y79.151 E14.04385
G1 X49.213 Y78.334 E14.10706
G1 X50.094 Y78.008 E14.13831
G1 X51.67 Y77.583 E14.1926
G1 X52.342 Y77.449 E14.21539
G1 X53.581 Y77.285 E14.25696
G1 X53.876 Y77.254 E14.26682
G1 X57.239 Y77.003 E14.37899
G1 X63.679 Y76.19 E14.59488
G1 X67.34 Y75.636 E14.71803
G1 X67.594 Y75.604 E14.72655
G1 X71.419 Y75.217 E14.85442
G1 X71.61 Y75.202 E14.86079
G1 X74.62 Y75.01 E14.96111
G1 X80.774 Y74.322 E15.16706
G1 X85.177 Y73.775 E15.31464
G1 X85.709 Y73.736 E15.33238
G1 X96.515 Y73.509 E15.69187
G1 X96.571 Y73.508 E15.69373
G1 X113.095 Y73.338 E16.24335
G1 X113.234 Y73.339 E16.24797
G1 X122.723 Y73.497 E16.56362
G1 X133.49 Y73.325 E16.92178
G1 X134.075 Y73.348 E16.94125
G1 X138.702 Y73.797 E17.09587
G1 X138.811 Y73.809 E17.09951
G1 X149.397 Y75.062 E17.45406
G1 X155.55 Y75.559 E17.65938
G1 X173.656 Y76.336 E18.26214
G1 X174.419 Y76.425 E18.28769
G1 X175.403 Y76.615 E18.32102
G1 X176.063 Y76.788 E18.34372
G1 X178.221 Y77.508 E18.41938
G1 X178.579 Y77.643 E18.43211
G1 X179.877 Y78.185 E18.47889
G1 X180.263 Y78.365 E18.49306
G1 X182.276 Y79.407 E18.56845
G1 X182.749 Y79.684 E18.58668
G1 X184.602 Y80.906 E18.66051
G1 X185.054 Y81.241 E18.67922
G1 X186.725 Y82.624 E18.75136
G1 X187.099 Y82.965 E18.7682
G1 X188.302 Y84.176 E18.82497
G1 X188.64 Y84.551 E18.84176
G1 X190.033 Y86.256 E18.91499
G1 X190.366 Y86.712 E18.93377
G1 X191.636 Y88.666 E19.01128
G1 X191.882 Y89.086 E19.02747
G1 X192.51 Y90.284 E19.07246
G1 X192.746 Y90.802 E19.09139
G1 X193.071 Y91.632 E19.12104
G1 X193.272 Y92.26 E19.14297
G1 X193.503 Y93.179 E19.17449
G1 X193.646 Y94.069 E19.20447
G1 X193.747 Y95.454 E19.25066
G1 X193.754 Y96.098 E19.27208
G1 X193.713 Y96.535 E19.28668
G1 X193.524 Y97.92 E19.33317
G1 X193.398 Y98.552 E19.3546
G1 X193.135 Y99.303 E19.38107
G1 X192.722 Y100.246 E19.41531
G1 X192.427 Y100.819 E19.43674
G1 X192.184 Y101.191 E19.45152
G1 X190.126 Y104.06 E19.56896
G1 X187.121 Y108.575 E19.74935
G1 X184.403 Y113.206 E19.92794
G1 X181.955 Y117.975 E20.10624
G1 X179.77 Y122.899 E20.28541
G1 X178.78 Y125.412 E20.37524
G1 X177.9 Y127.849 E20.46142
G1 X176.283 Y132.997 E20.64089
G1 X174.955 Y138.244 E20.82091
G1 X174.414 Y140.835 E20.90895
G1 X173.672 Y144.953 E21.04812
G1 X173.561 Y145.435 E21.06457
G1 X173.152 Y146.893 E21.11493
G1 X172.966 Y147.438 E21.13409
G1 X172.563 Y148.435 E21.16985
G1 X172.315 Y148.962 E21.18923
G1 X171.591 Y150.299 E21.2398
G1 X171.193 Y150.923 E21.26441
G1 X170.573 Y151.758 E21.299
G1 X170.063 Y152.347 E21.32492
G1 X169.301 Y153.104 E21.36064
G1 X168.816 Y153.529 E21.38209
G1 X168.433 Y153.799 E21.39768
G1 X167.085 Y154.659 E21.45086
G1 X166.521 Y154.971 E21.4723
G1 X165.791 Y155.253 E21.49832
G1 X164.38 Y155.679 E21.54735
G1 X163.752 Y155.827 E21.56881
G1 X162.79 Y155.9 E21.6009
G1 X160.996 Y155.87 E21.66057
G1 X160.353 Y155.82 E21.68202
G1 X159.871 Y155.728 E21.69834
G1 X159.312 Y155.594 E21.71746
G1 X158.583 Y155.361 E21.74292
G1 X155.889 Y154.278 E21.83949
G1 X150.778 Y152.439 E22.02015
G1 X148.293 Y151.663 E22.10674
G1 X143.005 Y150.255 E22.28875
G1 X140.475 Y149.697 E22.37492
G1 X135.166 Y148.756 E22.55425
G1 X129.846 Y148.12 E22.73245
G1 X124.49 Y147.787 E22.91094
G1 X119.121 Y147.757 E23.08951
G1 X113.778 Y148.028 E23.26745
G1 X108.441 Y148.604 E23.44599
G1 X103.111 Y149.487 E23.62568
G1 X100.601 Y150.011 E23.71097
G1 X95.321 Y151.354 E23.89217
G1 X90.218 Y152.963 E24.07013
G1 X85.208 Y154.86 E24.24831
G1 X80.293 Y157.047 E24.42724
G1 X74.099 Y160.184 E24.65817
G1 X73.606 Y160.402 E24.6761
G1 X72.523 Y160.816 E24.71466
G1 X72.091 Y160.96 E24.7298
G1 X70.908 Y161.297 E24.77072
G1 X70.162 Y161.451 E24.79605
G1 X68.773 Y161.634 E24.84265
G1 X67.923 Y161.676 E24.87096
G1 X66.89 Y161.642 E24.90533
G1 X66.093 Y161.554 E24.932
G1 X65.106 Y161.367 E24.96541
G1 X64.28 Y161.139 E24.99391
G1 X63.328 Y160.789 E25.02765
G1 X62.514 Y160.407 E25.05756
G1 X61.574 Y159.862 E25.0937
G1 X61.037 Y159.504 E25.11516
G1 X60.605 Y159.138 E25.13399
G1 X59.614 Y158.199 E25.1794
G1 X59.175 Y157.727 E25.20084
G1 X58.754 Y157.135 E25.225
G1 X58.08 Y156.032 E25.26799
G1 X57.778 Y155.463 E25.28942
G1 X57.57 Y154.924 E25.30863
G1 X56.862 Y152.739 E25.38503
G1 X56.735 Y152.274 E25.40106
G1 X55.924 Y148.658 E25.52432
G1 X55.846 Y148.224 E25.53898
G1 X55.658 Y146.848 E25.58517
G1 X55.619 Y146.451 E25.59844
G1 X55.509 Y144.597 E25.66021
G1 X54.985 Y139.237 E25.83934
G1 X54.16 Y133.922 E26.01823
G1 X53.64 Y131.303 E26.10704
G1 X53.056 Y128.747 E26.19425
G1 X51.626 Y123.521 E26.37445
G1 X49.913 Y118.414 E26.55361
G1 X48.972 Y115.96 E26.64103
G1 X47.947 Y113.494 E26.72985
G1 X45.647 Y108.568 E26.91067
G1 X43.158 Y103.794 E27.08974
G1 X42.815 Y102.971 E27.11939
G1 X42.311 Y101.392 E27.17452
G1 X42.155 Y100.773 E27.19575
G1 X41.81 Y98.94 E27.25779
G1 X41.749 Y98.53 E27.27158
G1 X41.264 Y93.983 E27.42367
G1 X41.238 Y93.264 E27.4476
G1 X41.328 Y90.455 E27.54107
G1 X41.347 Y90.148 E27.5513
G1 X41.558 Y87.845 E27.62822
G1 X41.63 Y87.333 E27.64542
G1 X41.774 Y86.587 E27.67069
G1 X41.993 Y85.797 E27.69796
G1 X42.413 Y84.641 E27.73886
G1 X42.777 Y83.851 E27.76779
G1 X43.165 Y83.167 E27.79395
G1 X43.517 Y82.627 E27.81539
G1 X43.747 Y82.34 E27.82762
G1 X44.644 Y81.298 E27.87335
G1 X45.094 Y80.837 E27.89478
G1 X45.501 Y80.504 E27.91227
G1 X46.648 Y79.659 E27.95965
G1 X47.189 Y79.31 E27.98107
M204 S5000
M205 X30 Y30
G1 F1500 E21.98107
;MESH:9c67b822-cbe9-4ad3-ad53-5d59b549357f.stl
G0 F3600 X59.734 Y81.495
G0 X59.879 Y82.771
G0 X143.046 Y101.736
G0 X143.116 Y101.806
M204 S500
M205 X20 Y20
;TYPE:WALL-INNER
G1 F1500 E27.98107
G1 F2400 X142.945 Y102.516 E28.00536
G1 X144.397 Y103.776 E28.0693
G1 X145.658 Y104.813 E28.1236
G1 X147.008 Y105.879 E28.18081
G1 X150.076 Y108.226 E28.30929
G1 X151.716 Y109.507 E28.3785
G1 X153.364 Y110.861 E28.44944
G1 X154.972 Y112.285 E28.52088
G1 X156.513 Y113.788 E28.59248
G1 X157.984 Y115.409 E28.66528
G1 X159.336 Y117.135 E28.7382
G1 X160.568 Y119.012 E28.81288
G1 X162.078 Y121.643 E28.91377
G1 X163.434 Y124.239 E29.01119
G1 X164.604 Y126.745 E29.10317
G1 X165.615 Y129.22 E29.1921
G1 X166.476 Y131.69 E29.2791
G1 X167.161 Y134.072 E29.36153
G1 X167.706 Y136.487 E29.44388
G1 X168.101 Y138.891 E29.52491
G1 X168.23 Y140.08 E29.56468
G1 X168.268 Y141.206 E29.60216
G1 X168.219 Y142.321 E29.63928
G1 X168.085 Y143.374 E29.67458
G1 X167.867 Y144.384 E29.70895
G1 X167.564 Y145.367 E29.74316
G1 X167.179 Y146.302 E29.77679
G1 X166.712 Y147.199 E29.81043
G1 X166.186 Y147.992 E29.84208
G1 X165.603 Y148.657 E29.87149
G1 X164.965 Y149.205 E29.89947
G1 X164.277 Y149.631 E29.92638
G1 X163.554 Y149.934 E29.95245
G1 X162.792 Y150.114 E29.9785
G1 X161.997 Y150.167 E30.005
G1 X161.175 Y150.088 E30.03246
G1 X160.796 Y150.001 E30.0454
G1 X160.466 Y149.889 E30.05699
G1 X159.878 Y149.568 E30.07927
G1 X159.415 Y149.164 E30.09971
G1 X159.036 Y148.674 E30.12031
G1 X158.739 Y148.135 E30.14078
G1 X158.494 Y147.536 E30.1623
G1 X158.12 Y146.304 E30.20513
G1 X157.567 Y144.328 E30.27337
G1 X156.276 Y139.622 E30.43568
G1 X154.86 Y134.896 E30.59977
G1 X154.307 Y133.362 E30.654
G1 X153.647 Y131.926 E30.70657
G1 X152.882 Y130.592 E30.75772
G1 X152.01 Y129.36 E30.80792
G1 X151.03 Y128.23 E30.85767
G1 X149.944 Y127.2 E30.90745
G1 X148.75 Y126.27 E30.95779
G1 X147.461 Y125.444 E31.00871
G1 X142.817 Y122.72 E31.18778
G1 X138.245 Y120.003 E31.36467
G1 X133.385 Y117.095 E31.55304
G1 X132.488 Y116.646 E31.5864
G1 X131.649 Y116.246 E31.61732
G1 X131.027 Y115.928 E31.64055
G1 X130.382 Y115.648 E31.66394
G1 X129.741 Y115.419 E31.68658
G1 X129.104 Y115.244 E31.70855
G1 X128.47 Y115.123 E31.73002
G1 X127.838 Y115.057 E31.75115
G1 X127.211 Y115.049 E31.77201
G1 X126.586 Y115.095 E31.79285
G1 X125.965 Y115.198 E31.81379
G1 X125.349 Y115.358 E31.83496
G1 X124.737 Y115.573 E31.85653
G1 X124.13 Y115.841 E31.8786
G1 X123.526 Y116.162 E31.90135
G1 X122.923 Y116.536 E31.92495
G1 X122.322 Y116.962 E31.94945
G1 X121.726 Y117.434 E31.97474
G1 X119.404 Y119.374 E32.07538
G1 X117.044 Y121.273 E32.17613
G1 X112.326 Y124.969 E32.37546
G1 X105.017 Y130.769 E32.6858
G1 X102.974 Y132.473 E32.77429
G1 X100.993 Y134.198 E32.86166
G1 X99.109 Y135.986 E32.94804
G1 X97.374 Y137.853 E33.03281
G1 X96.437 Y138.88 E33.07905
G1 X95.49 Y139.83 E33.12367
G1 X94.475 Y140.758 E33.16941
G1 X93.422 Y141.636 E33.21501
G1 X92.302 Y142.485 E33.26175
G1 X91.132 Y143.291 E33.30901
G1 X89.876 Y144.08 E33.35834
G1 X88.55 Y144.841 E33.40919
G1 X85.254 Y146.679 E33.53471
G1 X82.038 Y148.565 E33.65871
G1 X78.924 Y150.487 E33.78042
G1 X75.939 Y152.44 E33.89907
G1 X74.397 Y153.439 E33.96018
G1 X72.787 Y154.387 E34.02232
G1 X71.969 Y154.801 E34.05281
G1 X71.113 Y155.171 E34.08383
G1 X70.225 Y155.485 E34.11516
G1 X69.323 Y155.727 E34.14622
G1 X68.233 Y155.885 E34.18285
G1 X67.199 Y155.867 E34.21725
G1 X66.227 Y155.686 E34.25013
G1 X65.329 Y155.355 E34.28196
G1 X64.539 Y154.89 E34.31245
G1 X63.844 Y154.281 E34.34319
G1 X63.58 Y153.969 E34.35678
G1 X63.324 Y153.596 E34.37183
G1 X63.11 Y153.2 E34.3868
G1 X62.941 Y152.787 E34.40164
G1 X62.426 Y151.139 E34.45907
G1 X62.003 Y149.513 E34.51495
G1 X61.67 Y147.929 E34.56878
G1 X61.423 Y146.366 E34.62141
G1 X61.38 Y145.62 E34.64627
G1 X61.439 Y144.909 E34.67
G1 X61.593 Y144.234 E34.69302
G1 X61.842 Y143.598 E34.71574
G1 X62.178 Y143.01 E34.73827
G1 X62.597 Y142.484 E34.76063
G1 X63.117 Y142.002 E34.78422
G1 X63.73 Y141.582 E34.80893
G1 X65.687 Y140.432 E34.88443
G1 X67.277 Y139.634 E34.9436
G1 X69.012 Y138.827 E35.00724
G1 X70.748 Y137.947 E35.07197
G1 X72.471 Y137.002 E35.13734
G1 X74.187 Y135.988 E35.20363
G1 X75.897 Y134.905 E35.27095
G1 X77.606 Y133.753 E35.3395
G1 X79.319 Y132.529 E35.40953
G1 X81.036 Y131.233 E35.48107
G1 X86.35 Y127.062 E35.70576
G1 X91.6 Y122.894 E35.92872
G1 X96.113 Y119.283 E36.12095
G1 X100.673 Y115.683 E36.31419
G1 X103.332 Y113.708 E36.42435
G1 X109.091 Y109.568 E36.66026
G1 X109.796 Y109.009 E36.69018
G1 X110.408 Y108.464 E36.71744
G1 X110.936 Y107.922 E36.7426
G1 X111.379 Y107.372 E36.76609
G1 X111.742 Y106.81 E36.78835
