;FLAVOR:Marlin
;TIME:2774
;Filament used: 4.47762m
;Layer height: 0.28
;Generated with Cura_SteamEngine 3.6.0
M140 S50
M105
M190 S50
M104 S210
M105
M109 S210
M82 ;absolute extrusion mode
; Ender 3 Custom Start G-code
G28 ; Home all axes
G92 E0 ; Reset Extruder
G1 Z2.0 F3000 ; Move Z Axis up little to prevent scratching of Heat Bed
G1 X0.1 Y20 Z0.3 F5000.0 ; Move to start position
G1 X0.1 Y200.0 Z0.3 F1500.0 E15 ; Draw the first line
G1 X0.4 Y200.0 Z0.3 F5000.0 ; Move to side a little
G1 X0.4 Y20 Z0.3 F1500.0 E30 ; Draw the second line
G92 E0 ; Reset Extruder
G1 Z2.0 F3000 ; Move Z Axis up little to prevent scratching of Heat Bed
; End of custom start GCode
G92 E0
G1 F1500 E-5
;LAYER_COUNT:54
;LAYER:0
M107
M204 S5000
M205 X30 Y30
G0 F3600 X94.308 Y82.113 Z0.2
M204 S500
M205 X20 Y20
;TYPE:SKIRT
G1 F1500 E0
G1 F2400 X95.77 Y80.456 E0.0735
G1 X96.174 Y80.043 E0.09271
G1 X97.828 Y78.519 E0.16752
G1 X98.347 Y78.095 E0.18981
G1 X100.898 Y76.255 E0.29442
G1 X101.448 Y75.905 E0.31611
G1 X102.977 Y75.053 E0.37432
G1 X103.42 Y74.831 E0.3908
G1 X104.979 Y74.135 E0.44759
G1 X105.407 Y73.965 E0.46291
G1 X106.771 Y73.486 E0.51099
G1 X107.191 Y73.357 E0.5256
G1 X108.855 Y72.916 E0.58286
G1 X109.297 Y72.818 E0.59792
G1 X110.712 Y72.563 E0.64574
G1 X111.1 Y72.507 E0.65877
G1 X112.711 Y72.332 E0.71267
G1 X113.112 Y72.303 E0.72604
G1 X114.569 Y72.25 E0.77454
G1 X114.994 Y72.25 E0.78867
G1 X117.499 Y72.349 E0.87205
G1 X118.056 Y72.399 E0.89065
G1 X122.062 Y72.961 E1.0252
G1 X122.814 Y73.12 E1.05076
G1 X124.712 Y73.659 E1.11639
G1 X125.26 Y73.846 E1.13565
G1 X127.715 Y74.827 E1.22358
G1 X128.343 Y75.124 E1.24668
G1 X130.566 Y76.351 E1.33114
G1 X131.051 Y76.652 E1.35012
G1 X132.428 Y77.607 E1.40586
G1 X132.79 Y77.881 E1.42096
G1 X134.074 Y78.935 E1.47621
G1 X134.4 Y79.224 E1.4907
G1 X135.636 Y80.411 E1.54769
G1 X135.968 Y80.758 E1.56367
G1 X138.621 Y83.784 E1.69752
G1 X138.698 Y83.874 E1.70146
G1 X142.622 Y88.545 E1.90436
G1 X145.373 Y91.65 E2.04234
G1 X145.663 Y92.006 E2.05761
G1 X147.287 Y94.173 E2.14768
G1 X147.684 Y94.781 E2.17183
G1 X149.614 Y98.205 E2.30256
G1 X149.814 Y98.595 E2.31713
G1 X152.126 Y103.57 E2.4996
G1 X152.393 Y104.258 E2.52414
G1 X152.545 Y104.744 E2.54108
G1 X152.706 Y105.394 E2.56335
G1 X152.782 Y105.967 E2.58258
G1 X152.821 Y106.452 E2.59876
G1 X152.835 Y107.121 E2.62102
G1 X152.81 Y107.467 E2.63255
G1 X152.745 Y108.107 E2.65395
G1 X152.639 Y108.762 E2.67602
G1 X151.274 Y114.872 E2.88425
G1 X150.42 Y120.141 E3.06178
G1 X149.866 Y125.451 E3.23935
G1 X149.612 Y130.786 E3.417
G1 X149.662 Y136.155 E3.59558
G1 X149.929 Y141.064 E3.75909
G1 X149.914 Y141.88 E3.78624
G1 X149.753 Y143.635 E3.84485
G1 X149.593 Y144.541 E3.87545
G1 X149.154 Y146.218 E3.93311
G1 X148.858 Y147.067 E3.96302
G1 X148.116 Y148.743 E4.02398
G1 X147.687 Y149.533 E4.05388
G1 X146.827 Y150.853 E4.10628
G1 X146.34 Y151.494 E4.13305
G1 X145.02 Y152.995 E4.19953
G1 X144.493 Y153.52 E4.22428
G1 X143.107 Y154.727 E4.2854
G1 X142.701 Y155.049 E4.30264
G1 X141.541 Y155.884 E4.35018
G1 X141.11 Y156.165 E4.36729
G1 X139.279 Y157.243 E4.43796
G1 X138.871 Y157.461 E4.45335
G1 X137.393 Y158.174 E4.50793
G1 X136.975 Y158.355 E4.52308
G1 X133.904 Y159.539 E4.63255
G1 X133.6 Y159.646 E4.64327
G1 X126.991 Y161.767 E4.87412
G1 X126.789 Y161.828 E4.88114
G1 X125.023 Y162.322 E4.94213
G1 X124.173 Y162.49 E4.97095
G1 X122.232 Y162.72 E5.03596
G1 X121.564 Y162.759 E5.05822
G1 X121.04 Y162.734 E5.07567
G1 X119.063 Y162.545 E5.14172
G1 X118.275 Y162.412 E5.1683
G1 X116.495 Y161.98 E5.22922
G1 X115.917 Y161.806 E5.2493
G1 X114.402 Y161.26 E5.30286
G1 X113.907 Y161.055 E5.32068
G1 X112.16 Y160.229 E5.38495
G1 X111.664 Y159.963 E5.40367
G1 X109.928 Y158.917 E5.47108
G1 X109.474 Y158.612 E5.48927
G1 X107.955 Y157.481 E5.55226
G1 X107.547 Y157.146 E5.56982
G1 X105.719 Y155.496 E5.65173
G1 X105.384 Y155.168 E5.66732
G1 X103.914 Y153.599 E5.73883
G1 X103.656 Y153.303 E5.75189
G1 X102.269 Y151.597 E5.82502
G1 X102.018 Y151.264 E5.83889
G1 X99.494 Y147.639 E5.9858
G1 X99.276 Y147.301 E5.99918
G1 X96.795 Y143.128 E6.16065
G1 X96.67 Y142.905 E6.16915
G1 X92.781 Y135.627 E6.44361
G1 X89.997 Y131.115 E6.61995
G1 X86.886 Y126.66 E6.80068
G1 X84.002 Y122.84 E6.95987
G1 X83.631 Y122.283 E6.98213
G1 X83.234 Y121.451 E7.0128
G1 X82.747 Y120.166 E7.0585
G1 X82.495 Y119.288 E7.08888
G1 X82.333 Y118.485 E7.11613
G1 X82.24 Y117.823 E7.13836
G1 X82.223 Y117.467 E7.15022
G1 X82.197 Y115.834 E7.20454
G1 X82.226 Y115.166 E7.22678
G1 X82.322 Y114.563 E7.24708
G1 X82.669 Y112.956 E7.30177
G1 X82.942 Y112.063 E7.33282
G1 X84.835 Y107.318 E7.50274
G1 X86.585 Y102.236 E7.68151
G1 X88.044 Y97.066 E7.86018
G1 X88.771 Y93.925 E7.96741
G1 X88.782 Y93.881 E7.96892
G1 X89.155 Y92.327 E8.02207
G1 X89.268 Y91.924 E8.03599
G1 X89.94 Y89.829 E8.10917
G1 X90.142 Y89.294 E8.12819
G1 X91.051 Y87.217 E8.2036
G1 X91.312 Y86.695 E8.22301
G1 X92.381 Y84.814 E8.29497
G1 X92.69 Y84.33 E8.31407
G1 X93.947 Y82.567 E8.38608
G1 X94.308 Y82.113 E8.40538
M204 S5000
M205 X30 Y30
G0 F3600 X94.608 Y82.378
M204 S500
M205 X20 Y20
G1 F2400 X96.07 Y80.721 E8.47887
G1 X96.445 Y80.337 E8.49673
G1 X98.099 Y78.813 E8.57153
G1 X98.581 Y78.42 E8.59221
G1 X101.132 Y76.58 E8.69683
G1 X101.643 Y76.255 E8.71697
G1 X103.172 Y75.403 E8.77519
G1 X103.583 Y75.197 E8.79048
G1 X105.142 Y74.501 E8.84726
G1 X105.539 Y74.343 E8.86148
G1 X106.903 Y73.864 E8.90956
G1 X107.294 Y73.744 E8.92316
G1 X108.958 Y73.303 E8.98042
G1 X109.368 Y73.211 E8.99439
G1 X110.783 Y72.956 E9.04221
G1 X111.143 Y72.904 E9.05431
G1 X112.754 Y72.729 E9.10821
G1 X113.127 Y72.702 E9.12065
G1 X114.584 Y72.649 E9.16914
G1 X114.978 Y72.65 E9.18225
G1 X117.483 Y72.749 E9.26563
G1 X118 Y72.795 E9.28289
G1 X122.006 Y73.357 E9.41744
G1 X122.705 Y73.505 E9.4412
G1 X124.603 Y74.044 E9.50682
G1 X125.112 Y74.217 E9.5247
G1 X127.567 Y75.198 E9.61264
G1 X128.15 Y75.474 E9.63409
G1 X130.373 Y76.701 E9.71854
G1 X130.823 Y76.981 E9.73617
G1 X132.2 Y77.936 E9.7919
G1 X132.536 Y78.19 E9.80591
G1 X133.82 Y79.244 E9.86117
G1 X134.123 Y79.512 E9.87462
G1 X135.359 Y80.699 E9.93162
G1 X135.667 Y81.022 E9.94646
G1 X138.32 Y84.048 E10.08031
G1 X138.392 Y84.131 E10.08396
G1 X142.318 Y88.804 E10.28696
G1 X145.074 Y91.915 E10.4252
G1 X145.343 Y92.246 E10.43938
G1 X146.967 Y94.413 E10.52945
G1 X147.336 Y94.978 E10.5519
G1 X149.266 Y98.402 E10.68262
G1 X149.452 Y98.764 E10.69616
G1 X151.764 Y103.739 E10.87863
G1 X152.011 Y104.378 E10.90141
G1 X152.163 Y104.864 E10.91835
G1 X152.317 Y105.49 E10.93979
G1 X152.383 Y105.999 E10.95686
G1 X152.422 Y106.484 E10.97304
G1 X152.412 Y107.426 E11.00438
G1 X152.347 Y108.066 E11.02577
G1 X152.249 Y108.675 E11.04629
G1 X150.879 Y114.806 E11.25524
G1 X150.023 Y120.087 E11.43317
G1 X149.466 Y125.426 E11.61171
G1 X149.212 Y130.77 E11.78966
G1 X149.262 Y136.18 E11.9696
G1 X149.529 Y141.085 E12.13298
G1 X149.515 Y141.843 E12.1582
G1 X149.354 Y143.598 E12.21682
G1 X149.206 Y144.44 E12.24525
G1 X148.767 Y146.117 E12.30291
G1 X148.492 Y146.905 E12.33067
G1 X147.75 Y148.581 E12.39163
G1 X147.352 Y149.315 E12.4194
G1 X146.492 Y150.635 E12.4718
G1 X146.04 Y151.23 E12.49665
G1 X144.72 Y152.731 E12.56313
G1 X144.23 Y153.218 E12.58611
G1 X142.844 Y154.425 E12.64724
G1 X142.467 Y154.724 E12.66324
G1 X141.307 Y155.559 E12.71078
G1 X140.907 Y155.82 E12.72667
G1 X139.076 Y156.898 E12.79734
G1 X138.697 Y157.101 E12.81164
G1 X137.219 Y157.814 E12.86622
G1 X136.831 Y157.982 E12.88028
G1 X133.76 Y159.166 E12.98975
G1 X133.478 Y159.265 E12.99969
G1 X126.869 Y161.386 E13.23055
G1 X126.681 Y161.443 E13.23708
G1 X124.915 Y161.937 E13.29808
G1 X124.126 Y162.093 E13.32483
G1 X122.185 Y162.323 E13.38984
G1 X121.541 Y162.359 E13.41129
G1 X121.078 Y162.335 E13.42671
G1 X119.101 Y162.146 E13.49276
G1 X118.37 Y162.023 E13.51742
G1 X116.59 Y161.591 E13.57834
G1 X116.053 Y161.43 E13.59699
G1 X114.538 Y160.884 E13.65055
G1 X114.078 Y160.693 E13.66711
G1 X112.331 Y159.867 E13.73139
G1 X111.87 Y159.62 E13.74878
G1 X110.134 Y158.574 E13.81619
G1 X109.713 Y158.291 E13.83307
G1 X108.194 Y157.16 E13.89605
G1 X107.815 Y156.849 E13.91236
G1 X105.987 Y155.199 E13.99426
G1 X105.676 Y154.894 E14.00875
G1 X104.206 Y153.325 E14.08026
G1 X103.966 Y153.05 E14.0924
G1 X102.579 Y151.344 E14.16553
G1 X102.347 Y151.035 E14.17838
G1 X99.823 Y147.41 E14.3253
G1 X99.62 Y147.096 E14.33773
G1 X97.139 Y142.923 E14.49921
G1 X97.023 Y142.717 E14.50707
G1 X93.13 Y135.432 E14.7818
G1 X90.327 Y130.89 E14.95932
G1 X87.213 Y126.43 E15.14023
G1 X84.321 Y122.599 E15.29988
G1 X83.965 Y122.061 E15.32134
G1 X83.608 Y121.309 E15.34903
G1 X83.121 Y120.024 E15.39473
G1 X82.887 Y119.209 E15.42294
G1 X82.725 Y118.406 E15.45018
G1 X82.623 Y117.461 E15.4818
G1 X82.597 Y115.828 E15.53612
G1 X82.626 Y115.184 E15.55756
G1 X82.713 Y114.647 E15.57565
G1 X83.06 Y113.04 E15.63033
G1 X83.313 Y112.211 E15.65916
G1 X85.214 Y107.445 E15.82982
G1 X86.968 Y102.354 E16.00892
G1 X88.432 Y97.163 E16.18831
G1 X89.161 Y94.015 E16.29578
G1 X89.171 Y93.974 E16.29718
G1 X89.544 Y92.42 E16.35034
G1 X89.648 Y92.046 E16.36325
G1 X90.32 Y89.951 E16.43643
G1 X90.508 Y89.454 E16.4541
G1 X91.417 Y87.377 E16.52951
G1 X91.66 Y86.893 E16.54752
G1 X92.729 Y85.012 E16.61948
G1 X93.016 Y84.562 E16.63723
G1 X94.273 Y82.799 E16.70925
G1 X94.608 Y82.378 E16.72714
M204 S5000
M205 X30 Y30
G1 F1500 E11.72714
;MESH:dbdd9e58-e47a-4524-9f97-9f89b809255d.stl
G0 F3600 X94.151 Y92.757
G0 X95.372 Y93.156
G0 X94.727 Y107.3
G0 X94.496 Y109.257
G0 X94.417 Y109.197
M204 S500
M205 X20 Y20
;TYPE:WALL-INNER
G1 F1500 E16.72714
G1 F2400 X94.598 Y108.112 E16.76373
G1 X94.688 Y107.297 E16.791
G1 X94.739 Y106.463 E16.81879
G1 X94.755 Y105.607 E16.84727
G1 X94.69 Y104.051 E16.89906
G1 X94.507 Y100.961 E17.00202
G1 X94.452 Y99.426 E17.0531
G1 X94.479 Y97.903 E17.10377
G1 X94.533 Y97.177 E17.12798
G1 X94.63 Y96.411 E17.15366
G1 X94.821 Y95.297 E17.19125
G1 X95.059 Y94.229 E17.22765
G1 X95.353 Y93.151 E17.26481
G1 X95.692 Y92.118 E17.30097
G1 X96.074 Y91.122 E17.33645
G1 X96.514 Y90.131 E17.37252
G1 X96.992 Y89.188 E17.40768
G1 X97.523 Y88.261 E17.44321
G1 X98.077 Y87.399 E17.47729
G1 X98.696 Y86.54 E17.51251
G1 X99.365 Y85.704 E17.54812
G1 X100.08 Y84.902 E17.58386
G1 X100.833 Y84.138 E17.61953
G1 X101.624 Y83.414 E17.6552
G1 X102.47 Y82.713 E17.69174
G1 X103.345 Y82.058 E17.7281
G1 X104 Y81.607 E17.75455
G1 X104.647 Y81.2 E17.77997
G1 X105.982 Y80.465 E17.83066
G1 X107.373 Y79.84 E17.88138
G1 X108.8 Y79.333 E17.93175
G1 X110.267 Y78.939 E17.98227
G1 X111.78 Y78.659 E18.03344
G1 X113.351 Y78.489 E18.086
G1 X114.954 Y78.432 E18.13935
G1 X116.4 Y78.476 E18.18747
G1 X117.901 Y78.599 E18.23756
G1 X119.431 Y78.793 E18.28885
G1 X121.03 Y79.057 E18.34276
G1 X121.831 Y79.254 E18.37019
G1 X122.634 Y79.486 E18.39799
G1 X123.449 Y79.755 E18.42654
G1 X124.21 Y80.042 E18.45359
G1 X124.968 Y80.361 E18.48094
G1 X125.722 Y80.717 E18.50867
G1 X126.447 Y81.095 E18.53587
G1 X127.147 Y81.498 E18.56273
G1 X127.848 Y81.941 E18.59031
G1 X128.51 Y82.397 E18.61705
G1 X129.167 Y82.892 E18.64441
G1 X129.807 Y83.415 E18.6719
G1 X130.447 Y83.983 E18.70036
G1 X131.035 Y84.547 E18.72746
G1 X131.626 Y85.162 E18.75583
G1 X132.197 Y85.804 E18.78441
G1 X133.59 Y87.424 E18.85547
G1 X134.929 Y89.051 E18.92555
G1 X137.568 Y92.182 E19.06175
G1 X138.92 Y93.743 E19.13043
G1 X140.297 Y95.254 E19.19843
G1 X141.163 Y96.261 E19.2426
G1 X141.921 Y97.276 E19.28473
G1 X142.634 Y98.359 E19.32786
G1 X143.288 Y99.471 E19.37077
G1 X143.885 Y100.588 E19.41289
G1 X144.451 Y101.729 E19.45526
G1 X146.496 Y106.146 E19.61715
G1 X146.615 Y106.522 E19.63026
G1 X146.648 Y106.922 E19.64361
G1 X146.608 Y107.36 E19.65824
G1 X146.497 Y107.828 E19.67424
G1 X146.332 Y108.282 E19.69031
G1 X146.13 Y108.695 E19.7056
G1 X145.899 Y109.055 E19.71982
G1 X145.684 Y109.311 E19.73094
G1 X145.419 Y109.522 E19.74221
G1 X145.043 Y109.746 E19.75677
G1 X144.62 Y109.936 E19.77219
G1 X144.153 Y110.085 E19.78849
G1 X143.678 Y110.17 E19.80454
G1 X143.238 Y110.183 E19.81918
G1 X142.832 Y110.116 E19.83287
G1 X142.681 Y110.062 E19.8382
G1 X142.528 Y109.982 E19.84395
G1 X141.368 Y109.229 E19.88994
G1 X140.265 Y108.399 E19.93586
G1 X139.212 Y107.485 E19.98223
G1 X138.204 Y106.468 E20.02986
G1 X136.322 Y104.378 E20.1234
G1 X131.991 Y99.433 E20.34204
G1 X130.7 Y98.03 E20.40545
G1 X129.385 Y96.657 E20.46868
G1 X128.234 Y95.554 E20.5217
G1 X127.077 Y94.548 E20.5727
G1 X125.911 Y93.638 E20.62189
G1 X124.734 Y92.821 E20.66955
G1 X123.54 Y92.101 E20.71592
G1 X122.331 Y91.476 E20.76119
G1 X121.101 Y90.947 E20.80572
G1 X119.848 Y90.513 E20.84983
G1 X119.161 Y90.335 E20.87343
G1 X118.498 Y90.211 E20.89586
G1 X117.853 Y90.142 E20.91744
G1 X117.231 Y90.131 E20.93813
G1 X116.631 Y90.176 E20.95814
G1 X116.056 Y90.281 E20.97758
G1 X115.509 Y90.446 E20.99659
G1 X114.99 Y90.674 E21.01544
G1 X114.49 Y90.981 E21.03495
G1 X114.029 Y91.348 E21.05455
G1 X113.603 Y91.774 E21.07459
G1 X113.214 Y92.26 E21.0953
G1 X112.862 Y92.802 E21.11679
G1 X112.549 Y93.401 E21.13927
G1 X112.273 Y94.055 E21.16288
G1 X112.033 Y94.767 E21.18787
G1 X111.774 Y95.759 E21.22197
G1 X111.576 Y96.756 E21.25578
G1 X111.431 Y97.759 E21.28948
G1 X111.331 Y98.768 E21.32321
G1 X111.234 Y100.786 E21.3904
G1 X111.216 Y102.833 E21.45849
G1 X111.221 Y105.252 E21.53895
G1 X111.272 Y106.019 E21.56451
G1 X111.368 Y106.747 E21.58894
G1 X111.513 Y107.444 E21.61262
G1 X111.706 Y108.108 E21.63561
G1 X111.952 Y108.739 E21.65814
G1 X112.249 Y109.338 E21.68038
G1 X112.601 Y109.904 E21.70255
G1 X113.005 Y110.435 E21.72474
G1 X113.464 Y110.935 E21.74731
G1 X113.973 Y111.401 E21.77027
G1 X114.535 Y111.838 E21.79394
G1 X115.149 Y112.244 E21.81843
G1 X115.815 Y112.625 E21.84395
G1 X116.533 Y112.981 E21.8706
G1 X117.303 Y113.312 E21.89848
G1 X118.024 Y113.593 E21.92421
G1 X119.263 Y114.102 E21.96877
G1 X120.518 Y114.657 E22.01441
G1 X121.725 Y115.265 E22.05936
G1 X122.87 Y115.954 E22.1038
G1 X123.864 Y116.66 E22.14435
G1 X124.822 Y117.431 E22.18526
G1 X125.748 Y118.243 E22.22622
G1 X128.124 Y120.427 E22.33356
G1 X129.431 Y121.565 E22.3912
G1 X130.757 Y122.662 E22.44844
G1 X132.314 Y123.977 E22.51622
G1 X133.872 Y125.323 E22.5847
G1 X135.39 Y126.718 E22.65327
G1 X136.818 Y128.17 E22.72101
G1 X137.682 Y129.151 E22.76448
G1 X138.507 Y130.182 E22.8084
G1 X139.29 Y131.242 E22.85223
G1 X140.005 Y132.285 E22.89429
G1 X140.678 Y133.334 E22.93575
G1 X141.306 Y134.368 E22.97598
G1 X141.876 Y135.354 E23.01386
G1 X142.394 Y136.283 E23.04924
G1 X142.824 Y137.142 E23.08119
G1 X143.159 Y137.971 E23.11093
G1 X143.425 Y138.834 E23.14097
G1 X143.609 Y139.683 E23.16986
G1 X143.717 Y140.543 E23.19869
G1 X143.748 Y141.424 E23.22801
G1 X143.699 Y142.288 E23.25679
G1 X143.57 Y143.169 E23.28641
G1 X143.31 Y144.22 E23.32242
G1 X142.946 Y145.227 E23.35803
G1 X142.468 Y146.206 E23.39427
G1 X141.889 Y147.136 E23.4307
G1 X141.21 Y148.012 E23.46757
G1 X140.384 Y148.894 E23.50776
G1 X139.471 Y149.715 E23.5486
G1 X138.416 Y150.526 E23.59285
G1 X137.274 Y151.271 E23.63821
G1 X136.093 Y151.932 E23.68322
G1 X134.887 Y152.514 E23.72776
G1 X133.664 Y153.032 E23.77193
G1 X132.41 Y153.502 E23.81647
G1 X131.142 Y153.934 E23.86103
G1 X128.582 Y154.729 E23.95019
G1 X126.498 Y155.392 E24.02292
G1 X124.443 Y156.083 E24.09503
G1 X123.926 Y156.242 E24.11302
G1 X123.415 Y156.346 E24.13037
G1 X122.903 Y156.413 E24.14754
G1 X122.396 Y156.452 E24.16445
G1 X121.631 Y156.536 E24.19005
G1 X121.504 Y156.568 E24.19441
G1 X121.462 Y156.568 E24.1958
G1 X121.094 Y156.516 E24.20817
G1 X119.961 Y156.423 E24.24598
G1 X119.196 Y156.3 E24.27175
G1 X118.333 Y156.074 E24.30142
G1 X117.479 Y155.803 E24.33122
G1 X116.626 Y155.483 E24.36152
G1 X115.795 Y155.123 E24.39164
G1 X114.967 Y154.715 E24.42234
G1 X114.177 Y154.274 E24.45244
G1 X113.367 Y153.77 E24.48417
G1 X112.584 Y153.23 E24.5158
G1 X111.825 Y152.653 E24.54751
G1 X111.064 Y152.019 E24.58046
G1 X110.314 Y151.34 E24.6141
G1 X109.577 Y150.613 E24.64854
G1 X108.846 Y149.837 E24.68399
G1 X108.133 Y149.019 E24.72009
G1 X107.438 Y148.164 E24.75673
G1 X106.737 Y147.24 E24.79531
G1 X105.375 Y145.314 E24.87377
G1 X104.085 Y143.333 E24.95239
G1 X102.856 Y141.285 E25.03183
G1 X101.699 Y139.187 E25.11152
G1 X100.619 Y137.048 E25.19122
G1 X99.611 Y134.865 E25.27119
