;FLAVOR:Marlin
;TIME:2910
;Filament used: 1.34512m
;Layer height: 0.2
;Generated with Cura_SteamEngine 3.6.0
M140 S50
M105
M190 S50
M104 S210
M105
M109 S210
M82 ;absolute extrusion mode
; Ender 3 Custom Start G-code
G28 ; Home all axes
G92 E0 ; Reset Extruder
G1 Z2.0 F3000 ; Move Z Axis up little to prevent scratching of Heat Bed
G1 X0.1 Y20 Z0.3 F5000.0 ; Move to start position
G1 X0.1 Y200.0 Z0.3 F1500.0 E15 ; Draw the first line
G1 X0.4 Y200.0 Z0.3 F5000.0 ; Move to side a little
G1 X0.4 Y20 Z0.3 F1500.0 E30 ; Draw the second line
G92 E0 ; Reset Extruder
G1 Z2.0 F3000 ; Move Z Axis up little to prevent scratching of Heat Bed
G90 ; absolute xyz﻿
G92 E0
G1 F1500 E-5
;LAYER_COUNT:3
;LAYER:0
M107
M204 S5000
M205 X30 Y30
G0 F3600 X54.063 Y64.523 Z0.2
M204 S500
M205 X20 Y20
;TYPE:SKIRT
G1 F1500 E0
G1 F2400 X54.602 Y64.127 E0.02225
G1 X55.308 Y63.739 E0.04904
G1 X55.876 Y63.478 E0.06983
G1 X56.499 Y63.235 E0.09207
G1 X57.112 Y63.076 E0.11314
G1 X58.492 Y62.799 E0.15995
G1 X58.943 Y62.727 E0.17514
G1 X60.857 Y62.503 E0.23923
G1 X61.525 Y62.465 E0.26149
G1 X62.193 Y62.507 E0.28375
G1 X62.745 Y62.603 E0.30238
G1 X65.306 Y63.183 E0.38972
G1 X65.637 Y63.269 E0.4011
G1 X68.054 Y63.974 E0.48484
G1 X68.362 Y64.074 E0.49561
G1 X72.026 Y65.377 E0.62495
G1 X72.379 Y65.516 E0.63757
G1 X83.576 Y70.374 E1.04352
G1 X99.409 Y76.777 E1.61156
G1 X101.807 Y77.637 E1.69629
G1 X107.668 Y79.443 E1.90028
G1 X120.921 Y83.011 E2.35677
G1 X124.763 Y83.92 E2.48808
G1 X127.37 Y84.449 E2.57656
G1 X132.715 Y85.397 E2.75711
G1 X132.955 Y85.445 E2.76525
G1 X135.85 Y86.09 E2.8639
G1 X136.234 Y86.19 E2.87709
G1 X139.435 Y87.146 E2.98821
G1 X144.664 Y88.453 E3.16747
G1 X160.198 Y91.428 E3.69353
G1 X160.289 Y91.446 E3.69661
G1 X171.153 Y93.714 E4.06574
G1 X171.629 Y93.835 E4.08208
G1 X175.654 Y95.051 E4.22192
G1 X176.142 Y95.224 E4.23914
G1 X178.108 Y96.023 E4.30973
G1 X178.465 Y96.183 E4.32274
G1 X180.939 Y97.396 E4.41438
G1 X181.567 Y97.756 E4.43846
G1 X184.13 Y99.454 E4.54072
G1 X184.476 Y99.702 E4.55487
G1 X186.251 Y101.083 E4.62967
G1 X186.652 Y101.427 E4.64725
G1 X188.035 Y102.73 E4.71045
G1 X188.494 Y103.217 E4.7327
G1 X188.864 Y103.714 E4.75331
G1 X189.468 Y104.626 E4.78969
G1 X189.803 Y105.205 E4.81194
G1 X190.065 Y105.814 E4.83399
G1 X190.342 Y106.58 E4.86109
G1 X190.532 Y107.221 E4.88332
G1 X190.652 Y107.961 E4.90826
G1 X190.715 Y108.633 E4.9307
G1 X190.737 Y109.302 E4.95297
G1 X190.69 Y109.894 E4.97272
G1 X190.592 Y110.631 E4.99745
G1 X190.487 Y111.199 E5.01666
G1 X189.368 Y115.865 E5.17625
G1 X188.836 Y118.515 E5.26615
G1 X188.407 Y121.037 E5.35124
G1 X187.727 Y126.373 E5.53015
G1 X187.299 Y132.917 E5.74827
G1 X187.26 Y133.309 E5.76137
G1 X186.517 Y138.753 E5.94412
G1 X186.079 Y144.073 E6.12166
G1 X185.943 Y149.413 E6.29933
G1 X186.109 Y154.749 E6.47689
G1 X186.579 Y160.082 E6.65495
G1 X187.122 Y164.154 E6.79159
G1 X187.171 Y164.822 E6.81386
G1 X187.162 Y165.214 E6.82691
G1 X187.082 Y166.615 E6.87358
G1 X187.004 Y167.28 E6.89585
G1 X186.743 Y168.24 E6.92894
G1 X184.471 Y174.377 E7.14659
G1 X182.736 Y179.729 E7.33372
G1 X182.492 Y180.352 E7.35597
G1 X182.175 Y180.942 E7.37825
G1 X181.921 Y181.319 E7.39337
G1 X181.56 Y181.81 E7.41364
G1 X181.132 Y182.325 E7.43591
G1 X180.486 Y182.913 E7.46497
G1 X179.748 Y183.487 E7.49606
G1 X179.196 Y183.866 E7.51833
G1 X178.391 Y184.266 E7.54823
G1 X177.349 Y184.683 E7.58556
G1 X176.714 Y184.894 E7.60782
G1 X176.313 Y184.986 E7.6215
G1 X173.495 Y185.521 E7.7169
G1 X173.154 Y185.575 E7.72838
G1 X170.149 Y185.956 E7.82913
G1 X169.482 Y186 E7.85136
G1 X168.919 Y185.975 E7.87011
G1 X162.788 Y185.397 E8.07493
G1 X162.546 Y185.369 E8.08303
G1 X160.755 Y185.121 E8.14317
G1 X160.516 Y185.083 E8.15122
G1 X150.679 Y183.284 E8.48382
G1 X150.593 Y183.267 E8.48674
G1 X126.684 Y178.51 E9.29754
G1 X112.92 Y176.329 E9.76105
G1 X112.628 Y176.275 E9.77092
G1 X110.639 Y175.851 E9.83857
G1 X110.344 Y175.78 E9.84866
G1 X105.928 Y174.585 E10.00082
G1 X105.628 Y174.494 E10.01124
G1 X101.171 Y173.016 E10.16742
G1 X101.041 Y172.971 E10.172
G1 X93.134 Y170.132 E10.45142
G1 X87.953 Y168.447 E10.63263
G1 X82.761 Y167.078 E10.81122
G1 X80.18 Y166.511 E10.89911
G1 X73.66 Y165.319 E11.11956
G1 X73.106 Y165.188 E11.13849
G1 X69.799 Y164.228 E11.25303
G1 X69.593 Y164.164 E11.2602
G1 X62.603 Y161.84 E11.5052
G1 X62.45 Y161.787 E11.51059
G1 X57.622 Y160.025 E11.68153
G1 X57.384 Y159.931 E11.69004
G1 X55.373 Y159.091 E11.76252
G1 X55.027 Y158.933 E11.77518
G1 X52.606 Y157.723 E11.8652
G1 X52.04 Y157.398 E11.8869
G1 X49.594 Y155.795 E11.98417
G1 X49.082 Y155.415 E12.00538
G1 X47.747 Y154.304 E12.06315
G1 X47.445 Y154.034 E12.07662
G1 X46.615 Y153.235 E12.11494
G1 X46.162 Y152.743 E12.13718
G1 X45.943 Y152.457 E12.14916
G1 X45.229 Y151.458 E12.19
G1 X44.873 Y150.892 E12.21224
G1 X44.526 Y150.126 E12.24021
G1 X44.109 Y148.986 E12.28059
G1 X43.917 Y148.345 E12.30284
G1 X43.814 Y147.779 E12.32198
G1 X43.725 Y147.09 E12.34508
G1 X43.679 Y146.423 E12.36732
G1 X43.699 Y145.899 E12.38476
G1 X43.761 Y145.169 E12.40913
G1 X43.881 Y144.399 E12.43505
G1 X45.318 Y138.091 E12.65023
G1 X46.191 Y132.833 E12.8275
G1 X46.792 Y127.377 E13.01007
G1 X46.815 Y127.195 E13.01617
G1 X47.388 Y123.196 E13.15054
G1 X47.901 Y117.865 E13.32866
G1 X48.11 Y112.511 E13.50687
G1 X48.017 Y107.165 E13.68471
G1 X47.695 Y102.418 E13.84296
G1 X47.716 Y101.419 E13.87619
G1 X47.817 Y100.511 E13.90658
G1 X47.898 Y99.999 E13.92382
G1 X49.021 Y94.554 E14.10873
G1 X49.429 Y92.017 E14.1942
G1 X50.065 Y86.669 E14.37333
G1 X50.393 Y81.357 E14.55034
G1 X50.42 Y75.987 E14.72895
G1 X50.341 Y74.135 E14.7906
G1 X50.339 Y74.074 E14.79263
G1 X50.294 Y72.67 E14.83936
G1 X50.304 Y72.104 E14.85818
G1 X50.391 Y70.848 E14.90006
G1 X50.477 Y70.185 E14.9223
G1 X50.609 Y69.644 E14.94082
G1 X50.796 Y69.013 E14.96271
G1 X51.024 Y68.384 E14.98496
G1 X51.373 Y67.705 E15.01035
G1 X52.036 Y66.609 E15.05295
G1 X52.416 Y66.059 E15.07519
G1 X52.859 Y65.557 E15.09746
G1 X53.245 Y65.204 E15.11486
G1 X54.063 Y64.523 E15.15026
M204 S5000
M205 X30 Y30
G0 F3600 X54.319 Y64.831
M204 S500
M205 X20 Y20
G1 F2400 X54.839 Y64.45 E15.1717
G1 X55.475 Y64.102 E15.19581
G1 X56.043 Y63.841 E15.2166
G1 X56.644 Y63.609 E15.23803
G1 X57.191 Y63.468 E15.25682
G1 X58.571 Y63.191 E15.30363
G1 X58.99 Y63.124 E15.31774
G1 X60.904 Y62.9 E15.38184
G1 X61.547 Y62.865 E15.40326
G1 X62.19 Y62.91 E15.42469
G1 X62.657 Y62.993 E15.44047
G1 X65.218 Y63.573 E15.52781
G1 X65.525 Y63.653 E15.53836
G1 X67.942 Y64.358 E15.6221
G1 X68.228 Y64.451 E15.6321
G1 X71.892 Y65.754 E15.76144
G1 X72.22 Y65.883 E15.77317
G1 X83.429 Y70.747 E16.17957
G1 X99.272 Y77.154 E16.74796
G1 X101.688 Y78.019 E16.83332
G1 X107.53 Y79.82 E17.03665
G1 X120.853 Y83.407 E17.49555
G1 X124.658 Y84.307 E17.6256
G1 X127.299 Y84.842 E17.71522
G1 X132.645 Y85.791 E17.89581
G1 X132.868 Y85.835 E17.90337
G1 X135.763 Y86.48 E18.00202
G1 X136.119 Y86.573 E18.01426
G1 X139.331 Y87.532 E18.12575
G1 X144.58 Y88.845 E18.30571
G1 X160.123 Y91.821 E18.83206
G1 X160.208 Y91.838 E18.83495
G1 X171.072 Y94.106 E19.20407
G1 X171.513 Y94.218 E19.21921
G1 X175.538 Y95.434 E19.35905
G1 X175.992 Y95.595 E19.37508
G1 X177.958 Y96.394 E19.44566
G1 X178.289 Y96.542 E19.45772
G1 X180.763 Y97.755 E19.54936
G1 X181.346 Y98.089 E19.57171
G1 X183.909 Y99.787 E19.67397
G1 X184.23 Y100.018 E19.68712
G1 X186.005 Y101.399 E19.76192
G1 X186.378 Y101.718 E19.77824
G1 X187.761 Y103.021 E19.84144
G1 X188.202 Y103.492 E19.8629
G1 X188.53 Y103.935 E19.88124
G1 X189.134 Y104.847 E19.91762
G1 X189.456 Y105.405 E19.93905
G1 X189.689 Y105.95 E19.95876
G1 X189.966 Y106.716 E19.98585
G1 X190.147 Y107.334 E20.00727
G1 X190.253 Y107.999 E20.02967
G1 X190.316 Y108.671 E20.05212
G1 X190.337 Y109.315 E20.07355
G1 X190.294 Y109.841 E20.0911
G1 X190.196 Y110.578 E20.11583
G1 X190.098 Y111.106 E20.13369
G1 X188.972 Y115.803 E20.29434
G1 X188.45 Y118.401 E20.38248
G1 X188.009 Y120.993 E20.46993
G1 X187.329 Y126.327 E20.64877
G1 X186.9 Y132.891 E20.86756
G1 X186.863 Y133.255 E20.87973
G1 X186.119 Y138.703 E21.06261
G1 X185.679 Y144.05 E21.24105
G1 X185.543 Y149.415 E21.41955
G1 X185.709 Y154.762 E21.59748
G1 X186.183 Y160.148 E21.77731
G1 X186.725 Y164.207 E21.91351
G1 X186.771 Y164.85 E21.93495
G1 X186.763 Y165.191 E21.9463
G1 X186.683 Y166.592 E21.99297
G1 X186.606 Y167.233 E22.01444
G1 X186.368 Y168.101 E22.04438
G1 X184.09 Y174.256 E22.26266
G1 X182.355 Y179.606 E22.44973
G1 X182.119 Y180.206 E22.47117
G1 X181.81 Y180.771 E22.49259
G1 X181.599 Y181.082 E22.50509
G1 X181.238 Y181.573 E22.52536
G1 X180.824 Y182.068 E22.54683
G1 X180.24 Y182.598 E22.57306
G1 X179.502 Y183.172 E22.60415
G1 X178.97 Y183.535 E22.62557
G1 X178.242 Y183.895 E22.65258
G1 X177.2 Y184.312 E22.68991
G1 X176.588 Y184.514 E22.71135
G1 X176.238 Y184.593 E22.72328
G1 X173.42 Y185.128 E22.81868
G1 X173.104 Y185.178 E22.82933
G1 X170.099 Y185.559 E22.93007
G1 X169.456 Y185.6 E22.9515
G1 X168.957 Y185.577 E22.96812
G1 X162.826 Y184.999 E23.17294
G1 X162.601 Y184.973 E23.18047
G1 X160.81 Y184.725 E23.24061
G1 X160.588 Y184.689 E23.24809
G1 X150.751 Y182.89 E23.5807
G1 X150.671 Y182.875 E23.5834
G1 X126.75 Y178.115 E24.39462
G1 X112.982 Y175.934 E24.85825
G1 X112.712 Y175.884 E24.86739
G1 X110.723 Y175.46 E24.93503
G1 X110.449 Y175.393 E24.94441
G1 X106.033 Y174.198 E25.09657
G1 X105.754 Y174.115 E25.10625
G1 X101.297 Y172.637 E25.26243
G1 X101.176 Y172.595 E25.26669
G1 X93.228 Y169.741 E25.54757
G1 X88.074 Y168.065 E25.72782
G1 X82.852 Y166.688 E25.90745
G1 X80.254 Y166.117 E25.99592
G1 X73.732 Y164.925 E26.21643
G1 X73.217 Y164.804 E26.23403
G1 X69.91 Y163.844 E26.34856
G1 X69.719 Y163.784 E26.35522
G1 X62.729 Y161.46 E26.60022
G1 X62.587 Y161.411 E26.60522
G1 X57.759 Y159.649 E26.77616
G1 X57.538 Y159.562 E26.78406
G1 X55.527 Y158.722 E26.85654
G1 X55.206 Y158.575 E26.86829
G1 X52.785 Y157.365 E26.95831
G1 X52.26 Y157.063 E26.97845
G1 X49.814 Y155.46 E27.07572
G1 X49.338 Y155.108 E27.09541
G1 X48.003 Y153.997 E27.15318
G1 X47.723 Y153.746 E27.16568
G1 X46.893 Y152.947 E27.204
G1 X46.268 Y152.225 E27.23576
G1 X45.554 Y151.226 E27.2766
G1 X45.213 Y150.679 E27.29804
G1 X44.901 Y149.988 E27.32326
G1 X44.484 Y148.848 E27.36363
G1 X44.301 Y148.23 E27.38507
G1 X44.211 Y147.728 E27.40203
G1 X44.122 Y147.039 E27.42514
G1 X44.079 Y146.396 E27.44657
G1 X44.098 Y145.933 E27.46199
G1 X44.16 Y145.203 E27.48635
G1 X44.271 Y144.488 E27.51042
G1 X45.709 Y138.177 E27.7257
G1 X46.586 Y132.891 E27.90392
G1 X47.189 Y127.42 E28.08699
G1 X47.211 Y127.252 E28.09262
G1 X47.785 Y123.247 E28.22719
G1 X48.301 Y117.884 E28.40639
G1 X48.51 Y112.52 E28.58493
G1 X48.417 Y107.149 E28.7636
G1 X48.094 Y102.39 E28.92225
G1 X48.114 Y101.463 E28.95309
G1 X48.215 Y100.555 E28.98347
G1 X48.29 Y100.08 E28.99947
G1 X49.414 Y94.63 E29.18455
G1 X49.824 Y92.082 E29.27039
G1 X50.464 Y86.705 E29.45049
G1 X50.793 Y81.366 E29.6284
G1 X50.82 Y75.971 E29.80784
G1 X50.741 Y74.117 E29.86956
G1 X50.739 Y74.062 E29.87139
G1 X50.694 Y72.658 E29.91812
G1 X50.703 Y72.132 E29.93561
G1 X50.79 Y70.876 E29.97749
G1 X50.875 Y70.237 E29.99893
G1 X50.992 Y69.757 E30.01536
G1 X51.179 Y69.126 E30.03725
G1 X51.4 Y68.521 E30.05867
G1 X51.716 Y67.913 E30.08146
G1 X52.379 Y66.817 E30.12407
G1 X52.746 Y66.287 E30.14551
G1 X53.176 Y65.806 E30.16697
G1 X53.501 Y65.512 E30.18154
G1 X54.319 Y64.831 E30.21695
M204 S5000
M205 X30 Y30
G1 F1500 E25.21695
G1 F300 Z0.4
;MESH:bar_right_top_04.stl
G0 F3600 X178.041 Y102.912 Z0.4
M204 S500
M205 X20 Y20
;TYPE:WALL-INNER
G1 F300 Z0.2
G1 F1500 E30.21695
G1 F2400 X178.21 Y102.96 E30.22279
G1 X178.741 Y103.34 E30.24451
G1 X180.804 Y104.677 E30.32627
G1 X181.493 Y105.187 E30.35478
G1 X182.547 Y106.057 E30.40024
G1 X182.95 Y106.4 E30.41784
G1 X183.36 Y106.779 E30.43641
G1 X183.744 Y107.187 E30.45505
G1 X184.075 Y107.628 E30.47339
G1 X184.335 Y108.108 E30.49154
G1 X184.498 Y108.613 E30.50919
G1 X184.549 Y109.176 E30.52799
G1 X184.524 Y109.467 E30.53771
G1 X184.462 Y109.777 E30.54822
G1 X184.235 Y110.458 E30.5721
G1 X183.905 Y111.066 E30.59511
G1 X183.49 Y111.58 E30.61708
G1 X182.975 Y112.025 E30.63972
G1 X182.379 Y112.384 E30.66286
G1 X181.696 Y112.656 E30.68731
G1 X180.921 Y112.841 E30.71381
G1 X180.068 Y112.922 E30.74231
G1 X179.328 Y112.948 E30.76694
G1 X176.146 Y113.009 E30.87279
G1 X174.552 Y112.961 E30.92583
G1 X172.992 Y112.815 E30.97794
G1 X171.367 Y112.601 E31.03246
G1 X169.753 Y112.345 E31.08681
G1 X166.546 Y111.768 E31.19519
G1 X162.507 Y111.06 E31.33157
G1 X160.455 Y110.754 E31.40058
G1 X158.407 Y110.506 E31.46919
G1 X155.228 Y110.142 E31.57562
G1 X152.135 Y109.73 E31.6794
G1 X149.129 Y109.268 E31.78055
G1 X146.183 Y108.754 E31.88002
G1 X143.321 Y108.192 E31.97703
G1 X140.509 Y107.574 E32.07279
G1 X137.749 Y106.902 E32.16727
G1 X135.04 Y106.177 E32.26054
G1 X127.264 Y103.953 E32.52954
G1 X119.547 Y101.674 E32.79717
G1 X111.957 Y99.376 E33.06093
G1 X104.557 Y97.096 E33.31847
G1 X101.046 Y95.977 E33.44104
G1 X97.578 Y94.791 E33.56294
G1 X90.723 Y92.307 E33.80545
G1 X90.49 Y92.201 E33.81396
G1 X86.888 Y90.823 E33.94223
G1 X80.96 Y88.381 E34.15547
G1 X75.592 Y86.201 E34.34817
G1 X70.28 Y83.984 E34.53962
G1 X69.336 Y83.562 E34.57401
G1 X66.343 Y82.301 E34.68203
G1 X63.353 Y80.93 E34.79144
G1 X62.446 Y80.464 E34.82535
G1 X61.54 Y79.941 E34.86015
G1 X60.617 Y79.325 E34.89706
G1 X59.731 Y78.62 E34.93471
G1 X58.908 Y77.82 E34.97289
G1 X58.14 Y76.881 E35.01324
G1 X57.803 Y76.379 E35.03335
G1 X57.485 Y75.83 E35.05445
G1 X57.207 Y75.264 E35.07542
G1 X56.952 Y74.641 E35.09781
G1 X56.78 Y74.126 E35.11587
G1 X56.647 Y73.633 E35.13285
G1 X56.549 Y73.155 E35.14908
G1 X56.498 Y72.77 E35.162
G1 X56.475 Y71.993 E35.18785
G1 X56.555 Y71.361 E35.20904
G1 X56.716 Y70.819 E35.22785
G1 X56.934 Y70.368 E35.24451
G1 X57.195 Y69.989 E35.25981
G1 X57.472 Y69.684 E35.27352
G1 X57.731 Y69.467 E35.28476
G1 X58.019 Y69.292 E35.29596
G1 X58.336 Y69.151 E35.3075
G1 X58.654 Y69.047 E35.31863
G1 X59.404 Y68.902 E35.34404
G1 X60.179 Y68.831 E35.36992
G1 X60.745 Y68.765 E35.38888
G1 X61.421 Y68.655 E35.41166
G1 X61.535 Y68.657 E35.41545
G1 X61.611 Y68.669 E35.41801
G1 X61.735 Y68.707 E35.42232
G1 X63.577 Y69.132 E35.4852
G1 X65.365 Y69.625 E35.54688
G1 X67.107 Y70.177 E35.60766
G1 X68.828 Y70.785 E35.66837
G1 X70.516 Y71.438 E35.72857
G1 X72.174 Y72.124 E35.78825
G1 X75.384 Y73.552 E35.9051
G1 X77.062 Y74.313 E35.96638
G1 X78.697 Y75.04 E36.0259
G1 X80.297 Y75.73 E36.08385
G1 X81.876 Y76.38 E36.14064
G1 X86.151 Y78.085 E36.29372
G1 X89.808 Y79.525 E36.42444
G1 X91.473 Y80.221 E36.48447
G1 X93.099 Y80.938 E36.54357
G1 X96.177 Y82.243 E36.65477
G1 X97.76 Y82.863 E36.71131
G1 X99.347 Y83.437 E36.76744
G1 X101.688 Y84.187 E36.8492
G1 X104.052 Y84.881 E36.93115
G1 X108.753 Y86.168 E37.09326
G1 X111.401 Y86.873 E37.1844
G1 X113.322 Y87.403 E37.25068
G1 X118.244 Y88.737 E37.42029
G1 X123.237 Y89.97 E37.59135
G1 X125.736 Y90.473 E37.67613
G1 X130.823 Y91.337 E37.84775
G1 X133.39 Y91.86 E37.93488
G1 X134.294 Y92.079 E37.96582
G1 X135.171 Y92.334 E37.99619
G1 X138.842 Y93.552 E38.12484
G1 X139.778 Y93.822 E38.15724
G1 X140.719 Y94.043 E38.18939
G1 X146.729 Y95.201 E38.39296
G1 X152.676 Y96.327 E38.59427
G1 X159.374 Y97.58 E38.82091
G1 X166.125 Y98.935 E39.04993
G1 X169.121 Y99.591 E39.15194
G1 X170.617 Y99.968 E39.20325
G1 X172.126 Y100.399 E39.25545
G1 X173.613 Y100.89 E39.30753
G1 X175.099 Y101.461 E39.36048
G1 X176.532 Y102.11 E39.4128
G1 X178.041 Y102.912 E39.46964
M204 S5000
M205 X30 Y30
G0 F3600 X178.192 Y102.539
M204 S500
M205 X20 Y20
;TYPE:WALL-OUTER
G1 F2400 X178.387 Y102.595 E39.47639
G1 X178.966 Y103.009 E39.50006
G1 X181.031 Y104.347 E39.5819
G1 X181.743 Y104.874 E39.61136
G1 X182.802 Y105.748 E39.65703
G1 X183.21 Y106.096 E39.67487
G1 X183.64 Y106.493 E39.69433
G1 X184.052 Y106.931 E39.71433
G1 X184.415 Y107.414 E39.73443
G1 X184.705 Y107.949 E39.75467
G1 X184.892 Y108.53 E39.77497
G1 X184.95 Y109.179 E39.79664
G1 X184.922 Y109.517 E39.80792
G1 X184.85 Y109.877 E39.82013
G1 X184.601 Y110.624 E39.84632
G1 X184.242 Y111.285 E39.87134
G1 X183.775 Y111.863 E39.89605
G1 X183.213 Y112.349 E39.92077
G1 X182.561 Y112.741 E39.94607
G1 X181.815 Y113.039 E39.97279
G1 X180.986 Y113.236 E40.00113
