;FLAVOR:Marlin
;TIME:1352
;Filament used: 0.626689m
;Layer height: 0.2
;Generated with Cura_SteamEngine 3.6.0
M140 S50
M105
M190 S50
M104 S210
M105
M109 S210
M82 ;absolute extrusion mode
; Ender 3 Custom Start G-code
G28 ; Home all axes
G92 E0 ; Reset Extruder
G1 Z2.0 F3000 ; Move Z Axis up little to prevent scratching of Heat Bed
G1 X0.1 Y20 Z0.3 F5000.0 ; Move to start position
G1 X0.1 Y200.0 Z0.3 F1500.0 E15 ; Draw the first line
G1 X0.4 Y200.0 Z0.3 F5000.0 ; Move to side a little
G1 X0.4 Y20 Z0.3 F1500.0 E30 ; Draw the second line
G92 E0 ; Reset Extruder
G1 Z2.0 F3000 ; Move Z Axis up little to prevent scratching of Heat Bed
G90 ; absolute xyz﻿
G92 E0
G1 F1500 E-5
;LAYER_COUNT:3
;LAYER:0
M107
M204 S5000
M205 X30 Y30
G0 F3600 X72.366 Y88.263 Z0.2
M204 S500
M205 X20 Y20
;TYPE:SKIRT
G1 F1500 E0
G1 F2400 X73.116 Y87.647 E0.03228
G1 X73.936 Y87.086 E0.06533
G1 X74.83 Y86.586 E0.09939
G1 X75.433 Y86.295 E0.12166
G1 X75.891 Y86.13 E0.13786
G1 X76.875 Y85.822 E0.17215
G1 X77.854 Y85.609 E0.20547
G1 X78.503 Y85.528 E0.22723
G1 X79.043 Y85.487 E0.24524
G1 X84.926 Y85.325 E0.44098
G1 X90.226 Y84.878 E0.61789
G1 X95.524 Y84.127 E0.79586
G1 X100.789 Y83.076 E0.97443
G1 X103.308 Y82.46 E1.06068
G1 X108.486 Y80.96 E1.23998
G1 X113.528 Y79.183 E1.41779
G1 X118.442 Y77.133 E1.59488
G1 X123.289 Y74.781 E1.77407
G1 X125.573 Y73.551 E1.86035
G1 X128.424 Y71.891 E1.97008
G1 X128.435 Y71.885 E1.9705
G1 X129.49 Y71.274 E2.01105
G1 X129.961 Y71.03 E2.02869
G1 X132.739 Y69.755 E2.13035
G1 X133.327 Y69.525 E2.15135
G1 X135.126 Y68.934 E2.21433
G1 X135.609 Y68.799 E2.23101
G1 X138.067 Y68.229 E2.31494
G1 X138.51 Y68.145 E2.32993
G1 X140.659 Y67.826 E2.40219
G1 X141.042 Y67.782 E2.41502
G1 X143.32 Y67.603 E2.49102
G1 X143.716 Y67.586 E2.5042
G1 X147.21 Y67.559 E2.62041
G1 X147.569 Y67.568 E2.63236
G1 X151.124 Y67.769 E2.75079
G1 X151.398 Y67.791 E2.75993
G1 X154.4 Y68.109 E2.86033
G1 X155.039 Y68.215 E2.88188
G1 X156.03 Y68.438 E2.91566
G1 X156.446 Y68.548 E2.92997
G1 X157.868 Y68.985 E2.97945
G1 X158.192 Y69.096 E2.99084
G1 X160.069 Y69.801 E3.05753
G1 X160.416 Y69.944 E3.07002
G1 X163.104 Y71.165 E3.16821
G1 X163.696 Y71.478 E3.19048
G1 X164.446 Y72.024 E3.22134
G1 X165.364 Y72.816 E3.26166
G1 X165.844 Y73.282 E3.28391
G1 X166.144 Y73.641 E3.29947
G1 X166.688 Y74.348 E3.32915
G1 X167.132 Y75.019 E3.35591
G1 X167.58 Y75.816 E3.38632
G1 X167.932 Y76.568 E3.41393
G1 X168.311 Y77.564 E3.44938
G1 X168.559 Y78.411 E3.47873
G1 X168.734 Y79.249 E3.5072
G1 X168.831 Y79.911 E3.52946
G1 X168.85 Y80.264 E3.54121
G1 X168.868 Y81.04 E3.56703
G1 X168.844 Y81.709 E3.5893
G1 X168.74 Y82.37 E3.61155
G1 X168.637 Y82.769 E3.62526
G1 X168.35 Y83.732 E3.65868
G1 X168.121 Y84.361 E3.68094
G1 X167.818 Y84.958 E3.70321
G1 X167.511 Y85.427 E3.72185
G1 X166.929 Y86.227 E3.75476
G1 X166.564 Y86.679 E3.77408
G1 X162.984 Y90.657 E3.95208
G1 X159.633 Y94.832 E4.13014
G1 X156.543 Y99.159 E4.30698
G1 X153.69 Y103.676 E4.48468
G1 X151.096 Y108.347 E4.66239
G1 X148.767 Y113.165 E4.84037
G1 X146.725 Y118.084 E5.01752
G1 X144.957 Y123.127 E5.19526
G1 X143.463 Y128.308 E5.3746
G1 X142.844 Y130.855 E5.46178
G1 X142.301 Y133.413 E5.54875
G1 X141.402 Y138.728 E5.72804
G1 X140.813 Y144.032 E5.90554
G1 X140.411 Y151.342 E6.14904
G1 X140.388 Y151.625 E6.15848
G1 X140.158 Y153.795 E6.23106
G1 X140.048 Y154.455 E6.25331
G1 X139.802 Y155.529 E6.28996
G1 X139.627 Y156.133 E6.31088
G1 X139.178 Y157.413 E6.35599
G1 X138.806 Y158.248 E6.3864
G1 X137.896 Y159.91 E6.44942
G1 X137.54 Y160.477 E6.47169
G1 X137.238 Y160.862 E6.48796
G1 X135.979 Y162.333 E6.55236
G1 X135.515 Y162.815 E6.57461
G1 X135.13 Y163.138 E6.59133
G1 X133.652 Y164.27 E6.65325
G1 X132.9 Y164.756 E6.68303
G1 X131.764 Y165.367 E6.72593
G1 X131.258 Y165.607 E6.74456
G1 X130.487 Y165.927 E6.77232
G1 X129.844 Y166.149 E6.79495
G1 X127.821 Y166.713 E6.8648
G1 X127.149 Y166.857 E6.88765
G1 X125.378 Y167.123 E6.94722
G1 X125.003 Y167.166 E6.95977
G1 X121.763 Y167.431 E7.0679
G1 X121.094 Y167.446 E7.09015
G1 X120.731 Y167.42 E7.10226
G1 X119.317 Y167.274 E7.14954
G1 X118.657 Y167.166 E7.17178
G1 X117.959 Y166.96 E7.19599
G1 X111.706 Y164.661 E7.41757
G1 X106.615 Y163.114 E7.59455
G1 X101.354 Y161.836 E7.77462
G1 X98.822 Y161.335 E7.86046
G1 X93.529 Y160.516 E8.0386
G1 X88.168 Y159.995 E8.21775
G1 X85.554 Y159.852 E8.30482
G1 X82.074 Y159.774 E8.4206
G1 X81.598 Y159.743 E8.43646
G1 X80.211 Y159.593 E8.48286
G1 X79.498 Y159.469 E8.50693
G1 X77.97 Y159.1 E8.55922
G1 X77.304 Y158.894 E8.5824
G1 X75.453 Y158.194 E8.64822
G1 X74.87 Y157.935 E8.66944
G1 X72.728 Y156.832 E8.74958
G1 X72.153 Y156.49 E8.77183
G1 X71.573 Y156.039 E8.79626
G1 X71.098 Y155.617 E8.8174
G1 X70.625 Y155.144 E8.83965
G1 X70.095 Y154.442 E8.8689
G1 X69.604 Y153.672 E8.89927
G1 X69.279 Y153.087 E8.92153
G1 X69.04 Y152.511 E8.94227
G1 X68.759 Y151.708 E8.97057
G1 X68.517 Y150.756 E9.00324
G1 X68.092 Y148.139 E9.09142
G1 X68.063 Y147.932 E9.09838
G1 X67.004 Y139.419 E9.3837
G1 X66.983 Y139.229 E9.39006
G1 X66.699 Y136.069 E9.49559
G1 X66.677 Y135.625 E9.51037
G1 X66.587 Y126.769 E9.80494
G1 X66.189 Y119.638 E10.04248
G1 X66.182 Y119.477 E10.04784
G1 X66.11 Y116.801 E10.13688
G1 X66.112 Y116.446 E10.14869
G1 X66.297 Y111.377 E10.3174
G1 X66.314 Y111.093 E10.32686
G1 X66.849 Y104.975 E10.53112
G1 X66.877 Y104.721 E10.53962
G1 X67.566 Y99.57 E10.71247
G1 X67.611 Y99.29 E10.7219
G1 X68.293 Y95.617 E10.84615
G1 X68.425 Y95.063 E10.8651
G1 X68.795 Y93.801 E10.90884
G1 X69.142 Y92.909 E10.94067
G1 X69.908 Y91.349 E10.99847
G1 X70.239 Y90.767 E11.02074
G1 X70.568 Y90.311 E11.03945
G1 X71.553 Y89.084 E11.09178
G1 X72.002 Y88.589 E11.11401
G1 X72.366 Y88.263 E11.13026
M204 S5000
M205 X30 Y30
G0 F3600 X72.62 Y88.572
M204 S500
M205 X20 Y20
G1 F2400 X73.37 Y87.956 E11.16254
G1 X74.132 Y87.436 E11.19322
G1 X75.026 Y86.936 E11.22729
G1 X75.607 Y86.656 E11.24874
G1 X76.011 Y86.511 E11.26302
G1 X76.995 Y86.203 E11.29731
G1 X77.904 Y86.006 E11.32825
G1 X78.553 Y85.925 E11.35
G1 X79.054 Y85.887 E11.36671
G1 X84.934 Y85.725 E11.56236
G1 X90.281 Y85.275 E11.74083
G1 X95.607 Y84.519 E11.91975
G1 X100.866 Y83.469 E12.09811
G1 X103.417 Y82.846 E12.18545
G1 X108.593 Y81.346 E12.36469
G1 X113.673 Y79.556 E12.54384
G1 X118.607 Y77.498 E12.72164
G1 X123.464 Y75.14 E12.90122
G1 X125.798 Y73.884 E12.98938
G1 X128.626 Y72.237 E13.09822
G1 X128.636 Y72.231 E13.09861
G1 X129.691 Y71.62 E13.13916
G1 X130.128 Y71.394 E13.15552
G1 X132.906 Y70.119 E13.25719
G1 X133.452 Y69.905 E13.27669
G1 X135.251 Y69.314 E13.33967
G1 X135.699 Y69.188 E13.35515
G1 X138.157 Y68.618 E13.43908
G1 X138.568 Y68.54 E13.45299
G1 X140.717 Y68.221 E13.52525
G1 X141.074 Y68.181 E13.5372
G1 X143.352 Y68.002 E13.6132
G1 X143.719 Y67.986 E13.62542
G1 X147.213 Y67.959 E13.74163
G1 X147.547 Y67.967 E13.75274
G1 X151.102 Y68.168 E13.87117
G1 X151.356 Y68.189 E13.87965
G1 X154.358 Y68.507 E13.98005
G1 X154.952 Y68.605 E14.00008
G1 X155.943 Y68.828 E14.03386
G1 X156.329 Y68.93 E14.04714
G1 X157.751 Y69.367 E14.09662
G1 X158.051 Y69.47 E14.10717
G1 X159.928 Y70.175 E14.17386
G1 X160.251 Y70.309 E14.18549
G1 X162.939 Y71.53 E14.28368
G1 X163.508 Y71.832 E14.30511
G1 X164.185 Y72.327 E14.333
G1 X165.103 Y73.119 E14.37333
G1 X165.564 Y73.569 E14.39475
G1 X165.827 Y73.885 E14.40843
G1 X166.371 Y74.592 E14.4381
G1 X166.783 Y75.215 E14.46294
G1 X167.231 Y76.012 E14.49335
G1 X167.558 Y76.711 E14.51902
G1 X167.937 Y77.707 E14.55446
G1 X168.167 Y78.493 E14.5817
G1 X168.342 Y79.331 E14.61017
G1 X168.451 Y80.273 E14.64171
G1 X168.469 Y81.049 E14.66753
G1 X168.444 Y81.694 E14.689
G1 X168.339 Y82.33 E14.71044
G1 X168.253 Y82.655 E14.72162
G1 X167.966 Y83.618 E14.75504
G1 X167.744 Y84.223 E14.77648
G1 X167.449 Y84.796 E14.79791
G1 X167.188 Y85.192 E14.81369
G1 X166.606 Y85.992 E14.84659
G1 X166.266 Y86.411 E14.86454
G1 X162.683 Y90.393 E15.0427
G1 X159.326 Y94.574 E15.22104
G1 X156.209 Y98.94 E15.39946
G1 X153.335 Y103.489 E15.57843
G1 X150.748 Y108.15 E15.75573
G1 X148.398 Y113.009 E15.93525
G1 X146.351 Y117.94 E16.11283
G1 X144.575 Y123.005 E16.29135
G1 X143.084 Y128.178 E16.47041
G1 X142.451 Y130.782 E16.55954
G1 X141.904 Y133.36 E16.64719
G1 X141.006 Y138.669 E16.82628
G1 X140.413 Y144.003 E17.00478
G1 X140.011 Y151.32 E17.24851
G1 X139.99 Y151.583 E17.25729
G1 X139.76 Y153.753 E17.32987
G1 X139.658 Y154.366 E17.35054
G1 X139.412 Y155.44 E17.38718
G1 X139.25 Y156 E17.40657
G1 X138.801 Y157.28 E17.45169
G1 X138.455 Y158.056 E17.47995
G1 X137.545 Y159.718 E17.54297
G1 X137.201 Y160.264 E17.56443
G1 X136.935 Y160.602 E17.57874
G1 X135.676 Y162.073 E17.64314
G1 X135.227 Y162.536 E17.66459
G1 X134.887 Y162.82 E17.67932
G1 X133.409 Y163.952 E17.74124
G1 X132.71 Y164.404 E17.76893
G1 X131.574 Y165.015 E17.81183
G1 X131.104 Y165.238 E17.82913
G1 X130.333 Y165.558 E17.8569
G1 X129.736 Y165.764 E17.8779
G1 X127.713 Y166.328 E17.94775
G1 X127.089 Y166.461 E17.96897
G1 X125.318 Y166.727 E18.02854
G1 X124.97 Y166.768 E18.04019
G1 X121.73 Y167.033 E18.14832
G1 X120.772 Y167.023 E18.18018
G1 X119.358 Y166.877 E18.22746
G1 X118.722 Y166.771 E18.24891
G1 X118.097 Y166.585 E18.2706
G1 X111.835 Y164.282 E18.49251
G1 X106.705 Y162.724 E18.67083
G1 X101.435 Y161.443 E18.85121
G1 X98.914 Y160.944 E18.93669
G1 X93.575 Y160.118 E19.11638
G1 X88.182 Y159.594 E19.29659
G1 X85.585 Y159.453 E19.3831
G1 X82.083 Y159.374 E19.4996
G1 X81.641 Y159.345 E19.51434
G1 X80.254 Y159.195 E19.56074
G1 X79.592 Y159.08 E19.58309
G1 X78.064 Y158.711 E19.63537
G1 X77.446 Y158.52 E19.65688
G1 X75.595 Y157.82 E19.7227
G1 X75.053 Y157.579 E19.74243
G1 X72.911 Y156.476 E19.82257
G1 X72.358 Y156.146 E19.84398
G1 X71.838 Y155.74 E19.86593
G1 X71.363 Y155.318 E19.88706
G1 X70.909 Y154.861 E19.90848
G1 X70.433 Y154.227 E19.93485
G1 X69.942 Y153.457 E19.96523
G1 X69.629 Y152.893 E19.98668
G1 X69.418 Y152.379 E20.00516
G1 X69.137 Y151.576 E20.03346
G1 X68.912 Y150.692 E20.0638
G1 X68.487 Y148.075 E20.15198
G1 X68.46 Y147.883 E20.15843
G1 X67.401 Y139.37 E20.44375
G1 X67.382 Y139.193 E20.44967
G1 X67.098 Y136.033 E20.5552
G1 X67.077 Y135.621 E20.56892
G1 X66.987 Y126.765 E20.86349
G1 X66.588 Y119.616 E21.10163
G1 X66.582 Y119.466 E21.10663
G1 X66.51 Y116.79 E21.19566
G1 X66.511 Y116.46 E21.20664
G1 X66.696 Y111.391 E21.37535
G1 X66.713 Y111.128 E21.38411
G1 X67.248 Y105.01 E21.58838
G1 X67.274 Y104.774 E21.59627
G1 X67.963 Y99.623 E21.76912
G1 X68.004 Y99.363 E21.77788
G1 X68.686 Y95.69 E21.90213
G1 X68.809 Y95.176 E21.91971
G1 X69.179 Y93.914 E21.96345
G1 X69.501 Y93.085 E21.99303
G1 X70.267 Y91.525 E22.05083
G1 X70.587 Y90.965 E22.07228
G1 X70.88 Y90.562 E22.08885
G1 X71.865 Y89.335 E22.14119
G1 X72.299 Y88.858 E22.16264
G1 X72.62 Y88.572 E22.17694
M204 S5000
M205 X30 Y30
G1 F1500 E17.17694
G1 F300 Z0.4
;MESH:n_04.stl
G0 F3600 X113.924 Y118.033 Z0.4
M204 S500
M205 X20 Y20
;TYPE:WALL-INNER
G1 F300 Z0.2
G1 F1500 E22.17694
G1 F2400 X114.303 Y117.549 E22.19738
G1 X114.578 Y116.97 E22.2187
G1 X114.761 Y116.306 E22.24161
G1 X114.867 Y115.572 E22.26628
G1 X115.063 Y113.731 E22.32785
G1 X115.297 Y111.786 E22.39301
G1 X115.577 Y109.784 E22.46025
G1 X115.918 Y107.755 E22.52868
G1 X116.334 Y105.64 E22.60037
G1 X116.815 Y103.566 E22.67118
G1 X117.515 Y100.485 E22.77627
G1 X117.815 Y98.917 E22.82937
G1 X118.237 Y95.992 E22.92766
G1 X118.502 Y94.636 E22.97361
G1 X118.83 Y93.344 E23.01795
G1 X119.245 Y92.027 E23.06388
G1 X119.717 Y90.782 E23.10816
G1 X120.256 Y89.571 E23.15225
G1 X120.888 Y88.345 E23.19812
G1 X121.587 Y87.16 E23.24388
G1 X122.353 Y86.005 E23.28998
G1 X123.211 Y84.852 E23.33778
G1 X124.129 Y83.74 E23.38574
G1 X125.157 Y82.61 E23.43655
G1 X126.235 Y81.528 E23.48735
G1 X127.401 Y80.454 E23.54008
G1 X128.659 Y79.386 E23.59496
G1 X130.016 Y78.317 E23.65242
G1 X130.762 Y77.771 E23.68317
G1 X131.559 Y77.244 E23.71495
G1 X132.382 Y76.753 E23.74682
G1 X133.222 Y76.304 E23.7785
G1 X134.081 Y75.897 E23.81012
G1 X134.967 Y75.524 E23.84209
G1 X135.908 Y75.179 E23.87542
G1 X136.851 Y74.878 E23.90835
G1 X137.837 Y74.609 E23.94234
G1 X138.847 Y74.378 E23.9768
G1 X139.886 Y74.183 E24.01196
G1 X140.97 Y74.019 E24.04843
G1 X142.062 Y73.897 E24.08497
G1 X143.192 Y73.809 E24.12267
G1 X144.38 Y73.755 E24.16222
G1 X145.733 Y73.737 E24.20723
G1 X146.844 Y73.748 E24.24418
G1 X147.929 Y73.779 E24.28028
G1 X149.986 Y73.891 E24.3488
G1 X151.9 Y74.058 E24.4127
G1 X153.712 Y74.26 E24.47334
G1 X154.497 Y74.436 E24.5001
G1 X155.34 Y74.669 E24.52919
G1 X156.945 Y75.219 E24.58562
G1 X158.547 Y75.874 E24.64318
G1 X160.142 Y76.583 E24.70124
G1 X160.459 Y76.755 E24.71324
G1 X160.728 Y76.944 E24.72417
G1 X161.283 Y77.468 E24.74956
G1 X161.762 Y78.097 E24.77585
G1 X162.156 Y78.796 E24.80254
G1 X162.455 Y79.536 E24.82909
G1 X162.64 Y80.253 E24.85371
G1 X162.698 Y80.899 E24.87529
G1 X162.683 Y81.161 E24.88402
G1 X162.639 Y81.395 E24.89194
G1 X162.511 Y81.757 E24.90471
G1 X162.309 Y82.122 E24.91858
G1 X162.026 Y82.465 E24.93337
G1 X161.606 Y82.808 E24.95141
G1 X161.372 Y82.95 E24.96051
G1 X161.074 Y83.096 E24.97155
G1 X160.748 Y83.223 E24.98318
G1 X160.37 Y83.335 E24.9963
G1 X159.938 Y83.43 E25.01101
G1 X159.455 Y83.504 E25.02726
G1 X158.948 Y83.549 E25.04419
G1 X158.33 Y83.57 E25.06476
G1 X155.956 Y83.57 E25.14372
G1 X153.11 Y83.514 E25.23839
G1 X152.399 Y83.542 E25.26206
G1 X151.717 Y83.631 E25.28493
G1 X150.288 Y83.926 E25.33347
G1 X148.924 Y84.289 E25.38041
G1 X147.616 Y84.721 E25.42623
G1 X146.367 Y85.225 E25.47102
G1 X145.177 Y85.798 E25.51495
G1 X144.047 Y86.44 E25.55818
G1 X142.978 Y87.151 E25.60088
G1 X141.97 Y87.932 E25.64329
G1 X141.023 Y88.782 E25.68562
G1 X140.14 Y89.7 E25.72798
G1 X139.321 Y90.685 E25.77059
G1 X138.565 Y91.737 E25.81367
G1 X137.875 Y92.855 E25.85737
G1 X137.249 Y94.036 E25.90183
G1 X136.689 Y95.284 E25.94732
G1 X136.193 Y96.598 E25.99404
G1 X135.646 Y98.399 E26.05664
G1 X135.203 Y100.247 E26.11985
G1 X134.832 Y102.104 E26.18283
G1 X133.662 Y108.723 E26.40639
G1 X133.406 Y110.808 E26.47626
G1 X133.259 Y112.879 E26.54532
G1 X133.224 Y114.94 E26.61388
G1 X133.3 Y116.993 E26.68221
G1 X133.486 Y119.043 E26.75067
G1 X133.784 Y121.092 E26.81954
G1 X134.189 Y123.133 E26.88874
G1 X134.435 Y124.266 E26.92731
G1 X134.645 Y125.44 E26.96697
G1 X134.82 Y126.663 E27.00806
G1 X134.963 Y127.946 E27.051
G1 X135.073 Y129.291 E27.09589
G1 X135.148 Y130.686 E27.14235
G1 X135.194 Y132.165 E27.19157
G1 X135.209 Y133.723 E27.24339
G1 X135.198 Y135.632 E27.30688
G1 X135.107 Y137.532 E27.37015
G1 X134.787 Y141.295 E27.49576
G1 X134.469 Y145.142 E27.62415
G1 X134.395 Y146.559 E27.67134
G1 X134.362 Y147.94 E27.71729
G1 X134.284 Y150.111 E27.78954
G1 X134.128 Y152.278 E27.8618
G1 X134.007 Y153.107 E27.88967
G1 X133.838 Y153.877 E27.91589
G1 X133.611 Y154.641 E27.94239
G1 X133.347 Y155.337 E27.96715
G1 X133.035 Y155.995 E27.99137
G1 X132.662 Y156.642 E28.01621
G1 X132.269 Y157.207 E28.0391
G1 X131.809 Y157.762 E28.06308
G1 X131.304 Y158.278 E28.08709
G1 X130.769 Y158.739 E28.11058
G1 X130.182 Y159.164 E28.13469
G1 X129.54 Y159.556 E28.15971
G1 X128.878 Y159.891 E28.18438
G1 X128.133 Y160.2 E28.21121
G1 X127.391 Y160.447 E28.23722
G1 X126.571 Y160.658 E28.26538
G1 X125.703 Y160.834 E28.29484
G1 X124.83 Y160.956 E28.32416
G1 X123.085 Y161.121 E28.38245
G1 X121.251 Y161.263 E28.44363
G1 X120.835 Y161.258 E28.45747
G1 X120.442 Y161.217 E28.47061
G1 X120.076 Y161.142 E28.48304
G1 X119.729 Y161.031 E28.49516
G1 X119.407 Y160.888 E28.50688
G1 X119.105 Y160.712 E28.5185
G1 X118.825 Y160.504 E28.5301
G1 X118.572 Y160.269 E28.54159
G1 X118.331 Y159.99 E28.55385
G1 X118.112 Y159.68 E28.56647
G1 X117.911 Y159.332 E28.57984
G1 X117.733 Y158.943 E28.59407
G1 X117.578 Y158.516 E28.60918
G1 X117.452 Y158.064 E28.62478
G1 X117.347 Y157.551 E28.6422
G1 X117.24 Y156.754 E28.66895
G1 X117.204 Y155.924 E28.69658
G1 X117.248 Y155.135 E28.72286
G1 X117.375 Y154.366 E28.74879
G1 X117.634 Y152.94 E28.79699
G1 X117.799 Y151.491 E28.8455
G1 X117.88 Y150.047 E28.8936
G1 X117.891 Y148.616 E28.9412
G1 X117.849 Y147.205 E28.98815
G1 X117.766 Y145.821 E29.03426
G1 X117.541 Y143.169 E29.12278
G1 X117.065 Y138.481 E29.27951
G1 X116.717 Y135.163 E29.39047
G1 X116.349 Y130.883 E29.53335
G1 X116.3 Y130.487 E29.54662
