;FLAVOR:Marlin
;TIME:1412
;Filament used: 0.65858m
;Layer height: 0.2
;Generated with Cura_SteamEngine 3.6.0
M140 S50
M105
M190 S50
M104 S210
M105
M109 S210
M82 ;absolute extrusion mode
; Ender 3 Custom Start G-code
G28 ; Home all axes
G92 E0 ; Reset Extruder
G1 Z2.0 F3000 ; Move Z Axis up little to prevent scratching of Heat Bed
G1 X0.1 Y20 Z0.3 F5000.0 ; Move to start position
G1 X0.1 Y200.0 Z0.3 F1500.0 E15 ; Draw the first line
G1 X0.4 Y200.0 Z0.3 F5000.0 ; Move to side a little
G1 X0.4 Y20 Z0.3 F1500.0 E30 ; Draw the second line
G92 E0 ; Reset Extruder
G1 Z2.0 F3000 ; Move Z Axis up little to prevent scratching of Heat Bed
G90 ; absolute xyz﻿
G92 E0
G1 F1500 E-5
;LAYER_COUNT:3
;LAYER:0
M107
M204 S5000
M205 X30 Y30
G0 F3600 X91.749 Y71.038 Z0.2
M204 S500
M205 X20 Y20
;TYPE:SKIRT
G1 F1500 E0
G1 F2400 X92.363 Y70.295 E0.03206
G1 X92.83 Y69.795 E0.05481
G1 X94.104 Y68.589 E0.11316
G1 X94.429 Y68.304 E0.12754
G1 X99.495 Y64.201 E0.34437
G1 X99.82 Y63.957 E0.35788
G1 X101.032 Y63.113 E0.40701
G1 X101.453 Y62.847 E0.42357
G1 X103.264 Y61.812 E0.49295
G1 X103.94 Y61.484 E0.51794
G1 X105.946 Y60.671 E0.58993
G1 X106.801 Y60.402 E0.61974
G1 X109.014 Y59.896 E0.69524
G1 X109.842 Y59.771 E0.72309
G1 X111.678 Y59.633 E0.78433
G1 X112.377 Y59.624 E0.80758
G1 X114.041 Y59.707 E0.863
G1 X114.676 Y59.775 E0.88424
G1 X116.115 Y60.013 E0.93275
G1 X116.617 Y60.12 E0.94982
G1 X117.581 Y60.372 E0.98296
G1 X118.055 Y60.519 E0.99947
G1 X119.43 Y61.012 E1.04805
G1 X119.959 Y61.232 E1.06711
G1 X121.287 Y61.868 E1.11608
G1 X121.764 Y62.126 E1.13412
G1 X123.04 Y62.897 E1.1837
G1 X123.47 Y63.185 E1.20092
G1 X124.757 Y64.135 E1.25412
G1 X125.2 Y64.498 E1.27317
G1 X126.879 Y66.026 E1.34868
G1 X127.095 Y66.234 E1.35865
G1 X129.559 Y68.73 E1.4753
G1 X129.689 Y68.866 E1.48156
G1 X133.919 Y73.449 E1.689
G1 X134.118 Y73.676 E1.69904
G1 X138.134 Y78.527 E1.9085
G1 X138.395 Y78.868 E1.92278
G1 X140.23 Y81.467 E2.0286
G1 X140.483 Y81.86 E2.04414
G1 X141.555 Y83.684 E2.11451
G1 X141.767 Y84.081 E2.12948
G1 X142.665 Y85.936 E2.19803
G1 X142.862 Y86.392 E2.21455
G1 X144.06 Y89.555 E2.32704
G1 X144.118 Y89.715 E2.3327
G1 X147.574 Y99.746 E2.68558
G1 X147.755 Y100.396 E2.70802
G1 X148.216 Y102.547 E2.78119
G1 X148.333 Y103.439 E2.81111
G1 X148.403 Y104.829 E2.8574
G1 X148.4 Y105.439 E2.87769
G1 X148.348 Y106.326 E2.90725
G1 X148.266 Y107.008 E2.93009
G1 X147.996 Y108.48 E2.97987
G1 X147.754 Y109.376 E3.01074
G1 X147.13 Y111.1 E3.07172
G1 X146.829 Y111.785 E3.0966
G1 X146.41 Y112.588 E3.12673
G1 X146.174 Y112.996 E3.14241
G1 X143.014 Y117.978 E3.33863
G1 X140.388 Y122.644 E3.51671
G1 X138.036 Y127.437 E3.69429
G1 X135.926 Y132.434 E3.8747
G1 X135.044 Y134.807 E3.9589
G1 X133.37 Y139.946 E4.13866
G1 X132.003 Y145.124 E4.31678
G1 X131.43 Y147.732 E4.40559
G1 X130.946 Y150.301 E4.49254
G1 X130.17 Y155.612 E4.67106
G1 X129.691 Y161.025 E4.8518
G1 X129.506 Y164.031 E4.95197
G1 X129.412 Y164.768 E4.97668
G1 X129.287 Y165.404 E4.99824
G1 X129.082 Y166.161 E5.02433
G1 X128.664 Y167.365 E5.06672
G1 X128.407 Y167.982 E5.08895
G1 X128.16 Y168.436 E5.10614
G1 X127.342 Y169.782 E5.15852
G1 X126.961 Y170.332 E5.18078
G1 X126.718 Y170.621 E5.19334
G1 X126.275 Y171.113 E5.21536
G1 X125.716 Y171.653 E5.24121
G1 X124.907 Y172.333 E5.27636
G1 X124.37 Y172.732 E5.29861
G1 X124.042 Y172.931 E5.31137
G1 X122.918 Y173.561 E5.35422
G1 X122.194 Y173.901 E5.38083
G1 X121.727 Y174.081 E5.39747
G1 X120.974 Y174.312 E5.42367
G1 X118.776 Y174.82 E5.4987
G1 X118.202 Y174.922 E5.51809
G1 X115.304 Y175.28 E5.61521
G1 X114.905 Y175.315 E5.62854
G1 X113.738 Y175.375 E5.6674
G1 X113.095 Y175.371 E5.68879
G1 X109.823 Y175.163 E5.79784
G1 X109.282 Y175.102 E5.81594
G1 X107.776 Y174.858 E5.86669
G1 X107.141 Y174.717 E5.88832
G1 X106.321 Y174.484 E5.91667
G1 X105.69 Y174.263 E5.93891
G1 X105.355 Y174.109 E5.95117
G1 X104.215 Y173.541 E5.99354
G1 X103.635 Y173.208 E6.01578
G1 X103.149 Y172.849 E6.03588
G1 X102.521 Y172.331 E6.06295
G1 X102.031 Y171.875 E6.08522
G1 X101.685 Y171.476 E6.10278
G1 X100.757 Y170.298 E6.15266
G1 X100.279 Y169.585 E6.18121
G1 X98.89 Y167.123 E6.27523
G1 X98.647 Y166.639 E6.29324
G1 X97.537 Y164.133 E6.3844
G1 X97.312 Y163.535 E6.40565
G1 X96.501 Y160.94 E6.49608
G1 X96.421 Y160.66 E6.50577
G1 X92.45 Y145.157 E7.03804
G1 X89.735 Y135.245 E7.37986
G1 X89.662 Y134.947 E7.39007
G1 X89.03 Y132.018 E7.48973
G1 X88.973 Y131.713 E7.50005
G1 X88.094 Y126.163 E7.68694
G1 X88.067 Y125.968 E7.69349
G1 X87.069 Y117.817 E7.96662
G1 X87.043 Y117.554 E7.97541
G1 X86.699 Y112.963 E8.12853
G1 X86.685 Y112.409 E8.14697
G1 X86.758 Y109.402 E8.24701
G1 X86.764 Y109.24 E8.2524
G1 X86.976 Y105.255 E8.38513
G1 X86.986 Y99.875 E8.56407
G1 X86.691 Y93.471 E8.77729
G1 X86.686 Y93.333 E8.78189
G1 X86.601 Y89.372 E8.91366
G1 X86.609 Y88.941 E8.928
G1 X86.727 Y86.822 E8.99858
G1 X86.762 Y86.431 E9.01164
G1 X87.09 Y83.835 E9.09867
G1 X87.148 Y83.471 E9.11093
G1 X87.505 Y81.629 E9.17334
G1 X87.579 Y81.3 E9.18455
G1 X88.146 Y79.095 E9.26028
G1 X88.243 Y78.764 E9.27175
G1 X89.011 Y76.394 E9.35461
G1 X89.142 Y76.032 E9.36741
G1 X89.926 Y74.081 E9.43735
G1 X90.328 Y73.275 E9.4673
G1 X91.272 Y71.711 E9.52806
G1 X91.749 Y71.038 E9.5555
M204 S5000
M205 X30 Y30
G0 F3600 X92.058 Y71.293
M204 S500
M205 X20 Y20
G1 F2400 X92.672 Y70.55 E9.58756
G1 X93.105 Y70.086 E9.60867
G1 X94.379 Y68.88 E9.66702
G1 X94.681 Y68.615 E9.68038
G1 X99.747 Y64.512 E9.89721
G1 X100.048 Y64.286 E9.90973
G1 X101.26 Y63.442 E9.95885
G1 X101.652 Y63.194 E9.97428
G1 X103.463 Y62.159 E10.04365
G1 X104.09 Y61.855 E10.06683
G1 X106.096 Y61.042 E10.13882
G1 X106.89 Y60.792 E10.16651
G1 X109.103 Y60.286 E10.24201
G1 X109.872 Y60.17 E10.26788
G1 X111.708 Y60.032 E10.32911
G1 X112.357 Y60.023 E10.3507
G1 X114.021 Y60.106 E10.40612
G1 X114.611 Y60.17 E10.42586
G1 X116.05 Y60.408 E10.47437
G1 X116.516 Y60.507 E10.49021
G1 X117.48 Y60.759 E10.52335
G1 X117.92 Y60.895 E10.53867
G1 X119.295 Y61.388 E10.58725
G1 X119.786 Y61.593 E10.60495
G1 X121.114 Y62.229 E10.65392
G1 X121.557 Y62.468 E10.67067
G1 X122.833 Y63.239 E10.72025
G1 X123.232 Y63.506 E10.73622
G1 X124.519 Y64.456 E10.78942
G1 X124.931 Y64.794 E10.80715
G1 X126.61 Y66.322 E10.88266
G1 X126.811 Y66.515 E10.89192
G1 X129.275 Y69.011 E11.00858
G1 X129.395 Y69.137 E11.01436
G1 X133.625 Y73.72 E11.2218
G1 X133.809 Y73.931 E11.23111
G1 X137.825 Y78.782 E11.44057
G1 X138.068 Y79.099 E11.45386
G1 X139.903 Y81.698 E11.55967
G1 X140.138 Y82.062 E11.57408
G1 X141.21 Y83.886 E11.64445
G1 X141.407 Y84.255 E11.65837
G1 X142.305 Y86.11 E11.72691
G1 X142.488 Y86.534 E11.74227
G1 X143.686 Y89.697 E11.85477
G1 X143.739 Y89.845 E11.86
G1 X147.195 Y99.876 E12.21287
G1 X147.364 Y100.48 E12.23373
G1 X147.825 Y102.631 E12.3069
G1 X147.933 Y103.459 E12.33467
G1 X148.003 Y104.849 E12.38096
G1 X148.001 Y105.415 E12.39979
G1 X147.949 Y106.302 E12.42934
G1 X147.873 Y106.936 E12.45058
G1 X147.603 Y108.408 E12.50036
G1 X147.378 Y109.24 E12.52902
G1 X146.754 Y110.964 E12.59
G1 X146.474 Y111.6 E12.61312
G1 X146.055 Y112.403 E12.64324
G1 X145.836 Y112.782 E12.6578
G1 X142.669 Y117.776 E12.85448
G1 X140.038 Y122.45 E13.03288
G1 X137.666 Y127.284 E13.21197
G1 X135.565 Y132.259 E13.39159
G1 X134.663 Y134.684 E13.47765
G1 X132.988 Y139.83 E13.65764
G1 X131.609 Y145.05 E13.83722
G1 X131.04 Y147.644 E13.92554
G1 X130.55 Y150.238 E14.01335
G1 X129.774 Y155.553 E14.192
G1 X129.292 Y161.002 E14.37394
G1 X129.107 Y164.007 E14.47408
G1 X129.019 Y164.691 E14.49701
G1 X128.894 Y165.327 E14.51857
G1 X128.704 Y166.029 E14.54276
G1 X128.286 Y167.233 E14.58515
G1 X128.038 Y167.828 E14.60659
G1 X127.818 Y168.229 E14.6218
G1 X127 Y169.575 E14.67419
G1 X126.631 Y170.104 E14.69564
G1 X126.42 Y170.353 E14.7065
G1 X125.977 Y170.845 E14.72852
G1 X125.459 Y171.347 E14.75251
G1 X124.65 Y172.027 E14.78766
G1 X124.132 Y172.41 E14.80909
G1 X123.846 Y172.582 E14.82019
G1 X122.722 Y173.212 E14.86304
G1 X122.05 Y173.528 E14.88774
G1 X121.583 Y173.708 E14.90439
G1 X120.884 Y173.922 E14.9287
G1 X118.686 Y174.43 E15.00373
G1 X118.153 Y174.525 E15.02174
G1 X115.255 Y174.883 E15.11886
G1 X114.884 Y174.915 E15.13125
G1 X113.717 Y174.975 E15.17011
G1 X113.12 Y174.972 E15.18997
G1 X109.848 Y174.764 E15.29902
G1 X109.346 Y174.707 E15.31582
G1 X107.84 Y174.463 E15.36656
G1 X107.251 Y174.332 E15.38663
G1 X106.431 Y174.099 E15.41499
G1 X105.533 Y173.751 E15.44702
G1 X104.393 Y173.183 E15.48938
G1 X103.835 Y172.861 E15.51081
G1 X103.403 Y172.54 E15.52871
G1 X102.775 Y172.022 E15.55578
G1 X102.304 Y171.582 E15.57722
G1 X101.999 Y171.229 E15.59274
G1 X101.071 Y170.051 E15.64262
G1 X100.627 Y169.388 E15.66916
G1 X99.238 Y166.926 E15.76317
G1 X99.013 Y166.477 E15.77988
G1 X97.903 Y163.971 E15.87104
G1 X97.694 Y163.416 E15.89076
G1 X96.883 Y160.821 E15.98119
G1 X96.809 Y160.56 E15.99021
G1 X92.86 Y145.141 E16.5196
G1 X90.121 Y135.14 E16.86449
G1 X90.053 Y134.863 E16.87397
G1 X89.421 Y131.934 E16.97364
G1 X89.368 Y131.65 E16.98324
G1 X88.489 Y126.1 E17.17014
G1 X88.464 Y125.919 E17.17622
G1 X87.466 Y117.768 E17.44934
G1 X87.442 Y117.525 E17.45747
G1 X87.098 Y112.934 E17.61059
G1 X87.085 Y112.419 E17.62773
G1 X87.158 Y109.412 E17.72777
G1 X87.163 Y109.261 E17.73279
G1 X87.376 Y105.258 E17.86612
G1 X87.386 Y99.856 E18.04579
G1 X87.091 Y93.452 E18.25902
G1 X87.086 Y93.325 E18.26324
G1 X87.001 Y89.364 E18.39502
G1 X87.008 Y88.963 E18.40836
G1 X87.126 Y86.844 E18.47894
G1 X87.159 Y86.481 E18.49107
G1 X87.487 Y83.885 E18.5781
G1 X87.541 Y83.548 E18.58945
G1 X87.898 Y81.706 E18.65185
G1 X87.967 Y81.4 E18.66229
G1 X88.534 Y79.195 E18.73801
G1 X88.623 Y78.887 E18.74868
G1 X89.391 Y76.517 E18.83154
G1 X89.513 Y76.181 E18.84343
G1 X90.297 Y74.23 E18.91336
G1 X90.67 Y73.482 E18.94116
G1 X91.614 Y71.918 E19.00192
G1 X92.058 Y71.293 E19.02742
M204 S5000
M205 X30 Y30
G1 F1500 E14.02742
G1 F300 Z0.4
;MESH:b_04.stl
G0 F3600 X116.465 Y82.522 Z0.4
M204 S500
M205 X20 Y20
;TYPE:WALL-INNER
G1 F300 Z0.2
G1 F1500 E19.02742
G1 F2400 X116.219 Y82.674 E19.03704
G1 X116.07 Y82.802 E19.04357
G1 X115.924 Y82.963 E19.0508
G1 X115.782 Y83.161 E19.0589
G1 X115.642 Y83.403 E19.0682
G1 X115.508 Y83.69 E19.07874
G1 X115.382 Y84.032 E19.09086
G1 X115.165 Y84.813 E19.11782
G1 X114.936 Y85.695 E19.14813
G1 X114.849 Y86.159 E19.16383
G1 X114.803 Y86.609 E19.17887
G1 X114.692 Y88.007 E19.22552
G1 X114.64 Y89.381 E19.27125
G1 X114.755 Y90.505 E19.30883
G1 X114.829 Y91.66 E19.34732
G1 X115.095 Y94.312 E19.43597
G1 X115.18 Y95.637 E19.48013
G1 X115.223 Y96.957 E19.52406
G1 X115.227 Y98.117 E19.56264
G1 X115.171 Y99.302 E19.6021
G1 X114.962 Y101.603 E19.67895
G1 X114.848 Y102.698 E19.71556
G1 X114.774 Y103.814 E19.75276
G1 X114.774 Y105.223 E19.79963
G1 X114.854 Y105.829 E19.81996
G1 X115.052 Y106.389 E19.83971
G1 X115.355 Y106.871 E19.85865
G1 X115.77 Y107.272 E19.87784
G1 X116.275 Y107.507 E19.89637
G1 X116.809 Y107.619 E19.91452
G1 X117.378 Y107.62 E19.93344
G1 X117.962 Y107.512 E19.95319
G1 X118.471 Y107.334 E19.97113
G1 X118.941 Y107.127 E19.98821
G1 X119.774 Y106.64 E20.0203
G1 X120.52 Y106.047 E20.052
G1 X121.183 Y105.371 E20.08349
G1 X121.778 Y104.635 E20.11497
G1 X122.325 Y103.85 E20.14679
G1 X123.327 Y102.206 E20.21083
G1 X123.935 Y101.115 E20.25237
G1 X124.435 Y100.048 E20.29156
G1 X124.824 Y99.008 E20.32849
G1 X125.107 Y97.993 E20.36354
G1 X125.288 Y96.999 E20.39714
G1 X125.367 Y96.027 E20.42958
G1 X125.352 Y95.073 E20.46131
G1 X125.244 Y94.137 E20.49265
G1 X125.05 Y93.217 E20.52392
G1 X124.775 Y92.313 E20.55535
G1 X124.426 Y91.422 E20.58718
G1 X124.009 Y90.538 E20.61969
G1 X123.528 Y89.661 E20.65295
G1 X122.989 Y88.784 E20.68719
G1 X122.397 Y87.905 E20.72244
G1 X121.75 Y87.011 E20.75915
G1 X120.932 Y86.007 E20.80222
G1 X120.095 Y85.078 E20.84381
G1 X119.275 Y84.239 E20.88283
G1 X118.505 Y83.497 E20.91839
G1 X118.196 Y83.225 E20.93209
G1 X117.904 Y83.001 E20.94433
G1 X117.636 Y82.829 E20.95492
G1 X117.391 Y82.697 E20.96417
G1 X117.163 Y82.603 E20.97238
G1 X116.951 Y82.542 E20.97971
G1 X116.752 Y82.514 E20.9864
G1 X116.465 Y82.522 E20.99595
M204 S5000
M205 X30 Y30
G0 F3600 X116.437 Y82.427
G0 X115.893 Y82.938
G0 X115.472 Y83.675
G0 X114.897 Y85.687
G0 X114.653 Y88.005
G0 X114.601 Y89.382
G0 X114.735 Y105.225
G0 X117.988 Y125.086
G0 X118.072 Y125.138
M204 S500
M205 X20 Y20
G1 F2400 X117.799 Y125.721 E21.01736
G1 X117.655 Y126.367 E21.03937
G1 X117.624 Y127.067 E21.06268
G1 X117.687 Y127.816 E21.08768
G1 X117.954 Y129.922 E21.15828
G1 X118.56 Y134.269 E21.30426
G1 X119.227 Y138.62 E21.45067
G1 X121.501 Y151.163 E21.87465
G1 X123.275 Y161.004 E22.20724
G1 X123.375 Y161.709 E22.23092
G1 X123.415 Y162.398 E22.25388
G1 X123.395 Y163.057 E22.27581
G1 X123.322 Y163.687 E22.2969
G1 X123.195 Y164.289 E22.31736
G1 X123.015 Y164.868 E22.33753
G1 X122.791 Y165.397 E22.35664
G1 X122.511 Y165.912 E22.37613
G1 X122.185 Y166.39 E22.39538
G1 X121.823 Y166.819 E22.41405
G1 X121.414 Y167.212 E22.43291
G1 X120.958 Y167.568 E22.45215
G1 X120.463 Y167.879 E22.4716
G1 X119.931 Y168.141 E22.49132
G1 X119.355 Y168.357 E22.51178
G1 X118.724 Y168.524 E22.53349
G1 X117.721 Y168.725 E22.56752
G1 X116.709 Y168.883 E22.60158
G1 X115.753 Y169.001 E22.63362
G1 X113.885 Y169.195 E22.69608
G1 X112.774 Y169.162 E22.73305
G1 X111.898 Y169.121 E22.76222
G1 X111.099 Y169.069 E22.78885
G1 X110.397 Y169.008 E22.81229
G1 X109.741 Y168.927 E22.83427
G1 X109.144 Y168.829 E22.85439
G1 X108.64 Y168.717 E22.87157
G1 X108.164 Y168.579 E22.88805
G1 X107.756 Y168.426 E22.90254
G1 X107.382 Y168.245 E22.91636
G1 X107.042 Y168.039 E22.92958
G1 X106.741 Y167.811 E22.94214
G1 X106.438 Y167.532 E22.95584
G1 X106.162 Y167.226 E22.96955
G1 X105.884 Y166.861 E22.98481
G1 X105.614 Y166.456 E23.001
G1 X104.696 Y164.883 E23.06157
G1 X103.882 Y163.261 E23.12194
G1 X103.209 Y161.653 E23.17991
G1 X102.915 Y160.824 E23.20917
G1 X102.665 Y160.013 E23.23739
G1 X101.387 Y155.233 E23.40196
G1 X100.187 Y150.44 E23.5663
G1 X99.492 Y147.57 E23.66451
G1 X98.755 Y144.69 E23.76339
G1 X96.376 Y136.19 E24.05697
G1 X95.864 Y134.24 E24.12402
G1 X95.4 Y132.271 E24.1913
G1 X94.921 Y129.853 E24.27329
G1 X94.521 Y127.392 E24.35622
G1 X94.182 Y124.938 E24.43861
G1 X93.877 Y122.494 E24.52053
G1 X93.718 Y121.144 E24.56574
G1 X93.403 Y118.698 E24.64777
G1 X93.144 Y116.346 E24.72647
G1 X92.955 Y114.065 E24.8026
G1 X92.85 Y111.821 E24.87731
G1 X92.921 Y110.028 E24.937
G1 X93.281 Y106.647 E25.05008
G1 X93.352 Y105.055 E25.10309
G1 X93.16 Y98.754 E25.31276
G1 X93.017 Y95.619 E25.41713
G1 X92.848 Y92.539 E25.51973
G1 X92.78 Y89.973 E25.60511
G1 X92.829 Y88.23 E25.6631
G1 X92.975 Y86.469 E25.72187
G1 X93.212 Y84.732 E25.78018
G1 X93.556 Y82.939 E25.8409
G1 X93.992 Y81.17 E25.9015
G1 X94.542 Y79.341 E25.96503
G1 X95.19 Y77.511 E26.02959
G1 X95.447 Y76.862 E26.05281
G1 X95.742 Y76.24 E26.07571
G1 X96.062 Y75.67 E26.09745
G1 X96.418 Y75.126 E26.11907
G1 X96.827 Y74.591 E26.14147
G1 X97.239 Y74.12 E26.16228
G1 X97.715 Y73.645 E26.18465
G1 X98.212 Y73.211 E26.2066
G1 X99.056 Y72.543 E26.2424
G1 X99.904 Y71.835 E26.27914
G1 X102.912 Y69.381 E26.40826
G1 X103.98 Y68.586 E26.45254
G1 X105.035 Y67.899 E26.49441
G1 X106.08 Y67.316 E26.53421
G1 X107.154 Y66.819 E26.57357
G1 X108.204 Y66.432 E26.61079
G1 X109.287 Y66.133 E26.64816
G1 X110.364 Y65.936 E26.68458
G1 X111.459 Y65.832 E26.72116
G1 X112.23 Y65.805 E26.74682
G1 X112.939 Y65.825 E26.77041
G1 X113.641 Y65.88 E26.79383
G1 X114.32 Y65.972 E26.81662
G1 X115.031 Y66.106 E26.84068
G1 X115.691 Y66.269 E26.8633
G1 X116.369 Y66.476 E26.88687
G1 X117.045 Y66.721 E26.91079
G1 X117.678 Y66.989 E26.93365
G1 X118.356 Y67.318 E26.95872
G1 X118.973 Y67.657 E26.98213
G1 X119.615 Y68.052 E27.0072
G1 X120.236 Y68.476 E27.03221
G1 X120.868 Y68.952 E27.05853
G1 X121.479 Y69.456 E27.08487
G1 X122.087 Y70.003 E27.11207
G1 X122.673 Y70.575 E27.13931
G1 X124.852 Y72.774 E27.24227
G1 X126.961 Y74.992 E27.34407
G1 X128.982 Y77.214 E27.44397
G1 X130.916 Y79.448 E27.54225
G1 X132.899 Y81.877 E27.64654
G1 X133.839 Y83.11 E27.69811
G1 X134.715 Y84.347 E27.74853
G1 X135.526 Y85.606 E27.79834
G1 X136.281 Y86.934 E27.84914
G1 X136.935 Y88.273 E27.89871
G1 X137.511 Y89.7 E27.94989
G1 X138.498 Y92.398 E28.04544
G1 X139.412 Y95.112 E28.14069
