;FLAVOR:Marlin
;TIME:3265
;Filament used: 1.51513m
;Layer height: 0.2
;Generated with Cura_SteamEngine 3.6.0
M140 S50
M105
M190 S50
M104 S210
M105
M109 S210
M82 ;absolute extrusion mode
; Ender 3 Custom Start G-code
G28 ; Home all axes
G92 E0 ; Reset Extruder
G1 Z2.0 F3000 ; Move Z Axis up little to prevent scratching of Heat Bed
G1 X0.1 Y20 Z0.3 F5000.0 ; Move to start position
G1 X0.1 Y200.0 Z0.3 F1500.0 E15 ; Draw the first line
G1 X0.4 Y200.0 Z0.3 F5000.0 ; Move to side a little
G1 X0.4 Y20 Z0.3 F1500.0 E30 ; Draw the second line
G92 E0 ; Reset Extruder
G1 Z2.0 F3000 ; Move Z Axis up little to prevent scratching of Heat Bed
G90 ; absolute xyz﻿
G92 E0
G1 F1500 E-5
;LAYER_COUNT:3
;LAYER:0
M107
M204 S5000
M205 X30 Y30
G0 F3600 X60.538 Y51.123 Z0.2
M204 S500
M205 X20 Y20
;TYPE:SKIRT
G1 F1500 E0
G1 F2400 X60.923 Y50.71 E0.01878
G1 X62.405 Y49.274 E0.08741
G1 X62.862 Y48.877 E0.10755
G1 X64.045 Y47.956 E0.15741
G1 X64.465 Y47.659 E0.17452
G1 X65.725 Y46.852 E0.22429
G1 X66.171 Y46.594 E0.24143
G1 X67.46 Y45.927 E0.2897
G1 X68.044 Y45.666 E0.31097
G1 X69.959 Y44.938 E0.37911
G1 X70.617 Y44.734 E0.40203
G1 X72.054 Y44.382 E0.45124
G1 X72.701 Y44.263 E0.47312
G1 X74.276 Y44.069 E0.5259
G1 X74.926 Y44.027 E0.54756
G1 X76.202 Y44.019 E0.59
G1 X76.767 Y44.044 E0.60881
G1 X79.575 Y44.311 E0.70263
G1 X80.143 Y44.395 E0.72172
G1 X81.879 Y44.742 E0.78061
G1 X82.426 Y44.88 E0.79937
G1 X84.697 Y45.578 E0.87839
G1 X85.321 Y45.811 E0.90054
G1 X87.523 Y46.787 E0.98065
G1 X88.118 Y47.095 E1.00294
G1 X90.254 Y48.366 E1.08561
G1 X90.792 Y48.73 E1.10721
G1 X92.794 Y50.261 E1.19104
G1 X93.199 Y50.603 E1.20867
G1 X94.545 Y51.851 E1.26972
G1 X94.796 Y52.098 E1.28143
G1 X95.73 Y53.08 E1.32651
G1 X95.973 Y53.353 E1.33866
G1 X97.446 Y55.12 E1.41518
G1 X97.657 Y55.389 E1.42655
G1 X99.417 Y57.783 E1.52538
G1 X99.604 Y58.054 E1.53633
G1 X103.43 Y63.958 E1.77032
G1 X106.542 Y68.381 E1.9502
G1 X109.884 Y72.6 E2.12921
G1 X111.56 Y74.544 E2.21458
G1 X115.258 Y78.474 E2.39406
G1 X119.133 Y82.155 E2.57183
G1 X123.198 Y85.598 E2.74901
G1 X127.47 Y88.822 E2.92702
G1 X131.89 Y91.781 E3.10393
G1 X136.506 Y94.504 E3.28218
G1 X141.238 Y96.949 E3.45933
G1 X146.113 Y99.126 E3.63691
G1 X151.117 Y101.031 E3.815
G1 X156.18 Y102.636 E3.99165
G1 X164.465 Y104.705 E4.27567
G1 X165.103 Y104.906 E4.29792
G1 X165.444 Y105.049 E4.31022
G1 X167.078 Y105.799 E4.37002
G1 X167.888 Y106.255 E4.40094
G1 X168.567 Y106.716 E4.42823
G1 X169.147 Y107.168 E4.45269
G1 X170.322 Y108.215 E4.50503
G1 X170.484 Y108.366 E4.5124
G1 X177.198 Y114.844 E4.82271
G1 X177.275 Y114.919 E4.82628
G1 X183.143 Y120.801 E5.10262
G1 X183.426 Y121.107 E5.11649
G1 X184.718 Y122.611 E5.18243
G1 X185.239 Y123.325 E5.21183
G1 X185.922 Y124.435 E5.25518
G1 X186.224 Y124.995 E5.27634
G1 X187.34 Y127.378 E5.36386
G1 X187.631 Y128.139 E5.39096
G1 X187.914 Y129.079 E5.42361
G1 X188.069 Y129.73 E5.44587
G1 X188.14 Y130.325 E5.4658
G1 X188.196 Y131.175 E5.49413
G1 X188.2 Y131.844 E5.51638
G1 X188.133 Y132.458 E5.53692
G1 X187.588 Y135.745 E5.64774
G1 X186.934 Y141.071 E5.82622
G1 X186.585 Y146.397 E6.00374
G1 X186.536 Y151.741 E6.18149
G1 X186.789 Y157.074 E6.35906
G1 X187.348 Y162.416 E6.53771
G1 X188.133 Y167.462 E6.70756
G1 X188.197 Y168.125 E6.72971
G1 X188.229 Y169.031 E6.75987
G1 X188.222 Y169.558 E6.7774
G1 X188.134 Y171.053 E6.82721
G1 X188.019 Y171.899 E6.8556
G1 X187.693 Y173.418 E6.90728
G1 X187.443 Y174.256 E6.93636
G1 X186.897 Y175.673 E6.98687
G1 X186.498 Y176.501 E7.01744
G1 X185.5 Y178.196 E7.08286
G1 X185.038 Y178.865 E7.1099
G1 X183.426 Y180.869 E7.19544
G1 X183.109 Y181.23 E7.21142
G1 X181.437 Y182.978 E7.29188
G1 X181.091 Y183.31 E7.30782
G1 X178.656 Y185.454 E7.41573
G1 X178.296 Y185.745 E7.43113
G1 X176.943 Y186.751 E7.48721
G1 X176.488 Y187.056 E7.50542
G1 X174.235 Y188.411 E7.59287
G1 X173.668 Y188.709 E7.61417
G1 X172.239 Y189.359 E7.66639
G1 X171.566 Y189.615 E7.69034
G1 X169.446 Y190.267 E7.76411
G1 X168.71 Y190.44 E7.78925
G1 X166.347 Y190.829 E7.86891
G1 X165.77 Y190.893 E7.88821
G1 X164.176 Y190.988 E7.94132
G1 X163.719 Y190.997 E7.95653
G1 X162.181 Y190.963 E8.00769
G1 X161.746 Y190.936 E8.02219
G1 X160.2 Y190.781 E8.07387
G1 X159.639 Y190.696 E8.09274
G1 X156.954 Y190.148 E8.18388
G1 X156.371 Y189.996 E8.20392
G1 X148.735 Y187.558 E8.47053
G1 X143.531 Y186.235 E8.64912
G1 X141.002 Y185.707 E8.73505
G1 X135.702 Y184.831 E8.91372
G1 X130.388 Y184.257 E9.09149
G1 X125.056 Y183.986 E9.26906
G1 X119.715 Y184.016 E9.44671
G1 X114.398 Y184.348 E9.6239
G1 X109.078 Y184.982 E9.80209
G1 X103.806 Y185.917 E9.98018
G1 X101.219 Y186.489 E10.0683
G1 X98.685 Y187.126 E10.1552
G1 X92.835 Y188.869 E10.35823
G1 X92.541 Y188.948 E10.36835
G1 X90.951 Y189.329 E10.42273
G1 X90.535 Y189.412 E10.43684
G1 X89.198 Y189.627 E10.48188
G1 X88.726 Y189.682 E10.49769
G1 X85.659 Y189.911 E10.59998
G1 X85.074 Y189.924 E10.61944
G1 X83.745 Y189.884 E10.66366
G1 X83.311 Y189.855 E10.67813
G1 X81.85 Y189.697 E10.72701
G1 X81.402 Y189.63 E10.74207
G1 X79.92 Y189.347 E10.79226
G1 X79.351 Y189.207 E10.81175
G1 X76.907 Y188.469 E10.89666
G1 X76.242 Y188.221 E10.92026
G1 X73.883 Y187.167 E11.0062
G1 X73.326 Y186.88 E11.02704
G1 X70.81 Y185.399 E11.12414
G1 X70.488 Y185.194 E11.13684
G1 X68.619 Y183.915 E11.21217
G1 X68.422 Y183.774 E11.22022
G1 X64.448 Y180.794 E11.38543
G1 X64.23 Y180.622 E11.39467
G1 X61.603 Y178.44 E11.50825
G1 X61.249 Y178.12 E11.52412
G1 X59.476 Y176.372 E11.60694
G1 X59.173 Y176.048 E11.62169
G1 X57.507 Y174.122 E11.70639
G1 X57.202 Y173.737 E11.72273
G1 X55.454 Y171.317 E11.82202
G1 X55.2 Y170.932 E11.83736
G1 X53.875 Y168.737 E11.92263
G1 X53.662 Y168.352 E11.93727
G1 X52.332 Y165.698 E12.036
G1 X52.167 Y165.336 E12.04924
G1 X50.836 Y162.13 E12.16469
G1 X50.707 Y161.788 E12.17685
G1 X49.325 Y157.73 E12.31943
G1 X49.2 Y157.309 E12.33404
G1 X48.091 Y152.962 E12.48325
G1 X47.993 Y152.5 E12.49896
G1 X47.258 Y148.098 E12.6474
G1 X47.206 Y147.69 E12.66108
G1 X46.888 Y144.238 E12.77638
G1 X46.867 Y143.901 E12.78761
G1 X46.763 Y140.615 E12.89695
G1 X46.764 Y140.219 E12.91013
G1 X46.857 Y137.847 E12.98908
G1 X46.889 Y137.431 E13.00296
G1 X47.175 Y134.924 E13.08688
G1 X47.257 Y134.416 E13.10399
G1 X47.823 Y131.701 E13.19624
G1 X47.961 Y131.172 E13.21442
G1 X48.58 Y129.194 E13.28336
G1 X48.731 Y128.77 E13.29833
G1 X50.66 Y123.989 E13.4698
G1 X52.44 Y118.907 E13.64889
G1 X53.921 Y113.759 E13.82706
G1 X55.115 Y108.515 E14.00594
G1 X55.581 Y105.966 E14.09213
G1 X56.323 Y100.652 E14.27059
G1 X56.762 Y95.326 E14.44833
G1 X56.9 Y89.975 E14.62636
G1 X56.735 Y84.656 E14.80336
G1 X55.254 Y67.871 E15.3638
G1 X55.233 Y67.273 E15.3837
G1 X55.298 Y63.84 E15.4979
G1 X55.332 Y63.321 E15.5152
G1 X55.587 Y61.052 E15.59115
G1 X55.742 Y60.229 E15.619
G1 X56.125 Y58.798 E15.66827
G1 X56.316 Y58.215 E15.68868
G1 X56.873 Y56.784 E15.73975
G1 X57.163 Y56.157 E15.76273
G1 X58.108 Y54.405 E15.82893
G1 X58.434 Y53.874 E15.84966
G1 X59.273 Y52.663 E15.89866
G1 X59.594 Y52.243 E15.91624
G1 X60.538 Y51.123 E15.96496
M204 S5000
M205 X30 Y30
G0 F3600 X60.844 Y51.381
M204 S500
M205 X20 Y20
G1 F2400 X61.201 Y50.998 E15.98237
G1 X62.683 Y49.562 E16.05101
G1 X63.108 Y49.193 E16.06973
G1 X64.291 Y48.272 E16.11959
G1 X64.68 Y47.996 E16.13546
G1 X65.94 Y47.189 E16.18522
G1 X66.355 Y46.95 E16.20115
G1 X67.644 Y46.283 E16.24942
G1 X68.186 Y46.04 E16.26918
G1 X70.101 Y45.312 E16.33732
G1 X70.712 Y45.122 E16.3586
G1 X72.149 Y44.77 E16.40781
G1 X72.75 Y44.66 E16.42813
G1 X74.325 Y44.466 E16.48091
G1 X74.928 Y44.427 E16.50101
G1 X76.204 Y44.419 E16.54345
G1 X76.729 Y44.442 E16.56093
G1 X79.537 Y44.709 E16.65474
G1 X80.064 Y44.787 E16.67246
G1 X81.8 Y45.134 E16.73135
G1 X82.309 Y45.262 E16.7488
G1 X84.58 Y45.96 E16.82782
G1 X85.159 Y46.177 E16.84839
G1 X87.361 Y47.153 E16.9285
G1 X87.913 Y47.438 E16.94916
G1 X90.049 Y48.709 E17.03183
G1 X90.549 Y49.047 E17.0519
G1 X92.551 Y50.578 E17.13573
G1 X92.928 Y50.896 E17.15213
G1 X94.274 Y52.144 E17.21318
G1 X94.506 Y52.373 E17.22403
G1 X95.44 Y53.355 E17.2691
G1 X95.666 Y53.609 E17.28041
G1 X97.139 Y55.376 E17.35692
G1 X97.335 Y55.626 E17.36749
G1 X99.095 Y58.02 E17.46632
G1 X99.269 Y58.272 E17.4765
G1 X103.109 Y64.197 E17.71134
G1 X106.219 Y68.617 E17.89109
G1 X109.571 Y72.849 E18.07065
G1 X111.262 Y74.809 E18.15675
G1 X114.982 Y78.764 E18.33734
G1 X118.855 Y82.442 E18.51499
G1 X122.953 Y85.914 E18.69363
G1 X127.233 Y89.143 E18.87195
G1 X131.685 Y92.125 E19.05017
G1 X136.304 Y94.85 E19.22854
G1 X141.071 Y97.312 E19.40699
G1 X145.971 Y99.501 E19.58549
G1 X150.974 Y101.405 E19.76353
G1 X156.074 Y103.021 E19.94147
G1 X164.368 Y105.093 E20.22581
G1 X165.277 Y105.412 E20.25785
G1 X166.911 Y106.162 E20.31765
G1 X167.663 Y106.586 E20.34636
G1 X168.342 Y107.047 E20.37366
G1 X168.88 Y107.467 E20.39636
G1 X170.055 Y108.514 E20.4487
G1 X170.207 Y108.654 E20.45558
G1 X176.921 Y115.132 E20.76588
G1 X176.991 Y115.201 E20.76915
G1 X182.859 Y121.083 E21.04549
G1 X183.122 Y121.368 E21.05839
G1 X184.414 Y122.872 E21.12434
G1 X184.899 Y123.535 E21.15166
G1 X185.582 Y124.645 E21.19501
G1 X185.862 Y125.165 E21.21465
G1 X186.978 Y127.548 E21.30217
G1 X187.248 Y128.254 E21.32731
G1 X187.531 Y129.194 E21.35996
G1 X187.678 Y129.822 E21.38141
G1 X187.741 Y130.351 E21.39913
G1 X187.797 Y131.201 E21.42747
G1 X187.799 Y131.846 E21.44892
G1 X187.738 Y132.393 E21.46722
G1 X187.193 Y135.681 E21.57808
G1 X186.536 Y141.031 E21.75735
G1 X186.185 Y146.385 E21.93581
G1 X186.136 Y151.756 E22.11446
G1 X186.39 Y157.098 E22.29234
G1 X186.95 Y162.46 E22.47165
G1 X187.738 Y167.523 E22.64207
G1 X187.797 Y168.139 E22.66265
G1 X187.829 Y169.045 E22.6928
G1 X187.823 Y169.535 E22.7091
G1 X187.735 Y171.03 E22.75891
G1 X187.628 Y171.815 E22.78526
G1 X187.302 Y173.334 E22.83694
G1 X187.07 Y174.113 E22.86397
G1 X186.524 Y175.53 E22.91448
G1 X186.153 Y176.298 E22.94285
G1 X185.155 Y177.993 E23.00827
G1 X184.726 Y178.614 E23.03337
G1 X183.114 Y180.618 E23.11891
G1 X182.82 Y180.953 E23.13374
G1 X181.148 Y182.701 E23.21419
G1 X180.826 Y183.01 E23.22903
G1 X178.391 Y185.154 E23.33694
G1 X178.058 Y185.424 E23.3512
G1 X176.705 Y186.43 E23.40728
G1 X176.282 Y186.713 E23.4242
G1 X174.029 Y188.068 E23.51165
G1 X173.502 Y188.345 E23.53145
G1 X172.073 Y188.995 E23.58366
G1 X171.449 Y189.232 E23.60587
G1 X169.329 Y189.884 E23.67964
G1 X168.645 Y190.045 E23.70301
G1 X166.282 Y190.434 E23.78266
G1 X165.746 Y190.494 E23.8006
G1 X164.152 Y190.589 E23.85371
G1 X163.728 Y190.597 E23.86781
G1 X162.19 Y190.563 E23.91898
G1 X161.786 Y190.538 E23.93244
G1 X160.24 Y190.383 E23.98412
G1 X159.719 Y190.304 E24.00165
G1 X157.034 Y189.756 E24.09279
G1 X156.493 Y189.615 E24.11139
G1 X148.858 Y187.178 E24.37795
G1 X143.593 Y185.839 E24.55864
G1 X141.076 Y185.313 E24.64416
G1 X135.759 Y184.434 E24.82341
G1 X130.416 Y183.857 E25.00215
G1 X125.073 Y183.586 E25.18009
G1 X119.705 Y183.616 E25.35863
G1 X114.345 Y183.95 E25.53725
G1 X109.03 Y184.584 E25.71528
G1 X103.718 Y185.526 E25.89472
G1 X101.14 Y186.097 E25.98254
G1 X98.57 Y186.742 E26.07067
G1 X92.721 Y188.485 E26.27366
G1 X92.448 Y188.559 E26.28307
G1 X90.858 Y188.94 E26.33745
G1 X90.472 Y189.017 E26.35054
G1 X89.135 Y189.232 E26.39558
G1 X88.696 Y189.284 E26.41028
G1 X85.629 Y189.513 E26.51258
G1 X85.086 Y189.525 E26.53064
G1 X83.757 Y189.485 E26.57486
G1 X83.354 Y189.457 E26.5883
G1 X81.893 Y189.299 E26.63718
G1 X81.477 Y189.237 E26.65117
G1 X79.995 Y188.954 E26.70135
G1 X79.467 Y188.824 E26.71943
G1 X77.023 Y188.086 E26.80435
G1 X76.405 Y187.856 E26.82628
G1 X74.046 Y186.802 E26.91222
G1 X73.529 Y186.535 E26.93157
G1 X71.013 Y185.054 E27.02867
G1 X70.714 Y184.864 E27.04045
G1 X68.845 Y183.585 E27.11578
G1 X68.662 Y183.454 E27.12327
G1 X64.688 Y180.474 E27.28848
G1 X64.485 Y180.314 E27.29707
G1 X61.858 Y178.132 E27.41066
G1 X61.53 Y177.835 E27.42537
G1 X59.757 Y176.087 E27.50818
G1 X59.475 Y175.786 E27.5219
G1 X57.809 Y173.86 E27.6066
G1 X57.527 Y173.503 E27.62173
G1 X55.779 Y171.083 E27.72102
G1 X55.542 Y170.725 E27.7353
G1 X54.217 Y168.53 E27.82058
G1 X54.02 Y168.173 E27.83414
G1 X52.69 Y165.519 E27.93288
G1 X52.536 Y165.183 E27.94517
G1 X51.205 Y161.977 E28.06063
G1 X51.086 Y161.659 E28.07192
G1 X49.704 Y157.601 E28.2145
G1 X49.587 Y157.21 E28.22808
G1 X48.478 Y152.863 E28.37729
G1 X48.388 Y152.434 E28.39187
G1 X47.653 Y148.032 E28.54031
G1 X47.604 Y147.653 E28.55302
G1 X47.286 Y144.201 E28.66832
G1 X47.267 Y143.888 E28.67875
G1 X47.163 Y140.602 E28.78809
G1 X47.164 Y140.234 E28.80033
G1 X47.257 Y137.862 E28.87929
G1 X47.287 Y137.477 E28.89213
G1 X47.573 Y134.97 E28.97606
G1 X47.648 Y134.498 E28.99195
G1 X48.214 Y131.783 E29.08419
G1 X48.342 Y131.291 E29.1011
G1 X48.961 Y129.313 E29.17004
G1 X49.102 Y128.92 E29.18392
G1 X51.032 Y124.139 E29.35541
G1 X52.825 Y119.018 E29.53587
G1 X54.307 Y113.866 E29.71418
G1 X55.51 Y108.584 E29.89436
G1 X55.973 Y106.046 E29.98016
G1 X56.722 Y100.687 E30.16014
G1 X57.162 Y95.352 E30.33818
G1 X57.3 Y90.003 E30.51615
G1 X57.133 Y84.626 E30.69508
G1 X55.652 Y67.836 E31.25568
G1 X55.633 Y67.281 E31.27415
G1 X55.698 Y63.848 E31.38835
G1 X55.73 Y63.365 E31.40445
G1 X55.985 Y61.096 E31.4804
G1 X56.129 Y60.333 E31.50622
G1 X56.512 Y58.902 E31.55549
G1 X56.689 Y58.36 E31.57446
G1 X57.246 Y56.929 E31.62553
G1 X57.515 Y56.346 E31.64689
G1 X58.46 Y54.594 E31.71309
G1 X58.763 Y54.102 E31.73231
G1 X59.602 Y52.891 E31.78131
G1 X59.9 Y52.501 E31.79764
G1 X60.844 Y51.381 E31.84635
M204 S5000
M205 X30 Y30
G1 F1500 E26.84635
G1 F300 Z0.4
;MESH:de_04.stl
G0 F3600 X96.293 Y109.463 Z0.4
M204 S500
M205 X20 Y20
;TYPE:WALL-INNER
G1 F300 Z0.2
G1 F1500 E31.84635
G1 F2400 X96.293 Y108.25 E31.8867
G1 X96.175 Y106.477 E31.9458
G1 X95.964 Y104.678 E32.00605
G1 X95.66 Y102.842 E32.06794
G1 X95.263 Y100.961 E32.13188
G1 X94.771 Y99.026 E32.19829
G1 X94.186 Y97.031 E32.26744
G1 X93.508 Y94.965 E32.33976
G1 X92.738 Y92.826 E32.41537
G1 X92.002 Y90.749 E32.48866
G1 X91.335 Y88.674 E32.56115
G1 X90.103 Y84.525 E32.70511
G1 X88.646 Y79.676 E32.87351
G1 X88.139 Y78.117 E32.92803
G1 X87.574 Y76.512 E32.98463
G1 X86.936 Y74.876 E33.04303
G1 X86.212 Y73.227 E33.10293
G1 X85.394 Y71.58 E33.16409
G1 X84.466 Y69.952 E33.22642
G1 X83.418 Y68.361 E33.28979
G1 X82.245 Y66.833 E33.35386
G1 X81.663 Y66.131 E33.38419
G1 X80.986 Y65.406 E33.41718
G1 X80.225 Y64.718 E33.4513
G1 X79.399 Y64.134 E33.48494
G1 X78.628 Y63.697 E33.51442
G1 X77.768 Y63.353 E33.54523
G1 X77.285 Y63.238 E33.56174
G1 X76.797 Y63.19 E33.57805
G1 X76.297 Y63.226 E33.59472
G1 X75.802 Y63.368 E33.61185
G1 X75.34 Y63.626 E33.62945
G1 X74.948 Y63.971 E33.64682
G1 X74.622 Y64.373 E33.66403
G1 X74.346 Y64.823 E33.68159
G1 X73.947 Y65.743 E33.71495
G1 X73.677 Y66.672 E33.74712
G1 X73.438 Y67.966 E33.79089
G1 X73.263 Y70.277 E33.86797
G1 X73.466 Y72.825 E33.95299
G1 X73.808 Y75.295 E34.03593
G1 X74.291 Y77.72 E34.11817
G1 X74.913 Y80.105 E34.20014
G1 X75.674 Y82.456 E34.28233
G1 X76.575 Y84.777 E34.36514
G1 X77.613 Y87.073 E34.44895
G1 X78.79 Y89.353 E34.53429
G1 X80.101 Y91.549 E34.61936
G1 X81.483 Y93.651 E34.70303
G1 X82.913 Y95.657 E34.78496
G1 X84.371 Y97.562 E34.86475
G1 X85.829 Y99.363 E34.94182
G1 X87.267 Y101.056 E35.0157
G1 X88.66 Y102.635 E35.08573
G1 X89.987 Y104.099 E35.15145
G1 X92.535 Y106.827 E35.27561
G1 X94.775 Y109.101 E35.38177
G1 X95.109 Y109.402 E35.39673
G1 X95.629 Y109.793 E35.41837
G1 X96.293 Y109.463 E35.44303
M204 S5000
M205 X30 Y30
G0 F3600 X96.377 Y109.515
G0 X100.009 Y149.662
G0 X100.07 Y151.025
G0 X99.959 Y154.027
G0 X99.773 Y155.869
G0 X99.486 Y156.254
G0 X98.972 Y156.33
G0 X98.626 Y156.133
G0 X86.544 Y139.805
G0 X67.308 Y136.693
G0 X67.344 Y136.786
M204 S500
M205 X20 Y20
G1 F2400 X67.054 Y137.141 E35.45828
G1 X66.918 Y137.362 E35.46691
G1 X66.776 Y137.693 E35.47889
G1 X66.666 Y138.109 E35.4932
G1 X66.375 Y139.483 E35.53991
G1 X66.172 Y140.812 E35.58463
G1 X66.055 Y142.094 E35.62744
G1 X66.025 Y143.334 E35.6687
G1 X66.081 Y144.532 E35.70859
G1 X66.222 Y145.688 E35.74732
G1 X66.449 Y146.805 E35.78523
G1 X66.76 Y147.885 E35.82261
G1 X67.562 Y149.963 E35.8967
G1 X68.477 Y152.011 E35.9713
G1 X70.469 Y156.004 E36.11972
G1 X70.975 Y157.041 E36.1581
G1 X72.173 Y159.3 E36.24314
G1 X73.382 Y161.444 E36.32501
