;FLAVOR:Marlin
;TIME:1694
;Filament used: 0.789477m
;Layer height: 0.2
;Generated with Cura_SteamEngine 3.6.0
M140 S50
M105
M190 S50
M104 S210
M105
M109 S210
M82 ;absolute extrusion mode
; Ender 3 Custom Start G-code
G28 ; Home all axes
G92 E0 ; Reset Extruder
G1 Z2.0 F3000 ; Move Z Axis up little to prevent scratching of Heat Bed
G1 X0.1 Y20 Z0.3 F5000.0 ; Move to start position
G1 X0.1 Y200.0 Z0.3 F1500.0 E15 ; Draw the first line
G1 X0.4 Y200.0 Z0.3 F5000.0 ; Move to side a little
G1 X0.4 Y20 Z0.3 F1500.0 E30 ; Draw the second line
G92 E0 ; Reset Extruder
G1 Z2.0 F3000 ; Move Z Axis up little to prevent scratching of Heat Bed
G90 ; absolute xyz﻿
G92 E0
G1 F1500 E-5
;LAYER_COUNT:3
;LAYER:0
M107
M204 S5000
M205 X30 Y30
G0 F3600 X84.111 Y59.491 Z0.2
M204 S500
M205 X20 Y20
;TYPE:SKIRT
G1 F1500 E0
G1 F2400 X84.668 Y58.801 E0.02949
G1 X85.997 Y57.4 E0.09372
G1 X86.642 Y56.818 E0.12262
G1 X87.287 Y56.321 E0.1497
G1 X87.861 Y55.933 E0.17274
G1 X88.955 Y55.288 E0.21498
G1 X89.699 Y54.921 E0.24258
G1 X91.202 Y54.313 E0.2965
G1 X91.945 Y54.071 E0.32249
G1 X93.082 Y53.787 E0.36147
G1 X93.762 Y53.661 E0.38447
G1 X95.076 Y53.501 E0.4285
G1 X95.716 Y53.46 E0.44983
G1 X96.913 Y53.452 E0.48964
G1 X97.515 Y53.481 E0.50969
G1 X99.072 Y53.639 E0.56174
G1 X99.617 Y53.721 E0.58007
G1 X101.491 Y54.1 E0.64366
G1 X102.138 Y54.272 E0.66593
G1 X102.505 Y54.407 E0.67893
G1 X103.259 Y54.716 E0.70604
G1 X104.022 Y55.1 E0.73445
G1 X104.843 Y55.594 E0.76632
G1 X105.395 Y55.972 E0.78857
G1 X105.87 Y56.387 E0.80955
G1 X106.962 Y57.454 E0.86033
G1 X107.411 Y57.949 E0.88255
G1 X107.8 Y58.496 E0.90488
G1 X108.332 Y59.349 E0.93831
G1 X108.651 Y59.936 E0.96054
G1 X108.79 Y60.258 E0.9722
G1 X109.172 Y61.227 E1.00684
G1 X109.346 Y61.742 E1.02492
G1 X109.871 Y63.579 E1.08847
G1 X111.548 Y68.738 E1.2689
G1 X113.475 Y73.695 E1.44579
G1 X115.695 Y78.567 E1.62386
G1 X118.173 Y83.283 E1.80105
G1 X120.924 Y87.864 E1.97878
G1 X123.928 Y92.282 E2.15647
G1 X127.177 Y96.523 E2.33416
G1 X130.654 Y100.565 E2.51149
G1 X134.397 Y104.449 E2.6909
G1 X137.889 Y107.812 E2.85215
G1 X138.531 Y108.548 E2.88463
G1 X139.624 Y110.048 E2.94636
G1 X139.765 Y110.252 E2.95461
G1 X144.091 Y116.777 E3.215
G1 X144.183 Y116.919 E3.22062
G1 X146.311 Y120.35 E3.35491
G1 X146.472 Y120.628 E3.36559
G1 X148.363 Y124.107 E3.49729
G1 X148.481 Y124.335 E3.50583
G1 X150.051 Y127.57 E3.62543
G1 X153.526 Y134.024 E3.86923
G1 X153.683 Y134.339 E3.88093
G1 X154.488 Y136.089 E3.945
G1 X154.611 Y136.379 E3.95548
G1 X155.423 Y138.443 E4.02925
G1 X155.557 Y138.822 E4.04262
G1 X156.51 Y141.87 E4.14884
G1 X156.625 Y142.295 E4.16348
G1 X157.41 Y145.735 E4.28084
G1 X157.485 Y146.131 E4.29424
G1 X157.946 Y149.134 E4.39529
G1 X157.991 Y149.507 E4.40779
G1 X158.153 Y151.403 E4.47108
G1 X158.173 Y151.916 E4.48815
G1 X158.159 Y154.117 E4.56136
G1 X158.121 Y154.733 E4.58189
G1 X157.926 Y156.397 E4.63761
G1 X157.832 Y156.953 E4.65637
G1 X157.491 Y158.496 E4.70893
G1 X157.301 Y159.159 E4.73187
G1 X156.716 Y160.809 E4.79009
G1 X156.481 Y161.373 E4.81041
G1 X155.999 Y162.371 E4.84728
G1 X155.646 Y162.996 E4.87115
G1 X154.445 Y164.837 E4.94426
G1 X154.011 Y165.416 E4.96833
G1 X153.227 Y166.333 E5.00845
G1 X152.891 Y166.694 E5.02486
G1 X151.941 Y167.625 E5.0691
G1 X151.413 Y168.081 E5.0923
G1 X149.251 Y169.727 E5.18268
G1 X148.74 Y170.073 E5.2032
G1 X146.998 Y171.118 E5.27077
G1 X146.492 Y171.387 E5.28983
G1 X144.679 Y172.236 E5.35641
G1 X144.119 Y172.463 E5.37651
G1 X142.47 Y173.028 E5.43449
G1 X142 Y173.166 E5.45078
G1 X140.953 Y173.425 E5.48665
G1 X140.397 Y173.533 E5.50549
G1 X138.522 Y173.8 E5.56848
G1 X138.05 Y173.847 E5.58426
G1 X135.581 Y173.987 E5.66651
G1 X130.204 Y174.511 E5.8462
G1 X124.925 Y175.33 E6.02388
G1 X119.699 Y176.447 E6.20162
G1 X117.176 Y177.096 E6.28827
G1 X111.977 Y178.678 E6.46902
G1 X106.847 Y180.505 E6.65014
G1 X106.025 Y180.729 E6.67847
G1 X104.453 Y181.031 E6.73172
G1 X104.121 Y181.085 E6.7429
G1 X102.284 Y181.325 E6.80452
G1 X101.952 Y181.358 E6.81562
G1 X99.409 Y181.537 E6.90041
G1 X99.043 Y181.551 E6.91259
G1 X97.387 Y181.559 E6.96767
G1 X96.717 Y181.522 E6.98999
G1 X95.039 Y181.328 E7.04617
G1 X94.16 Y181.154 E7.07597
G1 X92.97 Y180.818 E7.1171
G1 X92.176 Y180.528 E7.14521
G1 X91.084 Y180.032 E7.18511
G1 X90.333 Y179.618 E7.21363
G1 X89.357 Y178.979 E7.25243
G1 X88.689 Y178.466 E7.28044
G1 X87.801 Y177.671 E7.32008
G1 X87.284 Y177.143 E7.34466
G1 X86.642 Y176.394 E7.37747
G1 X86.134 Y175.701 E7.40605
G1 X85.126 Y174.075 E7.46968
G1 X84.765 Y173.39 E7.49544
G1 X83.932 Y171.507 E7.56392
G1 X83.755 Y171.054 E7.58009
G1 X82.817 Y168.313 E7.67645
G1 X82.666 Y167.793 E7.69446
G1 X82.205 Y165.85 E7.76088
G1 X82.105 Y165.314 E7.77901
G1 X81.791 Y163.012 E7.85629
G1 X81.75 Y162.59 E7.87039
G1 X81.378 Y156.384 E8.07717
G1 X80.364 Y145.354 E8.44558
G1 X79.638 Y139.216 E8.65115
G1 X78.679 Y132.784 E8.86745
G1 X78.649 Y132.542 E8.87556
G1 X78.237 Y128.615 E9.00689
G1 X78.208 Y128.164 E9.02192
G1 X77.892 Y114.849 E9.4649
G1 X77.582 Y110.177 E9.62063
G1 X76.903 Y103.434 E9.84604
G1 X76.882 Y103.16 E9.85518
G1 X76.821 Y101.97 E9.89481
G1 X76.816 Y101.534 E9.90932
G1 X76.886 Y98.896 E9.99709
G1 X76.897 Y98.664 E10.00481
G1 X78.387 Y76.789 E10.73406
G1 X78.435 Y76.343 E10.74898
G1 X79.122 Y71.743 E10.90368
G1 X79.251 Y71.125 E10.92467
G1 X80.135 Y67.815 E11.03862
G1 X80.25 Y67.437 E11.05177
G1 X80.639 Y66.307 E11.09151
G1 X80.769 Y65.965 E11.10368
G1 X81.889 Y63.293 E11.20005
G1 X82.101 Y62.845 E11.21653
G1 X82.915 Y61.302 E11.27455
G1 X83.248 Y60.751 E11.29597
G1 X84.111 Y59.491 E11.34676
M204 S5000
M205 X30 Y30
G0 F3600 X84.441 Y59.717
M204 S500
M205 X20 Y20
G1 F2400 X84.958 Y59.076 E11.37415
G1 X86.287 Y57.675 E11.43838
G1 X86.886 Y57.135 E11.4652
G1 X87.531 Y56.638 E11.49229
G1 X88.064 Y56.278 E11.51368
G1 X89.158 Y55.633 E11.55592
G1 X89.849 Y55.291 E11.58156
G1 X91.352 Y54.683 E11.63549
G1 X92.042 Y54.459 E11.65962
G1 X93.179 Y54.175 E11.69859
G1 X93.81 Y54.058 E11.71994
G1 X95.124 Y53.898 E11.76397
G1 X95.718 Y53.86 E11.78376
G1 X96.915 Y53.852 E11.82358
G1 X97.475 Y53.879 E11.84222
G1 X99.032 Y54.037 E11.89428
G1 X99.538 Y54.113 E11.91129
G1 X101.412 Y54.492 E11.97489
G1 X102.035 Y54.659 E11.99634
G1 X102.353 Y54.777 E12.00762
G1 X103.107 Y55.086 E12.03472
G1 X103.816 Y55.442 E12.06111
G1 X104.637 Y55.936 E12.09298
G1 X105.168 Y56.302 E12.11443
G1 X105.59 Y56.673 E12.13312
G1 X106.682 Y57.74 E12.1839
G1 X107.114 Y58.218 E12.20533
G1 X107.46 Y58.707 E12.22525
G1 X107.992 Y59.56 E12.25869
G1 X108.418 Y60.405 E12.29016
G1 X108.8 Y61.374 E12.3248
G1 X108.962 Y61.852 E12.34159
G1 X109.498 Y63.728 E12.40648
G1 X111.163 Y68.849 E12.58558
G1 X113.112 Y73.863 E12.76451
G1 X115.334 Y78.74 E12.94276
G1 X117.826 Y83.483 E13.12096
G1 X120.588 Y88.082 E13.29939
G1 X123.603 Y92.516 E13.47773
G1 X126.863 Y96.771 E13.65601
G1 X130.362 Y100.839 E13.83448
G1 X134.101 Y104.719 E14.0137
G1 X137.612 Y108.1 E14.17581
G1 X138.208 Y108.784 E14.20599
G1 X139.301 Y110.284 E14.26772
G1 X139.432 Y110.473 E14.27537
G1 X143.758 Y116.998 E14.53575
G1 X143.843 Y117.13 E14.54098
G1 X145.971 Y120.561 E14.67526
G1 X146.121 Y120.819 E14.68518
G1 X148.012 Y124.298 E14.81688
G1 X148.121 Y124.51 E14.82481
G1 X149.692 Y127.746 E14.94446
G1 X153.174 Y134.214 E15.18878
G1 X153.319 Y134.506 E15.19962
G1 X154.124 Y136.256 E15.26369
G1 X154.239 Y136.525 E15.27342
G1 X155.051 Y138.589 E15.34719
G1 X155.175 Y138.941 E15.3596
G1 X156.128 Y141.989 E15.46582
G1 X156.235 Y142.384 E15.47943
G1 X157.02 Y145.824 E15.59678
G1 X157.09 Y146.192 E15.60924
G1 X157.551 Y149.195 E15.71029
G1 X157.592 Y149.541 E15.72188
G1 X157.754 Y151.437 E15.78517
G1 X157.773 Y151.913 E15.80102
G1 X157.759 Y154.114 E15.87422
G1 X157.724 Y154.686 E15.89329
G1 X157.529 Y156.35 E15.94901
G1 X157.441 Y156.867 E15.96645
G1 X157.1 Y158.41 E16.01901
G1 X156.924 Y159.026 E16.04032
G1 X156.339 Y160.676 E16.09854
G1 X156.12 Y161.199 E16.1174
G1 X155.638 Y162.197 E16.15427
G1 X155.311 Y162.777 E16.17641
G1 X154.11 Y164.618 E16.24952
G1 X153.707 Y165.156 E16.27188
G1 X152.923 Y166.073 E16.312
G1 X152.611 Y166.408 E16.32723
G1 X151.661 Y167.339 E16.37147
G1 X151.171 Y167.762 E16.393
G1 X149.009 Y169.408 E16.48338
G1 X148.534 Y169.73 E16.50246
G1 X146.792 Y170.775 E16.57003
G1 X146.322 Y171.025 E16.58774
G1 X144.509 Y171.874 E16.65432
G1 X143.989 Y172.084 E16.67297
G1 X142.34 Y172.649 E16.73095
G1 X141.904 Y172.778 E16.74607
G1 X140.857 Y173.037 E16.78194
G1 X140.341 Y173.137 E16.79943
G1 X138.466 Y173.404 E16.86242
G1 X138.027 Y173.448 E16.87709
G1 X135.52 Y173.59 E16.96061
G1 X130.175 Y174.111 E17.13923
G1 X124.852 Y174.937 E17.31839
G1 X119.608 Y176.058 E17.49675
G1 X117.051 Y176.715 E17.58456
G1 X111.859 Y178.295 E17.76506
G1 X106.713 Y180.128 E17.94675
G1 X105.949 Y180.337 E17.9731
G1 X104.377 Y180.639 E18.02634
G1 X104.07 Y180.688 E18.03668
G1 X102.233 Y180.928 E18.09829
G1 X101.924 Y180.959 E18.10862
G1 X99.381 Y181.138 E18.19341
G1 X99.041 Y181.151 E18.20473
G1 X97.385 Y181.159 E18.25981
G1 X96.763 Y181.125 E18.28053
G1 X95.085 Y180.931 E18.33671
G1 X94.269 Y180.769 E18.36438
G1 X93.079 Y180.433 E18.40551
G1 X92.342 Y180.163 E18.43161
G1 X91.25 Y179.667 E18.4715
G1 X90.552 Y179.284 E18.49799
G1 X89.576 Y178.645 E18.53679
G1 X88.956 Y178.168 E18.5628
G1 X88.068 Y177.373 E18.60245
G1 X87.588 Y176.883 E18.62526
G1 X86.946 Y176.134 E18.65807
G1 X86.474 Y175.49 E18.68463
G1 X85.466 Y173.864 E18.74826
G1 X85.131 Y173.228 E18.77217
G1 X84.298 Y171.345 E18.84065
G1 X84.133 Y170.925 E18.85566
G1 X83.195 Y168.184 E18.95201
G1 X83.055 Y167.7 E18.96877
G1 X82.594 Y165.757 E19.03519
G1 X82.502 Y165.26 E19.052
G1 X82.188 Y162.958 E19.12928
G1 X82.149 Y162.566 E19.14238
G1 X81.775 Y156.326 E19.35029
G1 X80.766 Y145.344 E19.71709
G1 X80.032 Y139.143 E19.92478
G1 X79.075 Y132.725 E20.1406
G1 X79.046 Y132.501 E20.14812
G1 X78.634 Y128.574 E20.27945
G1 X78.607 Y128.154 E20.29344
G1 X78.291 Y114.812 E20.73733
G1 X77.98 Y110.141 E20.89303
G1 X77.301 Y103.394 E21.11857
G1 X77.282 Y103.139 E21.12707
G1 X77.221 Y101.949 E21.1667
G1 X77.216 Y101.545 E21.18014
G1 X77.286 Y98.907 E21.26791
G1 X77.296 Y98.692 E21.27507
G1 X78.786 Y76.817 E22.00432
G1 X78.831 Y76.402 E22.01821
G1 X79.518 Y71.802 E22.1729
G1 X79.637 Y71.228 E22.1924
G1 X80.521 Y67.918 E22.30635
G1 X80.628 Y67.567 E22.31855
G1 X81.017 Y66.437 E22.3583
G1 X81.138 Y66.12 E22.36959
G1 X82.258 Y63.448 E22.46595
G1 X82.455 Y63.032 E22.48126
G1 X83.269 Y61.489 E22.53928
G1 X83.578 Y60.977 E22.55917
G1 X84.441 Y59.717 E22.60997
M204 S5000
M205 X30 Y30
G1 F1500 E17.60997
G1 F300 Z0.4
;MESH:r_04.stl
G0 F3600 X102.564 Y141.807 Z0.4
M204 S500
M205 X20 Y20
;TYPE:WALL-INNER
G1 F300 Z0.2
G1 F1500 E22.60997
G1 F2400 X102.698 Y144.005 E22.68321
G1 X102.978 Y146.934 E22.78107
G1 X103.243 Y148.97 E22.84936
G1 X103.57 Y150.986 E22.91729
G1 X103.959 Y152.982 E22.98493
G1 X104.412 Y154.959 E23.05238
G1 X104.926 Y156.911 E23.11952
G1 X105.503 Y158.841 E23.18652
G1 X106.137 Y160.73 E23.25279
G1 X106.324 Y161.319 E23.27335
G1 X107.05 Y163.416 E23.34716
G1 X107.38 Y164.472 E23.38395
G1 X107.673 Y165.547 E23.42101
G1 X107.906 Y166.617 E23.45743
G1 X108.077 Y167.751 E23.49558
G1 X108.16 Y168.855 E23.5324
G1 X108.146 Y170.018 E23.57108
G1 X108.075 Y170.77 E23.59621
G1 X107.929 Y171.551 E23.62263
G1 X107.698 Y172.27 E23.64775
G1 X107.341 Y172.958 E23.67353
G1 X107.126 Y173.256 E23.68575
G1 X106.86 Y173.552 E23.69899
G1 X106.565 Y173.817 E23.71218
G1 X106.204 Y174.072 E23.72688
G1 X105.802 Y174.296 E23.74219
G1 X105.334 Y174.496 E23.75911
G1 X104.806 Y174.664 E23.77754
G1 X104.182 Y174.802 E23.7988
G1 X102.47 Y175.068 E23.85642
G1 X100.787 Y175.253 E23.91274
G1 X99.178 Y175.353 E23.96636
G1 X97.623 Y175.373 E24.01808
G1 X96.977 Y175.347 E24.03958
G1 X96.364 Y175.284 E24.06008
G1 X95.787 Y175.185 E24.07955
G1 X95.242 Y175.051 E24.09822
G1 X94.686 Y174.872 E24.11764
G1 X94.182 Y174.666 E24.13575
G1 X93.693 Y174.42 E24.15396
G1 X93.227 Y174.14 E24.17204
G1 X92.784 Y173.825 E24.19012
G1 X92.352 Y173.467 E24.20878
G1 X91.956 Y173.084 E24.22711
G1 X91.569 Y172.652 E24.2464
G1 X91.221 Y172.204 E24.26526
G1 X90.89 Y171.711 E24.28501
G1 X90.57 Y171.162 E24.30615
G1 X90.29 Y170.606 E24.32685
G1 X89.738 Y169.348 E24.37255
G1 X89.253 Y168.1 E24.41708
G1 X88.847 Y166.888 E24.45959
G1 X88.508 Y165.681 E24.50129
G1 X88.249 Y164.519 E24.54089
G1 X88.052 Y163.342 E24.58058
G1 X87.923 Y162.148 E24.62052
G1 X87.717 Y158.041 E24.75729
G1 X87.503 Y155.112 E24.85497
G1 X86.986 Y149.327 E25.04815
G1 X86.722 Y146.545 E25.14109
G1 X86.47 Y144.073 E25.22374
G1 X86.195 Y141.643 E25.30508
G1 X85.905 Y139.278 E25.38433
G1 X85.607 Y136.994 E25.46094
G1 X84.705 Y131.184 E25.65649
G1 X84.535 Y129.83 E25.70188
G1 X84.422 Y128.467 E25.74737
G1 X84.254 Y123.838 E25.90143
G1 X84.185 Y119.264 E26.05358
G1 X84.151 Y116.292 E26.15244
G1 X84.079 Y113.266 E26.25311
G1 X83.958 Y111.422 E26.31457
G1 X83.645 Y108.567 E26.4101
G1 X83.573 Y107.577 E26.44312
G1 X83.335 Y105.395 E26.51612
G1 X83.059 Y102.771 E26.60388
G1 X82.996 Y101.448 E26.64793
G1 X83.02 Y100.136 E26.69157
G1 X83.506 Y92.006 E26.96246
G1 X83.708 Y89.289 E27.05308
G1 X83.971 Y86.565 E27.1441
G1 X84.131 Y84.018 E27.22898
G1 X84.273 Y81.917 E27.29902
G1 X84.495 Y78.011 E27.42914
G1 X84.652 Y76.329 E27.48533
G1 X84.872 Y74.702 E27.53994
G1 X85.152 Y73.121 E27.59334
G1 X85.485 Y71.632 E27.64409
G1 X85.881 Y70.174 E27.69434
G1 X86.334 Y68.769 E27.74344
G1 X86.835 Y67.437 E27.79077
G1 X87.293 Y66.353 E27.82991
G1 X87.775 Y65.32 E27.86782
G1 X88.32 Y64.309 E27.90602
G1 X88.946 Y63.344 E27.94428
G1 X89.644 Y62.478 E27.98128
G1 X90.462 Y61.688 E28.0191
G1 X90.906 Y61.34 E28.03786
G1 X91.384 Y61.018 E28.05703
G1 X91.914 Y60.717 E28.0773
G1 X92.477 Y60.45 E28.09803
G1 X93.436 Y60.081 E28.1322
G1 X94.422 Y59.824 E28.1661
G1 X95.418 Y59.677 E28.19958
G1 X96.446 Y59.628 E28.23381
G1 X97.303 Y59.664 E28.26234
G1 X98.21 Y59.765 E28.29269
G1 X99.133 Y59.918 E28.32381
G1 X100.064 Y60.109 E28.35542
G1 X100.52 Y60.269 E28.3715
G1 X100.938 Y60.458 E28.38675
G1 X101.323 Y60.675 E28.40145
G1 X101.704 Y60.937 E28.41683
G1 X102.021 Y61.202 E28.43057
G1 X102.334 Y61.518 E28.44537
G1 X102.607 Y61.852 E28.45971
G1 X102.862 Y62.23 E28.47488
G1 X103.062 Y62.592 E28.48864
G1 X103.25 Y63.019 E28.50415
G1 X103.393 Y63.441 E28.51897
G1 X103.516 Y63.928 E28.53568
G1 X103.595 Y64.399 E28.55156
G1 X103.64 Y64.894 E28.5681
G1 X103.651 Y65.425 E28.58576
G1 X103.622 Y65.999 E28.60488
G1 X103.473 Y67.192 E28.64486
G1 X103.265 Y68.393 E28.6854
G1 X102.763 Y70.779 E28.7665
G1 X102.529 Y71.829 E28.80228
G1 X102.339 Y72.845 E28.83666
G1 X101.598 Y76.285 E28.9537
G1 X100.801 Y80.099 E29.08329
G1 X100.475 Y82.035 E29.14859
G1 X100.238 Y83.973 E29.21353
G1 X100.109 Y85.795 E29.27428
G1 X100.066 Y87.629 E29.3353
G1 X100.106 Y89.474 E29.39667
G1 X100.231 Y91.327 E29.45845
G1 X100.438 Y93.186 E29.52066
G1 X100.728 Y95.052 E29.58347
G1 X101.099 Y96.919 E29.64678
G1 X101.55 Y98.781 E29.7105
G1 X102.187 Y101.249 E29.79527
G1 X103.427 Y105.89 E29.95505
G1 X104.765 Y110.557 E30.11653
G1 X105.488 Y112.888 E30.1977
G1 X106.255 Y115.203 E30.27881
G1 X107.075 Y117.497 E30.35984
G1 X108.691 Y121.661 E30.5084
G1 X109.667 Y124.133 E30.5968
G1 X110.199 Y125.361 E30.64131
G1 X110.782 Y126.565 E30.6858
G1 X111.666 Y128.101 E30.74474
G1 X113.319 Y130.6 E30.8444
G1 X113.972 Y131.644 E30.88536
G1 X114.912 Y133.269 E30.94779
G1 X117.463 Y137.823 E31.12141
G1 X118.351 Y139.268 E31.17782
G1 X119.291 Y140.655 E31.23355
G1 X121.256 Y143.29 E31.34287
G1 X123.304 Y145.885 E31.45282
G1 X125.424 Y148.464 E31.56386
G1 X127.608 Y151.046 E31.67634
G1 X128.773 Y152.343 E31.73433
G1 X130.082 Y153.627 E31.79531
G1 X130.815 Y154.24 E31.8271
G1 X131.597 Y154.803 E31.85914
G1 X132.436 Y155.307 E31.8917
G1 X133.329 Y155.729 E31.92455
G1 X133.947 Y155.964 E31.94654
G1 X134.556 Y156.132 E31.96755
G1 X135.154 Y156.232 E31.98772
G1 X135.734 Y156.264 E32.00704
G1 X136.296 Y156.226 E32.02577
G1 X136.833 Y156.117 E32.044
G1 X137.34 Y155.935 E32.06191
G1 X137.806 Y155.683 E32.07953
G1 X138.236 Y155.358 E32.09746
G1 X138.608 Y154.964 E32.11548
G1 X138.917 Y154.516 E32.13358
G1 X139.165 Y154.018 E32.15209
