;FLAVOR:Marlin
;TIME:1362
;Filament used: 0.632943m
;Layer height: 0.2
;Generated with Cura_SteamEngine 3.6.0
M140 S50
M105
M190 S50
M104 S210
M105
M109 S210
M82 ;absolute extrusion mode
; Ender 3 Custom Start G-code
G28 ; Home all axes
G92 E0 ; Reset Extruder
G1 Z2.0 F3000 ; Move Z Axis up little to prevent scratching of Heat Bed
G1 X0.1 Y20 Z0.3 F5000.0 ; Move to start position
G1 X0.1 Y200.0 Z0.3 F1500.0 E15 ; Draw the first line
G1 X0.4 Y200.0 Z0.3 F5000.0 ; Move to side a little
G1 X0.4 Y20 Z0.3 F1500.0 E30 ; Draw the second line
G92 E0 ; Reset Extruder
G1 Z2.0 F3000 ; Move Z Axis up little to prevent scratching of Heat Bed
G90 ; absolute xyz﻿
G92 E0
G1 F1500 E-5
;LAYER_COUNT:3
;LAYER:0
M107
M204 S5000
M205 X30 Y30
G0 F3600 X89.301 Y86.467 Z0.2
M204 S500
M205 X20 Y20
;TYPE:SKIRT
G1 F1500 E0
G1 F2400 X89.609 Y86.204 E0.01347
G1 X90.435 Y85.548 E0.04855
G1 X91.172 Y85.052 E0.0781
G1 X97.679 Y81.392 E0.32641
G1 X102.151 Y78.522 E0.50315
G1 X106.48 Y75.383 E0.681
G1 X110.614 Y72.013 E0.85839
G1 X114.566 Y68.404 E1.0364
G1 X118.312 Y64.569 E1.2147
G1 X120.527 Y62.096 E1.32513
G1 X120.906 Y61.712 E1.34307
G1 X121.889 Y60.807 E1.38751
G1 X122.375 Y60.408 E1.40843
G1 X123.206 Y59.8 E1.44267
G1 X123.745 Y59.451 E1.46403
G1 X124.946 Y58.768 E1.50998
G1 X125.481 Y58.501 E1.52987
G1 X126.187 Y58.194 E1.55548
G1 X126.629 Y58.023 E1.57124
G1 X127.328 Y57.787 E1.59578
G1 X127.965 Y57.613 E1.61774
G1 X129.261 Y57.34 E1.66179
G1 X130.188 Y57.225 E1.69286
G1 X131.419 Y57.175 E1.73384
G1 X132.088 Y57.187 E1.75609
G1 X132.74 Y57.278 E1.77799
G1 X134.226 Y57.574 E1.82838
G1 X134.873 Y57.744 E1.85063
G1 X135.304 Y57.904 E1.86592
G1 X136.043 Y58.215 E1.89259
G1 X136.778 Y58.591 E1.92005
G1 X137.509 Y59.035 E1.9485
G1 X138.059 Y59.416 E1.97075
G1 X138.383 Y59.69 E1.98486
G1 X139.268 Y60.5 E2.02477
G1 X139.734 Y60.98 E2.04702
G1 X139.951 Y61.25 E2.05854
G1 X140.709 Y62.251 E2.1003
G1 X141.211 Y63.044 E2.13152
G1 X142.474 Y65.467 E2.2224
G1 X142.664 Y65.869 E2.23718
G1 X144.196 Y69.482 E2.36771
G1 X144.341 Y69.863 E2.38127
G1 X145.168 Y72.292 E2.46661
G1 X145.28 Y72.662 E2.47947
G1 X146.234 Y76.26 E2.60327
G1 X146.32 Y76.638 E2.61617
G1 X146.804 Y79.157 E2.70148
G1 X146.859 Y79.501 E2.71307
G1 X147.295 Y82.896 E2.82692
G1 X147.335 Y83.349 E2.84204
G1 X147.716 Y91.535 E3.1146
G1 X147.718 Y91.596 E3.11663
G1 X148.322 Y108.545 E3.68072
G1 X148.325 Y108.656 E3.68441
G1 X148.398 Y113.296 E3.83876
G1 X148.397 Y113.545 E3.84704
G1 X148.26 Y118.315 E4.00575
G1 X148.254 Y118.448 E4.01018
G1 X147.92 Y124.791 E4.22144
G1 X147.883 Y130.18 E4.40069
G1 X148.229 Y137.613 E4.64818
G1 X149.225 Y151.273 E5.10372
G1 X149.229 Y151.337 E5.10585
G1 X149.629 Y157.848 E5.32281
G1 X149.635 Y157.96 E5.32654
G1 X149.687 Y159.218 E5.36842
G1 X149.689 Y159.637 E5.38236
G1 X149.613 Y161.895 E5.4575
G1 X149.531 Y162.681 E5.48379
G1 X149.199 Y164.561 E5.54728
G1 X149.003 Y165.338 E5.57394
G1 X148.502 Y166.86 E5.62723
G1 X148.204 Y167.588 E5.65339
G1 X147.616 Y168.779 E5.69757
G1 X147.234 Y169.437 E5.72288
G1 X146.398 Y170.673 E5.77251
G1 X145.883 Y171.324 E5.80011
G1 X144.619 Y172.7 E5.86226
G1 X144.141 Y173.162 E5.88437
G1 X143.557 Y173.663 E5.90996
G1 X143.105 Y174.013 E5.92898
G1 X141.986 Y174.79 E5.97429
G1 X141.231 Y175.231 E6.00337
G1 X139.247 Y176.191 E6.07667
G1 X138.432 Y176.509 E6.10577
G1 X136.505 Y177.093 E6.17274
G1 X135.84 Y177.251 E6.19548
G1 X134.062 Y177.56 E6.2555
G1 X133.53 Y177.627 E6.27333
G1 X130.93 Y177.826 E6.36006
G1 X130.272 Y177.837 E6.38195
G1 X128.018 Y177.744 E6.45698
G1 X127.353 Y177.677 E6.47921
G1 X125.255 Y177.337 E6.5499
G1 X124.528 Y177.169 E6.57472
G1 X122.302 Y176.495 E6.65208
G1 X121.517 Y176.191 E6.68008
G1 X119.199 Y175.087 E6.76547
G1 X118.644 Y174.783 E6.78652
G1 X117.943 Y174.346 E6.81399
G1 X117.546 Y174.074 E6.83
G1 X115.809 Y172.771 E6.90222
G1 X115.361 Y172.397 E6.92163
G1 X114.328 Y171.439 E6.96849
G1 X113.964 Y171.068 E6.98578
G1 X112.622 Y169.569 E7.05269
G1 X112.188 Y169.02 E7.07597
G1 X109.485 Y165.112 E7.23401
G1 X109.35 Y164.906 E7.2422
G1 X107.395 Y161.796 E7.36438
G1 X107.313 Y161.662 E7.36961
G1 X105.454 Y158.511 E7.49129
G1 X105.374 Y158.37 E7.49668
G1 X103.639 Y155.225 E7.61615
G1 X103.561 Y155.078 E7.62168
G1 X102.086 Y152.206 E7.72907
G1 X102.003 Y152.038 E7.7353
G1 X100.491 Y148.834 E7.85313
G1 X100.389 Y148.605 E7.86147
G1 X97.387 Y141.428 E8.12022
G1 X97.259 Y141.093 E8.13215
G1 X95.542 Y136.116 E8.30726
G1 X91.573 Y125.422 E8.68665
G1 X91.492 Y125.188 E8.69489
G1 X90.451 Y121.95 E8.80801
G1 X90.329 Y121.511 E8.82317
G1 X89.498 Y117.958 E8.94453
G1 X89.407 Y117.473 E8.96094
G1 X88.263 Y109.445 E9.23065
G1 X87.783 Y106.891 E9.31708
G1 X85.514 Y97.074 E9.65221
G1 X85.402 Y96.415 E9.67444
G1 X85.376 Y96.08 E9.68561
G1 X85.324 Y94.989 E9.72194
G1 X85.332 Y94.32 E9.7442
G1 X85.423 Y93.643 E9.76691
G1 X85.652 Y92.477 E9.80644
G1 X85.82 Y91.829 E9.8287
G1 X86.044 Y91.25 E9.84935
G1 X86.508 Y90.223 E9.88683
G1 X86.806 Y89.653 E9.90823
G1 X87.222 Y88.958 E9.93517
G1 X87.772 Y88.194 E9.96648
G1 X88.837 Y86.949 E10.02097
G1 X89.301 Y86.467 E10.04322
M204 S5000
M205 X30 Y30
G0 F3600 X89.589 Y86.746
M204 S500
M205 X20 Y20
G1 F2400 X89.858 Y86.517 E10.05497
G1 X90.684 Y85.861 E10.09005
G1 X91.369 Y85.401 E10.1175
G1 X97.878 Y81.739 E10.3659
G1 X102.376 Y78.853 E10.54365
G1 X106.723 Y75.702 E10.72222
G1 X110.872 Y72.318 E10.9003
G1 X114.848 Y68.687 E11.07938
G1 X118.602 Y64.845 E11.25804
G1 X120.825 Y62.363 E11.36887
G1 X121.177 Y62.006 E11.38554
G1 X122.16 Y61.101 E11.42998
G1 X122.612 Y60.73 E11.44943
G1 X123.443 Y60.122 E11.48368
G1 X123.942 Y59.799 E11.50345
G1 X125.143 Y59.116 E11.5494
G1 X125.64 Y58.867 E11.56789
G1 X126.346 Y58.56 E11.5935
G1 X126.757 Y58.402 E11.60814
G1 X127.456 Y58.166 E11.63268
G1 X128.047 Y58.005 E11.65305
G1 X129.343 Y57.732 E11.6971
G1 X130.204 Y57.624 E11.72596
G1 X131.435 Y57.574 E11.76694
G1 X132.079 Y57.588 E11.78837
G1 X132.662 Y57.67 E11.80795
G1 X134.148 Y57.966 E11.85834
G1 X134.771 Y58.131 E11.87978
G1 X135.149 Y58.273 E11.89321
G1 X135.888 Y58.584 E11.91988
G1 X136.57 Y58.933 E11.94536
G1 X137.301 Y59.377 E11.9738
G1 X137.831 Y59.745 E11.99526
G1 X138.113 Y59.985 E12.00758
G1 X138.998 Y60.795 E12.04748
G1 X139.633 Y61.492 E12.07884
G1 X140.391 Y62.493 E12.1206
G1 X140.856 Y63.228 E12.14953
G1 X142.119 Y65.651 E12.24041
G1 X142.295 Y66.025 E12.25416
G1 X143.827 Y69.638 E12.38469
G1 X143.963 Y69.992 E12.3973
G1 X144.79 Y72.421 E12.48264
G1 X144.893 Y72.764 E12.49455
G1 X145.847 Y76.362 E12.61836
G1 X145.928 Y76.714 E12.63037
G1 X146.412 Y79.233 E12.71569
G1 X146.463 Y79.552 E12.72643
G1 X146.899 Y82.947 E12.84028
G1 X146.935 Y83.367 E12.8543
G1 X147.316 Y91.553 E13.12686
G1 X147.319 Y91.61 E13.12876
G1 X147.923 Y108.559 E13.69284
G1 X147.925 Y108.662 E13.69627
G1 X147.998 Y113.302 E13.85062
G1 X147.997 Y113.533 E13.8583
G1 X147.86 Y118.303 E14.01701
G1 X147.855 Y118.427 E14.02114
G1 X147.52 Y124.789 E14.23304
G1 X147.483 Y130.195 E14.41285
G1 X147.829 Y137.623 E14.66017
G1 X148.826 Y151.302 E15.11634
G1 X148.83 Y151.361 E15.11831
G1 X149.23 Y157.872 E15.33527
G1 X149.236 Y157.976 E15.33874
G1 X149.288 Y159.234 E15.38062
G1 X149.289 Y159.624 E15.39359
G1 X149.213 Y161.882 E15.46873
G1 X149.137 Y162.611 E15.49311
G1 X148.805 Y164.491 E15.55661
G1 X148.623 Y165.213 E15.58137
G1 X148.122 Y166.735 E15.63466
G1 X147.846 Y167.411 E15.65895
G1 X147.258 Y168.602 E15.70313
G1 X146.902 Y169.213 E15.72665
G1 X146.066 Y170.449 E15.77628
G1 X145.589 Y171.054 E15.8019
G1 X144.325 Y172.43 E15.86405
G1 X143.881 Y172.859 E15.88458
G1 X143.297 Y173.36 E15.91017
G1 X142.877 Y173.684 E15.92782
G1 X141.758 Y174.461 E15.97313
G1 X141.057 Y174.871 E16.00014
G1 X139.073 Y175.831 E16.07344
G1 X138.316 Y176.126 E16.10047
G1 X136.389 Y176.71 E16.16744
G1 X135.771 Y176.857 E16.18857
G1 X133.993 Y177.166 E16.24859
G1 X133.5 Y177.228 E16.26511
G1 X130.9 Y177.427 E16.35184
G1 X130.289 Y177.438 E16.37217
G1 X128.035 Y177.345 E16.4472
G1 X127.417 Y177.282 E16.46786
G1 X125.319 Y176.942 E16.53855
G1 X124.644 Y176.786 E16.56159
G1 X122.418 Y176.112 E16.63895
G1 X121.689 Y175.83 E16.66495
G1 X119.371 Y174.726 E16.75034
G1 X118.856 Y174.444 E16.76987
G1 X118.155 Y174.007 E16.79735
G1 X117.786 Y173.754 E16.81223
G1 X116.049 Y172.451 E16.88445
G1 X115.633 Y172.104 E16.90247
G1 X114.6 Y171.146 E16.94933
G1 X114.262 Y170.801 E16.96539
G1 X112.92 Y169.302 E17.03231
G1 X112.517 Y168.792 E17.05393
G1 X109.814 Y164.884 E17.21197
G1 X109.689 Y164.693 E17.21956
G1 X107.734 Y161.583 E17.34174
G1 X107.657 Y161.458 E17.34662
G1 X105.798 Y158.307 E17.46831
G1 X105.724 Y158.177 E17.47328
G1 X103.989 Y155.032 E17.59275
G1 X103.916 Y154.896 E17.59788
G1 X102.441 Y152.024 E17.70526
G1 X102.364 Y151.867 E17.71108
G1 X100.852 Y148.663 E17.82892
G1 X100.758 Y148.451 E17.83663
G1 X97.756 Y141.274 E18.09538
G1 X97.637 Y140.963 E18.10645
G1 X95.915 Y135.973 E18.28202
G1 X91.948 Y125.283 E18.66127
G1 X91.873 Y125.066 E18.6689
G1 X90.832 Y121.828 E18.78203
G1 X90.719 Y121.42 E18.79611
G1 X89.888 Y117.867 E18.91747
G1 X89.803 Y117.417 E18.9327
G1 X88.658 Y109.381 E19.20268
G1 X88.173 Y106.801 E19.29
G1 X85.904 Y96.984 E19.62512
G1 X85.776 Y96.061 E19.65611
G1 X85.724 Y94.97 E19.69244
G1 X85.733 Y94.325 E19.7139
G1 X85.815 Y93.72 E19.7342
G1 X86.044 Y92.554 E19.77372
G1 X86.208 Y91.93 E19.79518
G1 X86.408 Y91.415 E19.81356
G1 X86.872 Y90.388 E19.85104
G1 X87.149 Y89.858 E19.87093
G1 X87.565 Y89.163 E19.89787
G1 X88.076 Y88.454 E19.92694
G1 X89.141 Y87.209 E19.98143
G1 X89.589 Y86.746 E20.00286
M204 S5000
M205 X30 Y30
G1 F1500 E15.00286
G1 F300 Z0.4
;MESH:l_04.stl
G0 F3600 X119.538 Y149.328 Z0.4
M204 S500
M205 X20 Y20
;TYPE:WALL-INNER
G1 F300 Z0.2
G1 F1500 E20.00286
G1 F2400 X119.888 Y148.958 E20.0198
G1 X120.044 Y148.748 E20.0285
G1 X120.219 Y148.418 E20.04092
G1 X120.371 Y147.982 E20.05628
G1 X120.703 Y146.703 E20.10023
G1 X120.953 Y145.512 E20.14071
G1 X121.119 Y144.381 E20.17873
G1 X121.19 Y143.313 E20.21433
G1 X121.289 Y139.985 E20.32507
G1 X121.428 Y132.651 E20.56904
G1 X121.586 Y128.561 E20.70518
G1 X121.707 Y127.087 E20.75437
G1 X121.902 Y125.586 E20.80471
G1 X122.397 Y122.649 E20.90377
G1 X122.715 Y120.906 E20.9627
G1 X123.294 Y118.035 E21.06011
G1 X123.579 Y116.719 E21.1049
G1 X123.828 Y115.418 E21.14896
G1 X124.018 Y114.125 E21.19242
G1 X124.127 Y112.836 E21.23545
G1 X124.174 Y110.552 E21.31143
G1 X124.167 Y108.261 E21.38763
G1 X123.942 Y99.478 E21.67985
G1 X123.968 Y97.635 E21.74115
G1 X123.992 Y96.812 E21.76854
G1 X123.995 Y92.748 E21.90371
G1 X123.975 Y88.58 E22.04234
G1 X123.928 Y86.463 E22.11277
G1 X123.835 Y84.352 E22.18305
G1 X123.624 Y81.543 E22.27674
G1 X123.364 Y78.787 E22.36881
G1 X123.073 Y76.137 E22.45748
G1 X122.778 Y73.686 E22.53959
G1 X122.778 Y71.347 E22.61738
G1 X122.857 Y70.552 E22.64396
G1 X123.03 Y69.776 E22.6704
G1 X123.309 Y68.977 E22.69855
G1 X123.673 Y68.209 E22.72681
G1 X124.125 Y67.464 E22.7558
G1 X124.678 Y66.73 E22.78636
G1 X125.296 Y66.058 E22.81673
G1 X125.993 Y65.436 E22.8478
G1 X126.63 Y64.954 E22.87437
G1 X127.284 Y64.534 E22.90022
G1 X127.956 Y64.175 E22.92556
G1 X128.633 Y63.881 E22.95011
G1 X129.32 Y63.648 E22.97424
G1 X130.004 Y63.481 E22.99765
G1 X130.694 Y63.38 E23.02085
G1 X131.351 Y63.346 E23.04273
G1 X131.816 Y63.376 E23.05823
G1 X132.19 Y63.439 E23.07084
G1 X132.612 Y63.528 E23.08519
G1 X132.974 Y63.635 E23.09774
G1 X133.656 Y63.929 E23.12244
G1 X134.251 Y64.298 E23.14573
G1 X134.758 Y64.721 E23.16769
G1 X135.195 Y65.186 E23.18892
G1 X135.565 Y65.67 E23.20918
G1 X135.893 Y66.186 E23.22951
G1 X136.139 Y66.635 E23.24654
G1 X137.26 Y68.908 E23.33084
G1 X138.242 Y71.22 E23.41438
G1 X139.084 Y73.568 E23.49735
G1 X139.809 Y76.015 E23.58223
G1 X140.39 Y78.483 E23.66656
G1 X140.839 Y81.026 E23.75245
G1 X141.147 Y83.598 E23.83861
G1 X141.316 Y86.235 E23.92649
G1 X141.534 Y92.148 E24.12329
G1 X141.713 Y98.006 E24.31822
G1 X141.951 Y104.994 E24.55078
G1 X142.057 Y107.462 E24.63294
G1 X142.166 Y109.501 E24.70086
G1 X142.215 Y111.554 E24.76916
G1 X142.196 Y113.715 E24.84104
G1 X142.143 Y115.934 E24.91486
G1 X142.059 Y118.22 E24.99095
G1 X141.952 Y120.568 E25.06912
G1 X141.851 Y121.825 E25.11106
G1 X141.691 Y123.019 E25.15113
G1 X141.496 Y124.572 E25.20319
G1 X141.422 Y126.109 E25.25437
G1 X141.544 Y129.539 E25.36853
G1 X141.767 Y132.921 E25.48126
G1 X141.951 Y136.088 E25.58677
G1 X142.058 Y138.393 E25.66351
G1 X142.243 Y141.737 E25.77491
G1 X142.667 Y147.222 E25.95788
G1 X142.875 Y149.592 E26.03701
G1 X143.063 Y151.998 E26.11728
G1 X143.379 Y156.828 E26.27827
G1 X143.379 Y157.084 E26.28678
G1 X143.499 Y159.381 E26.36329
G1 X143.498 Y160.511 E26.40087
G1 X143.428 Y161.639 E26.43846
G1 X143.274 Y162.736 E26.47531
G1 X143.007 Y163.848 E26.51334
G1 X142.615 Y164.943 E26.55202
G1 X142.38 Y165.451 E26.57064
G1 X142.079 Y166.013 E26.59185
G1 X141.577 Y166.793 E26.6227
G1 X141.006 Y167.536 E26.65386
G1 X140.423 Y168.171 E26.68254
G1 X139.804 Y168.738 E26.71046
G1 X139.154 Y169.246 E26.73789
G1 X138.488 Y169.684 E26.76441
G1 X137.79 Y170.071 E26.79095
G1 X137.093 Y170.399 E26.81657
G1 X136.381 Y170.68 E26.84203
G1 X135.676 Y170.91 E26.8667
G1 X134.958 Y171.105 E26.89144
G1 X134.255 Y171.26 E26.91538
G1 X132.861 Y171.481 E26.96233
G1 X131.597 Y171.603 E27.00456
G1 X130.382 Y171.655 E27.04501
G1 X129.222 Y171.633 E27.0836
G1 X128.096 Y171.542 E27.12117
G1 X126.973 Y171.376 E27.15893
G1 X125.908 Y171.146 E27.19517
G1 X124.876 Y170.849 E27.23089
G1 X123.851 Y170.474 E27.26719
G1 X122.856 Y170.028 E27.30346
G1 X121.919 Y169.529 E27.33876
G1 X120.999 Y168.95 E27.37492
G1 X120.111 Y168.304 E27.41144
G1 X119.261 Y167.592 E27.44832
G1 X118.439 Y166.805 E27.48617
G1 X117.674 Y165.972 E27.52379
G1 X116.92 Y165.042 E27.56361
G1 X116.21 Y164.049 E27.60421
G1 X114.203 Y161.007 E27.72542
G1 X112.273 Y157.899 E27.84711
G1 X110.44 Y154.753 E27.96821
G1 X108.708 Y151.57 E28.08873
G1 X107.216 Y148.611 E28.19895
G1 X105.846 Y145.641 E28.30774
G1 X104.579 Y142.7 E28.41425
G1 X103.392 Y139.802 E28.51841
G1 X102.444 Y137.248 E28.60902
G1 X101.581 Y134.655 E28.69991
G1 X100.784 Y132.227 E28.78491
G1 X99.903 Y129.784 E28.87128
G1 X99.422 Y128.633 E28.91277
G1 X98.202 Y125.527 E29.02376
G1 X97.069 Y122.386 E29.13482
G1 X96.554 Y120.773 E29.19114
G1 X96.101 Y119.159 E29.2469
G1 X95.716 Y117.524 E29.30276
G1 X95.413 Y115.887 E29.35813
G1 X95.198 Y114.153 E29.41625
G1 X95.02 Y112.423 E29.47409
G1 X94.78 Y110.262 E29.54641
G1 X94.457 Y108.143 E29.6177
G1 X93.635 Y104.434 E29.74406
G1 X92.756 Y100.78 E29.86906
G1 X92.167 Y98.464 E29.94854
G1 X91.621 Y96.106 E30.02904
G1 X91.514 Y95.472 E30.05043
G1 X91.502 Y94.841 E30.07142
G1 X91.572 Y94.254 E30.09108
G1 X91.71 Y93.74 E30.10878
G1 X91.92 Y93.234 E30.127
G1 X92.156 Y92.76 E30.14461
G1 X92.428 Y92.301 E30.16236
G1 X92.723 Y91.877 E30.17954
G1 X93.031 Y91.497 E30.19581
G1 X93.384 Y91.128 E30.21279
G1 X93.748 Y90.8 E30.22909
G1 X94.156 Y90.487 E30.24619
G1 X94.567 Y90.22 E30.26249
G1 X95.024 Y89.97 E30.27982
G1 X95.501 Y89.755 E30.29722
G1 X96.007 Y89.567 E30.31518
G1 X96.527 Y89.415 E30.33319
G1 X97.09 Y89.29 E30.35238
G1 X97.672 Y89.199 E30.37197
G1 X98.26 Y89.142 E30.39162
G1 X98.646 Y89.141 E30.40446
G1 X99.107 Y89.193 E30.41989
G1 X99.59 Y89.295 E30.4363
G1 X100.071 Y89.449 E30.4531
G1 X100.539 Y89.658 E30.47015
G1 X100.941 Y89.906 E30.48586
G1 X101.284 Y90.201 E30.50091
G1 X101.536 Y90.533 E30.51477
G1 X101.996 Y91.341 E30.54569
G1 X102.433 Y92.168 E30.57681
G1 X102.816 Y92.951 E30.6058
G1 X103.163 Y93.728 E30.6341
G1 X103.472 Y94.494 E30.66157
G1 X103.741 Y95.247 E30.68817
G1 X103.964 Y95.963 E30.71311
G1 X104.158 Y96.696 E30.73833
G1 X104.844 Y99.634 E30.83867
G1 X105.171 Y101.157 E30.89048
G1 X105.492 Y102.747 E30.94444
G1 X105.809 Y104.408 E31.00068
G1 X106.126 Y106.155 E31.05973
G1 X106.446 Y107.994 E31.12182
G1 X107.008 Y111.326 E31.2342
G1 X107.27 Y112.678 E31.28001
G1 X107.554 Y113.995 E31.32482
G1 X107.862 Y115.282 E31.36883
G1 X108.547 Y117.761 E31.45438
G1 X109.329 Y120.13 E31.53735
G1 X110.15 Y122.704 E31.62721
G1 X110.835 Y125.334 E31.7176
G1 X111.122 Y126.661 E31.76276
G1 X111.373 Y128.011 E31.80843
G1 X111.589 Y129.378 E31.85446
