;FLAVOR:Marlin
;TIME:2302
;Filament used: 1.07376m
;Layer height: 0.2
;Generated with Cura_SteamEngine 3.6.0
M140 S50
M105
M190 S50
M104 S210
M105
M109 S210
M82 ;absolute extrusion mode
; Ender 3 Custom Start G-code
G28 ; Home all axes
G92 E0 ; Reset Extruder
G1 Z2.0 F3000 ; Move Z Axis up little to prevent scratching of Heat Bed
G1 X0.1 Y20 Z0.3 F5000.0 ; Move to start position
G1 X0.1 Y200.0 Z0.3 F1500.0 E15 ; Draw the first line
G1 X0.4 Y200.0 Z0.3 F5000.0 ; Move to side a little
G1 X0.4 Y20 Z0.3 F1500.0 E30 ; Draw the second line
G92 E0 ; Reset Extruder
G1 Z2.0 F3000 ; Move Z Axis up little to prevent scratching of Heat Bed
G90 ; absolute xyz﻿
G92 E0
G1 F1500 E-5
;LAYER_COUNT:3
;LAYER:0
M107
M204 S5000
M205 X30 Y30
G0 F3600 X79.386 Y52.131 Z0.2
M204 S500
M205 X20 Y20
;TYPE:SKIRT
G1 F1500 E0
G1 F2400 X80.615 Y50.268 E0.07423
G1 X80.937 Y49.828 E0.09237
G1 X82.039 Y48.467 E0.15061
G1 X82.341 Y48.124 E0.16581
G1 X83.377 Y47.039 E0.21571
G1 X83.748 Y46.684 E0.23279
G1 X85.358 Y45.281 E0.30381
G1 X85.823 Y44.917 E0.32346
G1 X87.612 Y43.663 E0.39612
G1 X88.073 Y43.372 E0.41425
G1 X89.74 Y42.431 E0.47792
G1 X90.511 Y42.071 E0.50622
G1 X91.927 Y41.535 E0.55658
G1 X92.565 Y41.336 E0.57881
G1 X93.124 Y41.227 E0.59775
G1 X94.657 Y41.01 E0.64925
G1 X95.324 Y40.956 E0.6715
G1 X95.835 Y40.969 E0.6885
G1 X97.086 Y41.057 E0.73022
G1 X97.749 Y41.144 E0.75246
G1 X98.36 Y41.297 E0.77341
G1 X99.492 Y41.65 E0.81284
G1 X100.118 Y41.887 E0.83511
G1 X100.694 Y42.187 E0.85671
G1 X101.435 Y42.629 E0.88541
G1 X101.809 Y42.873 E0.90026
G1 X106.278 Y46.047 E1.08257
G1 X110.827 Y48.906 E1.26127
G1 X115.479 Y51.475 E1.43802
G1 X120.308 Y53.795 E1.61621
G1 X125.29 Y55.853 E1.79549
G1 X127.712 Y56.732 E1.88119
G1 X132.83 Y58.351 E2.05973
G1 X138.045 Y59.682 E2.23874
G1 X140.659 Y60.232 E2.32759
G1 X145.441 Y61.119 E2.48935
G1 X146.272 Y61.34 E2.51795
G1 X148.232 Y62.027 E2.58703
G1 X148.914 Y62.318 E2.61169
G1 X149.785 Y62.76 E2.64418
G1 X150.405 Y63.127 E2.66814
G1 X151.746 Y64.041 E2.72212
G1 X152.275 Y64.45 E2.74436
G1 X152.642 Y64.801 E2.76125
G1 X153.595 Y65.799 E2.80715
G1 X154.027 Y66.309 E2.82938
G1 X154.347 Y66.784 E2.84842
G1 X154.976 Y67.832 E2.88908
G1 X155.37 Y68.626 E2.91856
G1 X155.618 Y69.243 E2.94068
G1 X155.874 Y70.054 E2.96896
G1 X156.071 Y70.895 E2.99769
G1 X156.206 Y71.786 E3.02766
G1 X156.265 Y72.639 E3.0561
G1 X156.256 Y73.515 E3.08524
G1 X156.173 Y74.459 E3.11676
G1 X156.028 Y75.325 E3.14596
G1 X155.886 Y75.894 E3.16547
G1 X155.668 Y76.579 E3.18938
G1 X153.809 Y81.327 E3.35897
G1 X152.119 Y86.394 E3.53663
G1 X150.702 Y91.607 E3.7163
G1 X150.12 Y94.164 E3.80352
G1 X149.616 Y96.732 E3.89056
G1 X148.797 Y102.059 E4.06982
G1 X148.289 Y107.355 E4.24678
G1 X148.079 Y112.712 E4.42509
G1 X148.171 Y118.033 E4.60209
G1 X148.567 Y123.377 E4.78032
G1 X149.26 Y128.658 E4.95747
G1 X150.259 Y133.932 E5.13601
G1 X150.848 Y136.458 E5.22228
G1 X152.293 Y141.642 E5.40127
G1 X154.017 Y146.701 E5.57903
G1 X156.02 Y151.639 E5.75627
G1 X159.009 Y157.835 E5.98508
G1 X160.224 Y160.166 E6.07251
G1 X160.421 Y160.586 E6.08794
G1 X160.929 Y161.796 E6.13158
G1 X161.139 Y162.386 E6.15241
G1 X161.599 Y163.952 E6.2067
G1 X161.781 Y164.824 E6.23633
G1 X161.957 Y166.209 E6.28276
G1 X161.998 Y167.137 E6.31366
G1 X161.956 Y168.198 E6.34897
G1 X161.863 Y169.015 E6.37632
G1 X161.69 Y169.931 E6.40733
G1 X161.527 Y170.58 E6.42958
G1 X161.311 Y171.152 E6.44992
G1 X160.601 Y172.762 E6.50844
G1 X160.295 Y173.357 E6.5307
G1 X160.038 Y173.752 E6.54637
G1 X159.634 Y174.319 E6.56953
G1 X159.214 Y174.839 E6.59176
G1 X158.942 Y175.118 E6.60472
G1 X157.998 Y176.02 E6.64815
G1 X157.487 Y176.452 E6.6704
G1 X156.962 Y176.802 E6.69139
G1 X156.21 Y177.243 E6.72038
G1 X155.614 Y177.546 E6.74262
G1 X155.26 Y177.686 E6.75528
G1 X154.106 Y178.098 E6.79604
G1 X153.636 Y178.243 E6.8124
G1 X150.034 Y179.182 E6.9362
G1 X149.595 Y179.278 E6.95115
G1 X148.01 Y179.558 E7.00468
G1 X147.506 Y179.623 E7.02159
G1 X141.059 Y180.166 E7.23677
G1 X135.748 Y180.88 E7.41501
G1 X130.47 Y181.896 E7.59378
G1 X127.903 Y182.503 E7.68151
G1 X125.359 Y183.183 E7.76909
G1 X120.234 Y184.786 E7.9477
G1 X115.229 Y186.669 E8.12555
G1 X110.351 Y188.827 E8.30296
G1 X103.694 Y192.209 E8.55131
G1 X102.893 Y192.541 E8.58015
G1 X101.917 Y192.859 E8.61429
G1 X101.268 Y193.028 E8.6366
G1 X99.083 Y193.46 E8.71068
G1 X98.582 Y193.535 E8.72753
G1 X94.024 Y194.014 E8.87996
G1 X93.407 Y194.045 E8.90051
G1 X91.48 Y194.034 E8.9646
G1 X91.065 Y194.016 E8.97842
G1 X88.59 Y193.818 E9.061
G1 X88.232 Y193.778 E9.07298
G1 X86.793 Y193.569 E9.12135
G1 X86.138 Y193.433 E9.1436
G1 X85.641 Y193.274 E9.16095
G1 X84.37 Y192.8 E9.20607
G1 X83.758 Y192.529 E9.22833
G1 X83.178 Y192.184 E9.25078
G1 X81.987 Y191.374 E9.29868
G1 X81.457 Y190.965 E9.32095
G1 X80.945 Y190.457 E9.34494
G1 X79.988 Y189.377 E9.39293
G1 X79.404 Y188.588 E9.42558
G1 X78.784 Y187.576 E9.46505
G1 X78.456 Y186.958 E9.48832
G1 X77.989 Y185.925 E9.52603
G1 X77.713 Y185.177 E9.55255
G1 X77.283 Y183.693 E9.60394
G1 X77.12 Y182.94 E9.62956
G1 X76.915 Y181.53 E9.67695
G1 X76.877 Y181.2 E9.688
G1 X76.377 Y175.341 E9.88358
G1 X75.419 Y168.74 E10.10543
G1 X75.397 Y168.572 E10.11107
G1 X74.891 Y164.149 E10.25913
G1 X74.866 Y163.866 E10.26858
G1 X74.626 Y160.07 E10.39509
G1 X73.43 Y149.635 E10.74443
G1 X73.395 Y149.093 E10.7625
G1 X73.123 Y133.168 E11.29224
G1 X73.122 Y133.123 E11.29374
G1 X73.02 Y121.86 E11.66836
G1 X73.02 Y121.768 E11.67142
G1 X73.132 Y106.504 E12.17912
G1 X73.012 Y101.852 E12.3339
G1 X73.018 Y101.405 E12.34877
G1 X73.125 Y99.421 E12.41485
G1 X73.154 Y99.084 E12.4261
G1 X74.668 Y85.897 E12.86758
G1 X75.294 Y78.079 E13.12844
G1 X75.957 Y62.065 E13.66153
G1 X75.973 Y61.817 E13.66979
G1 X76.082 Y60.551 E13.71206
G1 X76.179 Y59.889 E13.73431
G1 X76.334 Y59.305 E13.75441
G1 X77.136 Y56.83 E13.84094
G1 X77.296 Y56.396 E13.85632
G1 X77.85 Y55.071 E13.90409
G1 X78.043 Y54.658 E13.91925
G1 X79.086 Y52.642 E13.99475
G1 X79.386 Y52.131 E14.01446
M204 S5000
M205 X30 Y30
G0 F3600 X79.719 Y52.352
M204 S500
M205 X20 Y20
G1 F2400 X80.948 Y50.489 E14.08869
G1 X81.248 Y50.08 E14.10556
G1 X82.35 Y48.719 E14.1638
G1 X82.63 Y48.4 E14.17792
G1 X83.666 Y47.315 E14.22782
G1 X84.011 Y46.986 E14.24367
G1 X85.621 Y45.583 E14.3147
G1 X86.052 Y45.245 E14.33292
G1 X87.841 Y43.991 E14.40558
G1 X88.27 Y43.721 E14.42244
G1 X89.937 Y42.78 E14.48611
G1 X90.652 Y42.445 E14.51237
G1 X92.068 Y41.909 E14.56273
G1 X92.684 Y41.718 E14.58418
G1 X93.18 Y41.623 E14.60098
G1 X94.713 Y41.406 E14.65247
G1 X95.356 Y41.356 E14.67392
G1 X95.807 Y41.368 E14.68893
G1 X97.058 Y41.456 E14.73064
G1 X97.697 Y41.541 E14.75208
G1 X98.241 Y41.679 E14.77075
G1 X99.373 Y42.032 E14.81019
G1 X99.975 Y42.261 E14.83161
G1 X100.489 Y42.53 E14.8509
G1 X101.23 Y42.972 E14.8796
G1 X101.577 Y43.199 E14.89339
G1 X106.059 Y46.382 E15.07623
G1 X110.613 Y49.244 E15.25513
G1 X115.305 Y51.836 E15.43341
G1 X120.14 Y54.159 E15.61182
G1 X125.149 Y56.227 E15.79206
G1 X127.567 Y57.105 E15.87762
G1 X132.737 Y58.741 E16.05798
G1 X137.938 Y60.068 E16.23651
G1 X140.582 Y60.624 E16.32637
G1 X145.368 Y61.512 E16.48827
G1 X146.14 Y61.718 E16.51485
G1 X148.1 Y62.405 E16.58393
G1 X148.733 Y62.675 E16.60682
G1 X149.604 Y63.117 E16.6393
G1 X150.18 Y63.457 E16.66155
G1 X151.521 Y64.371 E16.71553
G1 X152.03 Y64.767 E16.73698
G1 X152.353 Y65.077 E16.75187
G1 X153.306 Y66.075 E16.79776
G1 X153.721 Y66.568 E16.8192
G1 X154.004 Y66.99 E16.8361
G1 X154.633 Y68.038 E16.87675
G1 X154.999 Y68.775 E16.90412
G1 X155.247 Y69.392 E16.92623
G1 X155.485 Y70.145 E16.9525
G1 X155.682 Y70.986 E16.98123
G1 X155.807 Y71.813 E17.00905
G1 X155.866 Y72.666 E17.03749
G1 X155.858 Y73.48 E17.06456
G1 X155.775 Y74.424 E17.09608
G1 X155.64 Y75.228 E17.1232
G1 X155.498 Y75.797 E17.1427
G1 X155.295 Y76.434 E17.16494
G1 X153.436 Y81.182 E17.33453
G1 X151.734 Y86.284 E17.51342
G1 X150.315 Y91.505 E17.69337
G1 X149.731 Y94.071 E17.78089
G1 X149.221 Y96.667 E17.86889
G1 X148.4 Y102.014 E18.04881
G1 X147.889 Y107.335 E18.22661
G1 X147.679 Y112.703 E18.40528
G1 X147.771 Y118.052 E18.58322
G1 X148.168 Y123.405 E18.76175
G1 X148.867 Y128.733 E18.94048
G1 X149.868 Y134.019 E19.11941
G1 X150.457 Y136.542 E19.20559
G1 X151.915 Y141.773 E19.3862
G1 X153.641 Y146.838 E19.56418
G1 X155.652 Y151.797 E19.74216
G1 X158.646 Y158.002 E19.97131
G1 X159.87 Y160.351 E20.05941
G1 X160.053 Y160.741 E20.07373
G1 X160.561 Y161.951 E20.11738
G1 X160.755 Y162.498 E20.13669
G1 X161.215 Y164.064 E20.19097
G1 X161.385 Y164.874 E20.2185
G1 X161.561 Y166.259 E20.26494
G1 X161.598 Y167.121 E20.29363
G1 X161.556 Y168.182 E20.32895
G1 X161.47 Y168.941 E20.35435
G1 X161.297 Y169.857 E20.38536
G1 X161.138 Y170.482 E20.40681
G1 X160.945 Y170.99 E20.42488
G1 X160.235 Y172.6 E20.48341
G1 X159.939 Y173.173 E20.50486
G1 X159.712 Y173.519 E20.51862
G1 X159.308 Y174.086 E20.54178
G1 X158.902 Y174.587 E20.56323
G1 X158.665 Y174.829 E20.57449
G1 X157.721 Y175.731 E20.61792
G1 X157.229 Y176.146 E20.63933
G1 X156.76 Y176.457 E20.65804
G1 X156.008 Y176.898 E20.68704
G1 X155.432 Y177.189 E20.7085
G1 X155.125 Y177.309 E20.71947
G1 X153.971 Y177.721 E20.76022
G1 X153.535 Y177.856 E20.7754
G1 X149.933 Y178.795 E20.89921
G1 X149.526 Y178.884 E20.91307
G1 X147.941 Y179.164 E20.9666
G1 X147.473 Y179.225 E20.9823
G1 X141.01 Y179.769 E21.19802
G1 X135.676 Y180.486 E21.37702
G1 X130.366 Y181.509 E21.55688
G1 X127.854 Y182.103 E21.64273
G1 X125.256 Y182.797 E21.73217
G1 X120.095 Y184.412 E21.91204
G1 X115.084 Y186.297 E22.09011
G1 X110.164 Y188.473 E22.26904
G1 X103.513 Y191.852 E22.51716
G1 X102.769 Y192.16 E22.54394
G1 X101.793 Y192.478 E22.57809
G1 X101.191 Y192.635 E22.59878
G1 X99.006 Y193.067 E22.67286
G1 X98.54 Y193.138 E22.68854
G1 X93.982 Y193.617 E22.84097
G1 X93.409 Y193.645 E22.86005
G1 X91.482 Y193.634 E22.92414
G1 X91.097 Y193.617 E22.93696
G1 X88.622 Y193.419 E23.01954
G1 X88.29 Y193.382 E23.03065
G1 X86.851 Y193.173 E23.07902
G1 X86.22 Y193.041 E23.10046
G1 X85.781 Y192.899 E23.11581
G1 X84.51 Y192.425 E23.16092
G1 X83.921 Y192.163 E23.18236
G1 X83.403 Y191.853 E23.20244
G1 X82.212 Y191.043 E23.25035
G1 X81.702 Y190.648 E23.2718
G1 X81.244 Y190.192 E23.2933
G1 X80.287 Y189.112 E23.34129
G1 X79.745 Y188.38 E23.37159
G1 X79.125 Y187.368 E23.41106
G1 X78.821 Y186.793 E23.43269
G1 X78.354 Y185.76 E23.4704
G1 X78.097 Y185.065 E23.49505
G1 X77.667 Y183.581 E23.54643
G1 X77.516 Y182.882 E23.57022
G1 X77.311 Y181.472 E23.61761
G1 X77.276 Y181.166 E23.62785
G1 X76.775 Y175.301 E23.82363
G1 X75.815 Y168.683 E24.04605
G1 X75.795 Y168.527 E24.05128
G1 X75.289 Y164.104 E24.19935
G1 X75.265 Y163.841 E24.20814
G1 X75.024 Y160.018 E24.33554
G1 X73.828 Y149.589 E24.68469
G1 X73.795 Y149.086 E24.70145
G1 X73.523 Y133.161 E25.2312
G1 X73.522 Y133.119 E25.2326
G1 X73.42 Y121.856 E25.60722
G1 X73.42 Y121.771 E25.61005
G1 X73.532 Y106.497 E26.11808
G1 X73.412 Y101.842 E26.27295
G1 X73.418 Y101.427 E26.28676
G1 X73.525 Y99.443 E26.35284
G1 X73.551 Y99.13 E26.36329
G1 X75.068 Y85.917 E26.80564
G1 X75.691 Y78.127 E27.06556
G1 X76.356 Y62.082 E27.59968
G1 X76.371 Y61.851 E27.60738
G1 X76.48 Y60.585 E27.64964
G1 X76.575 Y59.947 E27.6711
G1 X76.714 Y59.428 E27.68897
G1 X77.516 Y56.953 E27.7755
G1 X77.665 Y56.55 E27.78979
G1 X78.219 Y55.225 E27.83756
G1 X78.398 Y54.842 E27.85162
G1 X79.441 Y52.826 E27.92711
G1 X79.719 Y52.352 E27.94539
M204 S5000
M205 X30 Y30
G1 F1500 E22.94539
G1 F300 Z0.4
;MESH:k_04.stl
G0 F3600 X102.478 Y92.109 Z0.4
M204 S500
M205 X20 Y20
;TYPE:WALL-INNER
G1 F300 Z0.2
G1 F1500 E27.94539
G1 F2400 X103.737 Y90.659 E28.00926
G1 X104.775 Y89.402 E28.06348
G1 X105.842 Y88.057 E28.12058
G1 X108.189 Y84.99 E28.24903
G1 X109.47 Y83.35 E28.31825
G1 X110.823 Y81.703 E28.38914
G1 X112.246 Y80.096 E28.46053
G1 X113.748 Y78.556 E28.53208
G1 X115.366 Y77.088 E28.60475
G1 X117.095 Y75.734 E28.67779
G1 X118.006 Y75.108 E28.71455
G1 X118.948 Y74.52 E28.75148
G1 X121.606 Y72.989 E28.85351
G1 X124.177 Y71.644 E28.95001
G1 X126.697 Y70.467 E29.04252
G1 X129.162 Y69.46 E29.13108
G1 X131.631 Y68.6 E29.21804
G1 X134.019 Y67.914 E29.30068
G1 X136.426 Y67.373 E29.38273
G1 X138.827 Y66.979 E29.46366
G1 X140.011 Y66.849 E29.50328
G1 X141.14 Y66.809 E29.54085
G1 X142.25 Y66.856 E29.5778
G1 X143.293 Y66.988 E29.61277
G1 X144.321 Y67.206 E29.64772
G1 X145.291 Y67.505 E29.68148
G1 X146.228 Y67.889 E29.71516
G1 X147.13 Y68.359 E29.74899
G1 X147.915 Y68.872 E29.78018
G1 X148.586 Y69.457 E29.80979
G1 X149.13 Y70.091 E29.83757
G1 X149.552 Y70.773 E29.86425
G1 X149.855 Y71.501 E29.89048
G1 X150.033 Y72.261 E29.91644
G1 X150.087 Y73.058 E29.94301
G1 X150.012 Y73.876 E29.97033
G1 X149.924 Y74.248 E29.98304
G1 X149.806 Y74.584 E29.99489
G1 X149.487 Y75.168 E30.01702
G1 X149.079 Y75.634 E30.03762
G1 X148.599 Y76.006 E30.05782
G1 X148.05 Y76.309 E30.07867
G1 X147.462 Y76.549 E30.0998
G1 X146.235 Y76.917 E30.1424
G1 X139.55 Y78.774 E30.37317
G1 X134.831 Y80.179 E30.53693
G1 X133.297 Y80.738 E30.59123
G1 X131.86 Y81.399 E30.64384
G1 X130.525 Y82.163 E30.695
G1 X129.292 Y83.035 E30.74523
G1 X128.16 Y84.012 E30.79496
G1 X127.13 Y85.098 E30.84475
G1 X126.201 Y86.292 E30.89506
G1 X125.38 Y87.58 E30.94587
G1 X122.664 Y92.221 E31.12472
G1 X119.952 Y96.795 E31.30158
G1 X117.055 Y101.658 E31.48985
G1 X116.23 Y103.363 E31.55285
G1 X115.904 Y103.999 E31.57662
G1 X115.624 Y104.645 E31.60004
G1 X115.396 Y105.286 E31.62266
G1 X115.221 Y105.923 E31.64464
G1 X115.102 Y106.557 E31.66609
G1 X115.036 Y107.188 E31.68719
G1 X115.029 Y107.817 E31.70811
G1 X115.075 Y108.441 E31.72892
G1 X115.18 Y109.062 E31.74987
G1 X115.339 Y109.677 E31.771
G1 X115.554 Y110.29 E31.79261
G1 X115.822 Y110.896 E31.81464
G1 X116.142 Y111.501 E31.83741
G1 X116.515 Y112.103 E31.86096
G1 X116.939 Y112.704 E31.88543
G1 X117.41 Y113.301 E31.91072
G1 X119.353 Y115.616 E32.01124
G1 X121.254 Y117.972 E32.11193
G1 X124.945 Y122.687 E32.31109
G1 X130.745 Y129.996 E32.62143
G1 X132.44 Y132.034 E32.70959
G1 X134.163 Y134.014 E32.79689
G1 X135.949 Y135.898 E32.88323
G1 X138.83 Y138.556 E33.01361
G1 X139.8 Y139.525 E33.05921
G1 X140.717 Y140.532 E33.10451
G1 X141.592 Y141.582 E33.14997
G1 X142.441 Y142.703 E33.19674
G1 X143.246 Y143.873 E33.24397
G1 X144.032 Y145.126 E33.29317
G1 X144.787 Y146.445 E33.34372
G1 X146.621 Y149.743 E33.46923
G1 X148.503 Y152.956 E33.59308
G1 X150.424 Y156.065 E33.71463
G1 X152.376 Y159.048 E33.8332
G1 X153.384 Y160.605 E33.89489
G1 X154.316 Y162.198 E33.95628
G1 X154.733 Y163.027 E33.98714
G1 X155.1 Y163.875 E34.01787
G1 X155.411 Y164.763 E34.04917
G1 X155.651 Y165.668 E34.08031
G1 X155.808 Y166.757 E34.1169
G1 X155.789 Y167.794 E34.1514
G1 X155.608 Y168.772 E34.18448
G1 X155.279 Y169.667 E34.2162
G1 X154.812 Y170.46 E34.24681
G1 X154.212 Y171.142 E34.27702
G1 X153.881 Y171.422 E34.29144
G1 X153.523 Y171.664 E34.30581
G1 X153.133 Y171.873 E34.32053
G1 X152.699 Y172.05 E34.33612
G1 X151.085 Y172.548 E34.39229
G1 X149.44 Y172.977 E34.44884
G1 X147.862 Y173.308 E34.50246
G1 X146.307 Y173.55 E34.55481
G1 X145.551 Y173.597 E34.58
G1 X144.843 Y173.542 E34.60362
G1 X144.172 Y173.39 E34.6265
G1 X143.543 Y173.145 E34.64895
G1 X142.961 Y172.812 E34.67126
G1 X142.425 Y172.384 E34.69407
G1 X141.954 Y171.874 E34.71716
G1 X141.539 Y171.268 E34.74159
G1 X141.284 Y170.808 E34.75908
G1 X140.403 Y169.307 E34.81697
G1 X139.605 Y167.713 E34.87626
G1 X138.802 Y165.984 E34.93966
G1 X137.921 Y164.245 E35.0045
G1 X136.974 Y162.519 E35.06998
G1 X135.959 Y160.804 E35.13627
G1 X134.875 Y159.094 E35.2036
G1 X133.723 Y157.386 E35.27213
G1 X132.501 Y155.677 E35.342
G1 X131.209 Y153.964 E35.41337
G1 X127.028 Y148.64 E35.63852
G1 X122.869 Y143.4 E35.86103
G1 X119.257 Y138.891 E36.05318
G1 X115.647 Y134.326 E36.24675
G1 X113.687 Y131.686 E36.35612
G1 X109.544 Y125.924 E36.59216
G1 X108.992 Y125.217 E36.62199
G1 X108.449 Y124.599 E36.64935
G1 X107.908 Y124.07 E36.67452
G1 X107.36 Y123.625 E36.698
G1 X106.797 Y123.262 E36.72028
G1 X106.214 Y122.984 E36.74176
G1 X105.61 Y122.787 E36.76289
G1 X104.997 Y122.674 E36.78362
G1 X104.334 Y122.602 E36.8058
G1 X103.719 Y122.577 E36.82628
G1 X103.146 Y122.595 E36.84534
G1 X102.615 Y122.659 E36.86313
G1 X102.126 Y122.77 E36.87981
G1 X101.681 Y122.929 E36.89553
