;FLAVOR:Marlin
;TIME:2356
;Filament used: 1.09038m
;Layer height: 0.2
;Generated with Cura_SteamEngine 3.6.0
M140 S50
M105
M190 S50
M104 S210
M105
M109 S210
M82 ;absolute extrusion mode
; Ender 3 Custom Start G-code
G28 ; Home all axes
G92 E0 ; Reset Extruder
G1 Z2.0 F3000 ; Move Z Axis up little to prevent scratching of Heat Bed
G1 X0.1 Y20 Z0.3 F5000.0 ; Move to start position
G1 X0.1 Y200.0 Z0.3 F1500.0 E15 ; Draw the first line
G1 X0.4 Y200.0 Z0.3 F5000.0 ; Move to side a little
G1 X0.4 Y20 Z0.3 F1500.0 E30 ; Draw the second line
G92 E0 ; Reset Extruder
G1 Z2.0 F3000 ; Move Z Axis up little to prevent scratching of Heat Bed
G90 ; absolute xyz﻿
G92 E0
G1 F1500 E-5
;LAYER_COUNT:3
;LAYER:0
M107
M204 S5000
M205 X30 Y30
G0 F3600 X75.877 Y88.728 Z0.2
M204 S500
M205 X20 Y20
;TYPE:SKIRT
G1 F1500 E0
G1 F2400 X76.126 Y88.53 E0.01058
G1 X80.134 Y85.523 E0.17723
G1 X80.39 Y85.341 E0.18768
G1 X82.897 Y83.671 E0.28787
G1 X83.085 Y83.552 E0.29527
G1 X100.586 Y72.874 E0.97715
G1 X100.702 Y72.805 E0.98164
G1 X105.749 Y69.89 E1.17549
G1 X106.095 Y69.706 E1.18852
G1 X107.471 Y69.035 E1.23944
G1 X107.811 Y68.883 E1.25183
G1 X109.792 Y68.075 E1.32299
G1 X110.255 Y67.909 E1.33934
G1 X112.173 Y67.317 E1.40611
G1 X112.681 Y67.186 E1.42356
G1 X114.468 Y66.813 E1.48427
G1 X114.963 Y66.733 E1.50095
G1 X116.188 Y66.59 E1.54197
G1 X116.777 Y66.552 E1.5616
G1 X118.725 Y66.531 E1.6264
G1 X119.379 Y66.563 E1.64817
G1 X121.912 Y66.833 E1.7329
G1 X122.357 Y66.898 E1.74786
G1 X125.397 Y67.472 E1.85075
G1 X125.762 Y67.554 E1.8632
G1 X128.017 Y68.138 E1.94067
G1 X128.404 Y68.253 E1.9541
G1 X133.097 Y69.837 E2.11884
G1 X133.297 Y69.909 E2.12591
G1 X142.676 Y73.477 E2.45967
G1 X142.857 Y73.549 E2.46615
G1 X149.8 Y76.471 E2.71669
G1 X150.133 Y76.625 E2.72889
G1 X152.964 Y78.041 E2.83417
G1 X153.34 Y78.247 E2.84843
G1 X155.893 Y79.779 E2.94746
G1 X156.235 Y80.001 E2.96102
G1 X158.642 Y81.695 E3.05892
G1 X158.96 Y81.936 E3.07219
G1 X161.368 Y83.901 E3.17556
G1 X161.655 Y84.153 E3.18827
G1 X163.885 Y86.242 E3.2899
G1 X164.208 Y86.57 E3.30521
G1 X167.465 Y90.167 E3.4666
G1 X167.737 Y90.491 E3.48067
G1 X169.622 Y92.918 E3.58288
G1 X169.795 Y93.154 E3.59261
G1 X171.867 Y96.131 E3.71325
G1 X172.012 Y96.35 E3.72199
G1 X174.169 Y99.782 E3.85681
G1 X174.313 Y100.025 E3.8662
G1 X176.314 Y103.596 E4.00235
G1 X176.452 Y103.857 E4.01217
G1 X178.262 Y107.528 E4.1483
G1 X178.384 Y107.792 E4.15798
G1 X179.957 Y111.45 E4.29041
G1 X180.046 Y111.67 E4.29831
G1 X180.976 Y114.114 E4.38528
G1 X181.059 Y114.348 E4.39354
G1 X182.329 Y118.19 E4.52812
G1 X182.414 Y118.473 E4.53795
G1 X183.462 Y122.312 E4.67031
G1 X183.534 Y122.603 E4.68028
G1 X184.227 Y125.808 E4.78934
G1 X184.313 Y126.326 E4.80681
G1 X184.986 Y131.948 E4.99513
G1 X185.026 Y132.616 E5.01739
G1 X185.016 Y132.953 E5.0286
G1 X184.805 Y136.428 E5.14439
G1 X184.745 Y136.974 E5.16266
G1 X184.271 Y139.935 E5.2624
G1 X184.177 Y140.395 E5.27802
G1 X183.658 Y142.492 E5.34987
G1 X183.51 Y142.989 E5.36712
G1 X182.344 Y146.337 E5.48503
G1 X182.149 Y146.824 E5.50248
G1 X180.994 Y149.349 E5.59483
G1 X180.817 Y149.701 E5.60793
G1 X179.711 Y151.729 E5.68476
G1 X179.537 Y152.027 E5.69624
G1 X178.132 Y154.263 E5.78407
G1 X177.863 Y154.654 E5.79986
G1 X176.018 Y157.103 E5.90184
G1 X175.813 Y157.359 E5.91275
G1 X174.96 Y158.363 E5.95657
G1 X174.777 Y158.567 E5.96568
G1 X173.336 Y160.104 E6.03576
G1 X172.994 Y160.44 E6.0517
G1 X171.793 Y161.519 E6.1054
G1 X171.226 Y161.965 E6.1294
G1 X169.755 Y162.978 E6.1888
G1 X169.178 Y163.326 E6.21121
G1 X167.766 Y164.066 E6.26423
G1 X167.13 Y164.351 E6.28741
G1 X164.792 Y165.226 E6.37044
G1 X164.218 Y165.406 E6.39045
G1 X161.718 Y166.046 E6.47628
G1 X161.216 Y166.15 E6.49333
G1 X155.213 Y167.113 E6.69555
G1 X154.898 Y167.155 E6.70612
G1 X151.47 Y167.507 E6.82073
G1 X151.029 Y167.534 E6.83543
G1 X147.573 Y167.615 E6.95041
G1 X147.208 Y167.612 E6.96255
G1 X143.307 Y167.449 E7.09241
G1 X143.011 Y167.429 E7.10227
G1 X138.77 Y167.026 E7.24397
G1 X138.375 Y166.974 E7.25722
G1 X130.558 Y165.664 E7.52084
G1 X125.252 Y165.023 E7.6986
G1 X119.907 Y164.683 E7.87673
G1 X114.566 Y164.644 E8.05438
G1 X109.251 Y164.908 E8.23138
G1 X103.921 Y165.475 E8.40965
G1 X98.583 Y166.351 E8.58957
G1 X88.344 Y168.378 E8.93673
G1 X87.682 Y168.469 E8.95896
G1 X86.969 Y168.478 E8.98267
G1 X79.648 Y168.101 E9.22649
G1 X79.557 Y168.095 E9.22953
G1 X71.606 Y167.556 E9.49458
G1 X70.943 Y167.471 E9.51682
G1 X70.294 Y167.308 E9.53907
G1 X69.902 Y167.167 E9.55293
G1 X67.259 Y166.108 E9.64763
G1 X66.637 Y165.813 E9.67052
G1 X64.855 Y164.83 E9.73821
G1 X64.358 Y164.521 E9.75768
G1 X62.836 Y163.46 E9.81939
G1 X62.34 Y163.072 E9.84033
G1 X60.56 Y161.507 E9.91916
G1 X60.152 Y161.109 E9.93812
G1 X59.255 Y160.142 E9.98199
G1 X58.926 Y159.753 E9.99894
G1 X57.337 Y157.692 E10.08549
G1 X56.956 Y157.13 E10.10808
G1 X55.53 Y154.726 E10.20104
G1 X55.359 Y154.417 E10.21279
G1 X54.37 Y152.481 E10.28509
G1 X54.235 Y152.196 E10.29558
G1 X52.71 Y148.745 E10.42107
G1 X52.577 Y148.417 E10.43284
G1 X52.01 Y146.877 E10.48743
G1 X51.911 Y146.584 E10.49771
G1 X51.161 Y144.138 E10.5828
G1 X51.063 Y143.776 E10.59528
G1 X50.633 Y141.945 E10.65783
G1 X50.565 Y141.611 E10.66917
G1 X50.276 Y139.924 E10.7261
G1 X50.217 Y139.459 E10.74169
G1 X50.002 Y136.967 E10.82488
G1 X49.982 Y136.384 E10.84428
G1 X50.029 Y133.807 E10.93001
G1 X50.064 Y133.274 E10.94777
G1 X50.295 Y131.249 E11.01556
G1 X50.366 Y130.793 E11.03091
G1 X50.751 Y128.854 E11.09666
G1 X50.818 Y128.561 E11.10666
G1 X52.367 Y122.488 E11.31511
G1 X52.4 Y122.365 E11.31935
G1 X53.346 Y118.979 E11.43628
G1 X53.392 Y118.821 E11.44176
G1 X54.463 Y115.381 E11.56159
G1 X54.545 Y115.139 E11.57009
G1 X55.894 Y111.414 E11.70185
G1 X56.134 Y110.85 E11.72224
G1 X57.097 Y108.892 E11.79481
G1 X57.295 Y108.525 E11.80868
G1 X58.381 Y106.678 E11.87995
G1 X58.624 Y106.3 E11.89489
G1 X60.244 Y103.991 E11.98871
G1 X60.507 Y103.645 E12.00316
G1 X62.247 Y101.534 E12.09415
G1 X62.468 Y101.281 E12.10532
G1 X64.502 Y99.095 E12.20464
G1 X64.694 Y98.899 E12.21376
G1 X68.198 Y95.485 E12.37648
G1 X68.324 Y95.366 E12.38224
G1 X71.952 Y92.043 E12.54588
G1 X72.124 Y91.892 E12.55349
G1 X75.877 Y88.728 E12.71675
M204 S5000
M205 X30 Y30
G0 F3600 X76.135 Y89.033
M204 S500
M205 X20 Y20
G1 F2400 X76.366 Y88.849 E12.72658
G1 X80.374 Y85.842 E12.89323
G1 X80.612 Y85.674 E12.90292
G1 X83.119 Y84.004 E13.00311
G1 X83.294 Y83.893 E13.01
G1 X100.795 Y73.215 E13.69188
G1 X100.902 Y73.151 E13.69603
G1 X105.949 Y70.236 E13.88988
G1 X106.271 Y70.065 E13.902
G1 X107.647 Y69.394 E13.95292
G1 X107.962 Y69.253 E13.9644
G1 X109.943 Y68.445 E14.03556
G1 X110.373 Y68.291 E14.05075
G1 X112.291 Y67.699 E14.11751
G1 X112.763 Y67.578 E14.13372
G1 X114.55 Y67.205 E14.19443
G1 X115.009 Y67.13 E14.2099
G1 X116.234 Y66.987 E14.25092
G1 X116.781 Y66.952 E14.26915
G1 X118.729 Y66.931 E14.33395
G1 X119.336 Y66.96 E14.35416
G1 X121.869 Y67.23 E14.43889
G1 X122.283 Y67.291 E14.4528
G1 X125.323 Y67.865 E14.5557
G1 X125.662 Y67.941 E14.56726
G1 X127.917 Y68.525 E14.64473
G1 X128.276 Y68.632 E14.65719
G1 X132.969 Y70.216 E14.82193
G1 X133.155 Y70.283 E14.82851
G1 X142.534 Y73.851 E15.16227
G1 X142.702 Y73.918 E15.16828
G1 X149.645 Y76.84 E15.41882
G1 X149.954 Y76.982 E15.43013
G1 X152.785 Y78.398 E15.53542
G1 X153.135 Y78.59 E15.54869
G1 X155.688 Y80.122 E15.64772
G1 X156.005 Y80.329 E15.66031
G1 X158.412 Y82.023 E15.75821
G1 X158.707 Y82.246 E15.77051
G1 X161.115 Y84.211 E15.87388
G1 X161.382 Y84.445 E15.88569
G1 X163.612 Y86.534 E15.98732
G1 X163.912 Y86.839 E16.00155
G1 X167.169 Y90.436 E16.16294
G1 X167.421 Y90.736 E16.17597
G1 X169.306 Y93.163 E16.27818
G1 X169.467 Y93.382 E16.28723
G1 X171.539 Y96.359 E16.40786
G1 X171.674 Y96.563 E16.416
G1 X173.831 Y99.995 E16.55082
G1 X173.964 Y100.22 E16.55951
G1 X175.965 Y103.791 E16.69566
G1 X176.093 Y104.033 E16.70477
G1 X177.903 Y107.704 E16.8409
G1 X178.016 Y107.95 E16.8499
G1 X179.589 Y111.608 E16.98234
G1 X179.672 Y111.813 E16.9897
G1 X180.602 Y114.257 E17.07667
G1 X180.679 Y114.474 E17.08433
G1 X181.949 Y118.316 E17.21891
G1 X182.028 Y118.579 E17.22805
G1 X183.076 Y122.418 E17.36041
G1 X183.143 Y122.688 E17.36966
G1 X183.836 Y125.893 E17.47872
G1 X183.916 Y126.374 E17.49494
G1 X184.589 Y131.996 E17.68326
G1 X184.616 Y132.929 E17.71431
G1 X184.405 Y136.404 E17.8301
G1 X184.35 Y136.911 E17.84706
G1 X183.876 Y139.872 E17.9468
G1 X183.789 Y140.299 E17.96129
G1 X183.27 Y142.396 E18.03314
G1 X183.133 Y142.857 E18.04914
G1 X181.967 Y146.205 E18.16705
G1 X181.785 Y146.658 E18.18329
G1 X180.63 Y149.183 E18.27564
G1 X180.466 Y149.51 E18.28781
G1 X179.36 Y151.538 E18.36464
G1 X179.198 Y151.815 E18.37531
G1 X177.793 Y154.051 E18.46314
G1 X177.543 Y154.413 E18.47778
G1 X175.698 Y156.862 E18.57976
G1 X175.508 Y157.1 E18.58989
G1 X174.655 Y158.104 E18.63371
G1 X174.486 Y158.294 E18.64216
G1 X173.045 Y159.831 E18.71224
G1 X172.726 Y160.142 E18.72706
G1 X171.525 Y161.221 E18.78075
G1 X170.999 Y161.636 E18.80304
G1 X169.528 Y162.649 E18.86244
G1 X168.993 Y162.972 E18.88323
G1 X167.581 Y163.712 E18.93625
G1 X166.99 Y163.976 E18.95778
G1 X164.652 Y164.851 E19.04081
G1 X164.119 Y165.019 E19.0594
G1 X161.619 Y165.659 E19.14523
G1 X161.153 Y165.755 E19.16105
G1 X155.15 Y166.718 E19.36327
G1 X154.857 Y166.757 E19.3731
G1 X151.429 Y167.109 E19.48771
G1 X151.02 Y167.135 E19.50134
G1 X147.564 Y167.216 E19.61632
G1 X147.225 Y167.212 E19.6276
G1 X143.324 Y167.049 E19.75746
G1 X143.049 Y167.031 E19.76663
G1 X138.808 Y166.628 E19.90832
G1 X138.441 Y166.58 E19.92063
G1 X130.606 Y165.267 E20.18486
G1 X125.29 Y164.625 E20.36295
G1 X119.917 Y164.283 E20.54202
G1 X114.567 Y164.244 E20.71997
G1 X109.207 Y164.51 E20.89846
G1 X103.866 Y165.079 E21.07711
G1 X98.536 Y165.953 E21.25675
G1 X88.267 Y167.986 E21.60493
G1 X87.628 Y168.072 E21.62637
G1 X86.99 Y168.078 E21.64759
G1 X79.669 Y167.701 E21.89141
G1 X79.584 Y167.696 E21.89425
G1 X71.633 Y167.157 E22.1593
G1 X70.994 Y167.074 E22.18074
G1 X70.37 Y166.912 E22.20218
G1 X70.051 Y166.796 E22.21347
G1 X67.408 Y165.737 E22.30817
G1 X66.83 Y165.463 E22.32944
G1 X65.048 Y164.48 E22.39713
G1 X64.586 Y164.193 E22.41522
G1 X63.064 Y163.132 E22.47693
G1 X62.604 Y162.771 E22.49638
G1 X60.824 Y161.206 E22.57521
G1 X60.446 Y160.837 E22.59278
G1 X59.549 Y159.87 E22.63665
G1 X59.243 Y159.509 E22.65239
G1 X57.654 Y157.448 E22.73895
G1 X57.3 Y156.926 E22.75992
G1 X55.874 Y154.522 E22.85289
G1 X55.715 Y154.235 E22.8638
G1 X54.726 Y152.299 E22.93611
G1 X54.601 Y152.035 E22.94583
G1 X53.076 Y148.584 E23.07131
G1 X52.952 Y148.279 E23.08226
G1 X52.385 Y146.739 E23.13685
G1 X52.293 Y146.466 E23.14643
G1 X51.543 Y144.02 E23.23152
G1 X51.453 Y143.685 E23.24306
G1 X51.023 Y141.854 E23.30561
G1 X50.96 Y141.543 E23.31617
G1 X50.671 Y139.856 E23.3731
G1 X50.615 Y139.425 E23.38755
G1 X50.4 Y136.933 E23.47074
G1 X50.382 Y136.391 E23.48878
G1 X50.429 Y133.814 E23.57451
G1 X50.462 Y133.32 E23.59097
G1 X50.693 Y131.295 E23.65876
G1 X50.759 Y130.871 E23.67303
G1 X51.144 Y128.932 E23.73878
G1 X51.205 Y128.66 E23.74806
G1 X52.754 Y122.587 E23.95651
G1 X52.785 Y122.473 E23.96044
G1 X53.731 Y119.087 E24.07737
G1 X53.774 Y118.94 E24.08247
G1 X54.845 Y115.5 E24.2023
G1 X54.921 Y115.275 E24.2102
G1 X56.27 Y111.55 E24.34197
G1 X56.493 Y111.026 E24.36091
G1 X57.456 Y109.068 E24.43348
G1 X57.639 Y108.727 E24.44635
G1 X58.725 Y106.88 E24.51762
G1 X58.951 Y106.529 E24.5315
G1 X60.571 Y104.22 E24.62531
G1 X60.815 Y103.9 E24.6387
G1 X62.555 Y101.789 E24.72969
G1 X62.761 Y101.554 E24.74008
G1 X64.795 Y99.368 E24.83939
G1 X64.973 Y99.186 E24.84786
G1 X68.477 Y95.772 E25.01058
G1 X68.594 Y95.661 E25.01594
G1 X72.222 Y92.338 E25.17957
G1 X72.382 Y92.197 E25.18667
G1 X76.135 Y89.033 E25.34993
M204 S5000
M205 X30 Y30
G1 F1500 E20.34993
G1 F300 Z0.4
;MESH:logo_04.stl
G0 F3600 X128.487 Y141.593 Z0.4
M204 S500
M205 X20 Y20
;TYPE:WALL-INNER
G1 F300 Z0.2
G1 F1500 E25.34993
G1 F2400 X128.732 Y141.713 E25.35901
G1 X130.675 Y142.667 E25.431
G1 X133.406 Y144.034 E25.53258
G1 X136.21 Y145.328 E25.63529
G1 X137.504 Y145.845 E25.68164
G1 X138.823 Y146.285 E25.72788
G1 X140.154 Y146.658 E25.77386
G1 X141.497 Y146.972 E25.81973
G1 X144.165 Y147.459 E25.90994
G1 X146.799 Y147.833 E25.99842
G1 X147.872 Y147.945 E26.0343
G1 X148.956 Y147.996 E26.0704
G1 X149.943 Y147.967 E26.10324
G1 X150.908 Y147.881 E26.13546
G1 X151.856 Y147.737 E26.16736
G1 X152.786 Y147.536 E26.199
G1 X153.698 Y147.28 E26.23051
G1 X154.589 Y146.966 E26.26193
G1 X155.459 Y146.598 E26.29335
G1 X156.305 Y146.174 E26.32482
G1 X157.127 Y145.697 E26.35643
G1 X157.923 Y145.165 E26.38827
G1 X158.693 Y144.581 E26.42042
G1 X159.435 Y143.944 E26.45294
G1 X160.147 Y143.256 E26.48587
G1 X160.83 Y142.516 E26.51937
G1 X161.481 Y141.726 E26.55342
G1 X162.106 Y140.88 E26.5884
G1 X162.987 Y139.467 E26.64378
G1 X163.725 Y137.978 E26.69906
G1 X164.322 Y136.409 E26.75489
G1 X164.777 Y134.749 E26.81214
G1 X165.096 Y132.988 E26.87166
G1 X165.279 Y131.113 E26.93432
G1 X165.328 Y129.118 E27.0007
G1 X165.251 Y126.985 E27.07169
G1 X165.099 Y125.312 E27.12756
G1 X164.843 Y123.63 E27.18415
G1 X164.482 Y121.935 E27.24179
G1 X164.016 Y120.219 E27.30093
G1 X163.442 Y118.475 E27.362
G1 X162.759 Y116.694 E27.42544
G1 X161.966 Y114.87 E27.49159
G1 X161.064 Y113.003 E27.56055
G1 X160.803 Y112.427 E27.58159
G1 X160.407 Y111.616 E27.61161
G1 X159.974 Y110.833 E27.64137
G1 X159.48 Y110.141 E27.66964
G1 X159.177 Y109.823 E27.68425
G1 X158.239 Y109.089 E27.72387
G1 X157.679 Y108.567 E27.74933
G1 X157.186 Y108.021 E27.7738
G1 X156.755 Y107.458 E27.79738
G1 X156.01 Y106.258 E27.84436
G1 X154.768 Y103.757 E27.93723
G1 X154.028 Y102.508 E27.98552
G1 X153.186 Y101.299 E28.03452
G1 X152.241 Y100.126 E28.08462
G1 X151.189 Y98.985 E28.13624
G1 X150.027 Y97.869 E28.18983
G1 X148.753 Y96.772 E28.24574
G1 X147.36 Y95.689 E28.30443
G1 X145.394 Y94.315 E28.38421
G1 X143.349 Y93.03 E28.46454
G1 X141.226 Y91.831 E28.54563
G1 X139.02 Y90.716 E28.62784
G1 X136.731 Y89.685 E28.71134
G1 X134.356 Y88.735 E28.79642
G1 X131.893 Y87.865 E28.8833
G1 X129.339 Y87.077 E28.9722
G1 X127.17 Y86.482 E29.047
G1 X125.072 Y85.963 E29.11889
G1 X123.006 Y85.55 E29.18896
G1 X120.937 Y85.281 E29.25836
G1 X118.939 Y85.226 E29.32484
G1 X116.931 Y85.365 E29.39178
G1 X114.921 Y85.702 E29.45957
G1 X113.902 Y85.947 E29.49443
G1 X112.886 Y86.24 E29.5296
G1 X111.866 Y86.583 E29.56539
G1 X110.844 Y86.976 E29.60181
G1 X109.818 Y87.418 E29.63896
G1 X108.789 Y87.91 E29.6769
G1 X107.755 Y88.454 E29.71576
G1 X106.716 Y89.047 E29.75555
G1 X105.671 Y89.691 E29.79637
G1 X104.629 Y90.382 E29.83796
G1 X101.663 Y92.378 E29.95687
G1 X98.791 Y94.368 E30.07308
G1 X96.015 Y96.377 E30.18705
G1 X93.34 Y98.432 E30.29925
G1 X90.769 Y100.555 E30.41014
G1 X88.308 Y102.771 E30.52029
G1 X85.962 Y105.106 E30.63038
G1 X83.742 Y107.577 E30.74086
G1 X81.963 Y109.646 E30.83162
G1 X79.423 Y112.635 E30.96208
G1 X78.204 Y114.205 E31.02819
G1 X77.074 Y115.82 E31.09375
G1 X76.16 Y117.325 E31.15231
G1 X75.326 Y118.832 E31.2096
G1 X74.571 Y120.349 E31.26596
G1 X73.894 Y121.873 E31.32142
G1 X73.297 Y123.408 E31.3762
G1 X72.778 Y124.95 E31.43032
G1 X72.338 Y126.498 E31.48384
G1 X71.979 Y128.057 E31.53705
G1 X71.698 Y129.621 E31.58991
G1 X71.499 Y131.193 E31.64261
G1 X71.379 Y132.77 E31.69521
G1 X71.341 Y134.354 E31.74791
G1 X71.381 Y135.943 E31.80078
G1 X71.503 Y137.537 E31.85395
G1 X71.705 Y139.137 E31.90759
G1 X71.989 Y140.743 E31.96183
G1 X72.299 Y142.049 E32.00648
G1 X72.757 Y143.398 E32.05386
G1 X73.385 Y144.729 E32.10281
G1 X73.781 Y145.388 E32.12838
G1 X74.227 Y146.019 E32.15408
G1 X74.733 Y146.622 E32.18026
G1 X75.299 Y147.19 E32.20693
G1 X75.93 Y147.717 E32.23428
G1 X76.627 Y148.192 E32.26233
G1 X77.393 Y148.612 E32.29139
G1 X78.23 Y148.969 E32.32165
G1 X79.14 Y149.258 E32.35341
G1 X80.119 Y149.468 E32.38671
G1 X81.512 Y149.66 E32.43348
G1 X82.933 Y149.783 E32.48092
G1 X84.389 Y149.838 E32.52938
G1 X85.885 Y149.824 E32.57914
G1 X87.42 Y149.741 E32.63027
G1 X88.999 Y149.589 E32.68303
G1 X90.624 Y149.365 E32.73759
G1 X92.299 Y149.068 E32.79417
G1 X93.894 Y148.715 E32.8485
G1 X95.447 Y148.288 E32.90207
G1 X96.95 Y147.802 E32.95461
G1 X98.405 Y147.271 E33.00613
G1 X99.804 Y146.706 E33.05631
