;FLAVOR:Marlin
;TIME:1131
;Filament used: 0.528333m
;Layer height: 0.2
;Generated with Cura_SteamEngine 3.6.0
M140 S50
M105
M190 S50
M104 S210
M105
M109 S210
M82 ;absolute extrusion mode
; Ender 3 Custom Start G-code
G28 ; Home all axes
G92 E0 ; Reset Extruder
G1 Z2.0 F3000 ; Move Z Axis up little to prevent scratching of Heat Bed
G1 X0.1 Y20 Z0.3 F5000.0 ; Move to start position
G1 X0.1 Y200.0 Z0.3 F1500.0 E15 ; Draw the first line
G1 X0.4 Y200.0 Z0.3 F5000.0 ; Move to side a little
G1 X0.4 Y20 Z0.3 F1500.0 E30 ; Draw the second line
G92 E0 ; Reset Extruder
G1 Z2.0 F3000 ; Move Z Axis up little to prevent scratching of Heat Bed
G90 ; absolute xyz﻿
G92 E0
G1 F1500 E-5
;LAYER_COUNT:3
;LAYER:0
M107
M204 S5000
M205 X30 Y30
G0 F3600 X94.851 Y81.49 Z0.2
M204 S500
M205 X20 Y20
;TYPE:SKIRT
G1 F1500 E0
G1 F2400 X95.224 Y81.068 E0.01873
G1 X96.739 Y79.519 E0.0908
G1 X97.14 Y79.147 E0.10899
G1 X98.728 Y77.813 E0.17797
G1 X99.138 Y77.5 E0.19513
G1 X100.791 Y76.353 E0.26204
G1 X101.168 Y76.113 E0.27691
G1 X102.492 Y75.343 E0.32785
G1 X103.006 Y75.079 E0.34707
G1 X105.22 Y74.081 E0.42784
G1 X105.923 Y73.819 E0.4528
G1 X108.634 Y73.012 E0.54687
G1 X109.267 Y72.863 E0.5685
G1 X110.964 Y72.566 E0.6258
G1 X111.408 Y72.506 E0.64071
G1 X113.076 Y72.35 E0.69643
G1 X113.543 Y72.326 E0.71198
G1 X115.719 Y72.305 E0.78436
G1 X116.196 Y72.321 E0.80023
G1 X118.641 Y72.506 E0.88178
G1 X119.09 Y72.558 E0.89682
G1 X122.2 Y73.048 E1.00153
G1 X122.862 Y73.194 E1.02408
G1 X124.776 Y73.739 E1.09027
G1 X125.215 Y73.884 E1.10565
G1 X126.857 Y74.502 E1.164
G1 X127.281 Y74.682 E1.17932
G1 X128.981 Y75.487 E1.24188
G1 X129.423 Y75.721 E1.25852
G1 X130.666 Y76.452 E1.30648
G1 X131.003 Y76.666 E1.31976
G1 X132.396 Y77.625 E1.376
G1 X132.772 Y77.909 E1.39168
G1 X134.136 Y79.028 E1.45036
G1 X134.475 Y79.33 E1.46546
G1 X135.693 Y80.507 E1.52179
G1 X136.065 Y80.903 E1.53986
G1 X142.68 Y88.67 E1.87919
G1 X145.297 Y91.628 E2.01055
G1 X145.509 Y91.883 E2.02158
G1 X146.778 Y93.501 E2.08997
G1 X147.044 Y93.87 E2.1051
G1 X147.889 Y95.149 E2.15609
G1 X148.091 Y95.478 E2.16893
G1 X149.071 Y97.21 E2.23512
G1 X149.262 Y97.58 E2.24896
G1 X152.024 Y103.438 E2.46437
G1 X152.324 Y104.22 E2.49223
G1 X152.559 Y105.005 E2.51949
G1 X152.712 Y105.656 E2.54173
G1 X152.786 Y106.321 E2.56398
G1 X152.791 Y106.792 E2.57965
G1 X152.762 Y107.691 E2.60956
G1 X152.701 Y108.357 E2.63181
G1 X152.629 Y108.736 E2.64464
G1 X151.236 Y114.943 E2.85622
G1 X150.771 Y117.56 E2.94463
G1 X150.388 Y120.147 E3.03161
G1 X149.823 Y125.495 E3.21047
G1 X149.565 Y130.809 E3.38743
G1 X149.608 Y136.194 E3.56654
G1 X149.866 Y141.006 E3.72681
G1 X149.836 Y141.961 E3.75859
G1 X149.557 Y144.329 E3.8379
G1 X149.439 Y144.988 E3.86017
G1 X149.318 Y145.412 E3.87483
G1 X148.74 Y147.182 E3.93676
G1 X148.448 Y147.904 E3.96266
G1 X147.956 Y148.91 E3.99991
G1 X147.62 Y149.503 E4.02258
G1 X146.774 Y150.804 E4.0742
G1 X146.29 Y151.443 E4.10086
G1 X144.96 Y152.96 E4.16796
G1 X144.426 Y153.492 E4.19303
G1 X143.035 Y154.703 E4.25437
G1 X142.644 Y155.014 E4.27099
G1 X141.58 Y155.785 E4.31469
G1 X141.163 Y156.059 E4.33129
G1 X139.307 Y157.166 E4.40316
G1 X138.884 Y157.395 E4.41916
G1 X137.37 Y158.13 E4.47514
G1 X136.934 Y158.319 E4.49094
G1 X133.805 Y159.522 E4.60244
G1 X133.507 Y159.627 E4.61295
G1 X126.473 Y161.885 E4.85866
G1 X126.188 Y161.968 E4.86853
G1 X124.792 Y162.336 E4.91655
G1 X123.948 Y162.491 E4.94509
G1 X122.201 Y162.674 E5.00351
G1 X121.533 Y162.703 E5.02575
G1 X121.057 Y162.676 E5.04161
G1 X118.466 Y162.415 E5.12822
G1 X117.567 Y162.249 E5.15863
G1 X116.471 Y161.953 E5.19639
G1 X116.035 Y161.816 E5.21159
G1 X114.317 Y161.198 E5.27232
G1 X113.81 Y160.987 E5.29058
G1 X112.139 Y160.193 E5.35211
G1 X111.651 Y159.931 E5.37054
G1 X109.901 Y158.876 E5.4385
G1 X109.451 Y158.574 E5.45652
G1 X107.951 Y157.459 E5.51869
G1 X107.549 Y157.13 E5.53597
G1 X105.751 Y155.514 E5.61637
G1 X105.412 Y155.183 E5.63213
G1 X103.898 Y153.571 E5.70569
G1 X103.636 Y153.271 E5.71893
G1 X102.259 Y151.578 E5.79152
G1 X102.007 Y151.243 E5.80546
G1 X99.472 Y147.601 E5.95305
G1 X99.251 Y147.258 E5.96662
G1 X96.785 Y143.099 E6.12743
G1 X96.662 Y142.881 E6.13576
G1 X92.822 Y135.692 E6.40684
G1 X90.039 Y131.175 E6.5833
G1 X86.966 Y126.769 E6.76197
G1 X84.32 Y123.342 E6.90597
G1 X83.944 Y122.789 E6.92821
G1 X83.778 Y122.491 E6.93956
G1 X83.269 Y121.506 E6.97644
G1 X82.998 Y120.894 E6.9987
G1 X82.823 Y120.339 E7.01805
G1 X82.422 Y118.791 E7.07124
G1 X82.293 Y118.135 E7.09348
G1 X82.247 Y117.598 E7.1114
G1 X82.2 Y116.354 E7.15281
G1 X82.243 Y115.419 E7.18394
G1 X82.403 Y114.191 E7.22513
G1 X82.566 Y113.397 E7.25209
G1 X82.795 Y112.584 E7.28018
G1 X82.961 Y112.085 E7.29767
G1 X85.613 Y105.216 E7.54257
G1 X87.233 Y100.096 E7.72118
G1 X87.909 Y97.596 E7.80732
G1 X89.072 Y92.624 E7.97715
G1 X89.148 Y92.335 E7.98709
G1 X89.526 Y91.035 E8.03212
G1 X89.669 Y90.608 E8.0471
G1 X90.48 Y88.476 E8.12297
G1 X90.711 Y87.951 E8.14204
G1 X91.69 Y86.004 E8.21453
G1 X91.978 Y85.498 E8.23389
G1 X93.154 Y83.663 E8.30638
G1 X93.493 Y83.191 E8.32571
G1 X94.851 Y81.49 E8.3981
M204 S5000
M205 X30 Y30
G0 F3600 X95.163 Y81.74
M204 S500
M205 X20 Y20
G1 F2400 X95.509 Y81.348 E8.41549
G1 X97.024 Y79.799 E8.48756
G1 X97.397 Y79.453 E8.50448
G1 X98.985 Y78.119 E8.57346
G1 X99.366 Y77.829 E8.58938
G1 X101.019 Y76.682 E8.6563
G1 X101.369 Y76.459 E8.67011
G1 X102.693 Y75.689 E8.72105
G1 X103.17 Y75.443 E8.7389
G1 X105.384 Y74.445 E8.81967
G1 X106.037 Y74.202 E8.84285
G1 X108.748 Y73.395 E8.93692
G1 X109.336 Y73.257 E8.95701
G1 X111.033 Y72.96 E9.01431
G1 X111.445 Y72.905 E9.02814
G1 X113.113 Y72.749 E9.08386
G1 X113.547 Y72.726 E9.09831
G1 X115.723 Y72.705 E9.17069
G1 X116.165 Y72.72 E9.1854
G1 X118.61 Y72.905 E9.26695
G1 X119.027 Y72.953 E9.28091
G1 X122.137 Y73.443 E9.38563
G1 X122.752 Y73.579 E9.40658
G1 X124.666 Y74.124 E9.47277
G1 X125.074 Y74.258 E9.48705
G1 X126.716 Y74.876 E9.54541
G1 X127.109 Y75.043 E9.55961
G1 X128.809 Y75.848 E9.62217
G1 X129.22 Y76.066 E9.63764
G1 X130.463 Y76.797 E9.6856
G1 X130.776 Y76.996 E9.69794
G1 X132.169 Y77.955 E9.75419
G1 X132.518 Y78.218 E9.76873
G1 X133.882 Y79.337 E9.82741
G1 X134.197 Y79.618 E9.84145
G1 X135.415 Y80.795 E9.89778
G1 X135.761 Y81.162 E9.91456
G1 X142.384 Y88.939 E10.25431
G1 X144.998 Y91.893 E10.3855
G1 X145.195 Y92.13 E10.39575
G1 X146.464 Y93.748 E10.46414
G1 X146.711 Y94.091 E10.4782
G1 X147.556 Y95.37 E10.52919
G1 X147.743 Y95.675 E10.54109
G1 X148.723 Y97.407 E10.60728
G1 X148.9 Y97.75 E10.62011
G1 X151.662 Y103.608 E10.83552
G1 X151.941 Y104.335 E10.86142
G1 X152.176 Y105.12 E10.88868
G1 X152.322 Y105.748 E10.91012
G1 X152.389 Y106.389 E10.93156
G1 X152.391 Y106.779 E10.94453
G1 X152.362 Y107.678 E10.97444
G1 X152.302 Y108.319 E10.99586
G1 X152.239 Y108.649 E11.00703
G1 X150.841 Y114.877 E11.21933
G1 X150.375 Y117.498 E11.30787
G1 X149.991 Y120.096 E11.39522
G1 X149.425 Y125.451 E11.57432
G1 X149.165 Y130.811 E11.7528
G1 X149.208 Y136.197 E11.93195
G1 X149.467 Y141.028 E12.09286
G1 X149.438 Y141.914 E12.12234
G1 X149.159 Y144.282 E12.20165
G1 X149.044 Y144.917 E12.22311
G1 X148.938 Y145.288 E12.23595
G1 X148.36 Y147.058 E12.29788
G1 X148.088 Y147.729 E12.32196
G1 X147.596 Y148.735 E12.3592
G1 X147.284 Y149.285 E12.38024
G1 X146.438 Y150.586 E12.43185
G1 X145.989 Y151.179 E12.45659
G1 X144.659 Y152.696 E12.52369
G1 X144.163 Y153.19 E12.54698
G1 X142.772 Y154.401 E12.60832
G1 X142.409 Y154.69 E12.62375
G1 X141.345 Y155.461 E12.66745
G1 X140.958 Y155.716 E12.68287
G1 X139.102 Y156.823 E12.75474
G1 X138.709 Y157.035 E12.7696
G1 X137.195 Y157.77 E12.82557
G1 X136.79 Y157.946 E12.84026
G1 X133.661 Y159.149 E12.95176
G1 X133.384 Y159.246 E12.96152
G1 X126.35 Y161.504 E13.20723
G1 X126.086 Y161.581 E13.21638
G1 X124.69 Y161.949 E13.26439
G1 X123.907 Y162.093 E13.29087
G1 X122.16 Y162.276 E13.3493
G1 X121.516 Y162.303 E13.37073
G1 X121.097 Y162.278 E13.38469
G1 X118.506 Y162.017 E13.47131
G1 X117.671 Y161.863 E13.49955
G1 X116.575 Y161.567 E13.53731
G1 X116.171 Y161.44 E13.55139
G1 X114.453 Y160.822 E13.61212
G1 X113.981 Y160.626 E13.62912
G1 X112.31 Y159.832 E13.69065
G1 X111.857 Y159.588 E13.70776
G1 X110.107 Y158.533 E13.77573
G1 X109.69 Y158.253 E13.79243
G1 X108.19 Y157.138 E13.8546
G1 X107.816 Y156.832 E13.87067
G1 X106.018 Y155.216 E13.95108
G1 X105.704 Y154.909 E13.96568
G1 X104.19 Y153.297 E14.03924
G1 X103.946 Y153.018 E14.05156
G1 X102.569 Y151.325 E14.12415
G1 X102.335 Y151.015 E14.13707
G1 X99.8 Y147.373 E14.28465
G1 X99.595 Y147.054 E14.29727
G1 X97.129 Y142.895 E14.45808
G1 X97.015 Y142.693 E14.4658
G1 X93.172 Y135.497 E14.73713
G1 X90.369 Y130.95 E14.91479
G1 X87.281 Y126.522 E15.09434
G1 X84.637 Y123.097 E15.23825
G1 X84.133 Y122.307 E15.26942
G1 X83.624 Y121.322 E15.3063
G1 X83.364 Y120.732 E15.32774
G1 X83.21 Y120.239 E15.34492
G1 X82.809 Y118.691 E15.39811
G1 X82.686 Y118.058 E15.41955
G1 X82.647 Y117.583 E15.4354
G1 X82.6 Y116.339 E15.47681
G1 X82.64 Y115.471 E15.50571
G1 X82.8 Y114.243 E15.5469
G1 X82.951 Y113.505 E15.57195
G1 X83.18 Y112.692 E15.60005
G1 X83.334 Y112.229 E15.61628
G1 X85.99 Y105.35 E15.86153
G1 X87.616 Y100.208 E16.0409
G1 X88.302 Y97.673 E16.12825
G1 X89.462 Y92.715 E16.29761
G1 X89.532 Y92.447 E16.30682
G1 X89.91 Y91.147 E16.35185
G1 X90.043 Y90.75 E16.36578
G1 X90.854 Y88.618 E16.44164
G1 X91.068 Y88.131 E16.45934
G1 X92.047 Y86.184 E16.53182
G1 X92.315 Y85.714 E16.54981
G1 X93.491 Y83.879 E16.6223
G1 X93.805 Y83.441 E16.64023
G1 X95.163 Y81.74 E16.71262
M204 S5000
M205 X30 Y30
G1 F1500 E11.71262
G1 F300 Z0.4
;MESH:e_04.stl
G0 F3600 X94.431 Y109.21 Z0.4
M204 S500
M205 X20 Y20
;TYPE:WALL-INNER
G1 F300 Z0.2
G1 F1500 E16.71262
G1 F2400 X94.596 Y108.149 E16.74834
G1 X94.682 Y107.336 E16.77553
G1 X94.731 Y106.507 E16.80315
G1 X94.747 Y105.651 E16.83162
G1 X94.587 Y102.53 E16.93556
G1 X94.492 Y101 E16.98655
G1 X94.432 Y99.466 E17.03761
G1 X94.458 Y97.948 E17.08811
G1 X94.512 Y97.223 E17.11229
G1 X94.608 Y96.457 E17.13796
G1 X94.802 Y95.343 E17.17557
G1 X95.042 Y94.272 E17.21208
G1 X95.341 Y93.182 E17.24967
G1 X95.678 Y92.157 E17.28556
G1 X96.061 Y91.16 E17.32108
G1 X96.5 Y90.173 E17.35701
G1 X96.98 Y89.225 E17.39235
G1 X97.512 Y88.297 E17.42793
G1 X98.066 Y87.435 E17.46201
G1 X98.684 Y86.577 E17.49718
G1 X99.352 Y85.742 E17.53275
G1 X100.066 Y84.941 E17.56843
G1 X100.818 Y84.179 E17.60404
G1 X101.607 Y83.456 E17.63964
G1 X102.451 Y82.757 E17.67608
G1 X103.338 Y82.094 E17.71292
G1 X103.972 Y81.656 E17.73855
G1 X104.638 Y81.234 E17.76477
G1 X105.28 Y80.863 E17.78943
G1 X105.968 Y80.501 E17.81529
G1 X106.647 Y80.179 E17.84028
G1 X107.35 Y79.879 E17.86571
G1 X108.056 Y79.612 E17.89081
G1 X108.769 Y79.374 E17.91581
G1 X110.235 Y78.982 E17.96628
G1 X111.746 Y78.704 E18.01738
G1 X113.314 Y78.535 E18.06984
G1 X114.919 Y78.479 E18.12325
G1 X116.357 Y78.522 E18.1711
G1 X117.864 Y78.649 E18.2214
G1 X119.437 Y78.852 E18.27415
G1 X121.063 Y79.126 E18.329
G1 X121.881 Y79.329 E18.35703
G1 X122.673 Y79.558 E18.38445
G1 X123.481 Y79.825 E18.41275
G1 X124.255 Y80.115 E18.44025
G1 X124.999 Y80.429 E18.4671
G1 X125.748 Y80.781 E18.49463
G1 X126.465 Y81.154 E18.52151
G1 X127.187 Y81.57 E18.54923
G1 X127.878 Y82.006 E18.5764
G1 X128.545 Y82.466 E18.60335
G1 X129.208 Y82.964 E18.63093
G1 X129.839 Y83.481 E18.65806
G1 X130.465 Y84.038 E18.68593
G1 X131.063 Y84.612 E18.7135
G1 X131.641 Y85.214 E18.74126
G1 X132.215 Y85.864 E18.7701
G1 X133.601 Y87.493 E18.84124
G1 X134.934 Y89.111 E18.91096
G1 X137.572 Y92.242 E19.04714
G1 X138.919 Y93.801 E19.11566
G1 X140.286 Y95.31 E19.18339
G1 X141.145 Y96.306 E19.22713
G1 X141.921 Y97.34 E19.27013
G1 X142.624 Y98.404 E19.31254
G1 X143.281 Y99.518 E19.35556
G1 X143.887 Y100.652 E19.39833
G1 X144.448 Y101.782 E19.44029
G1 X145.512 Y104.084 E19.52463
G1 X146.483 Y106.208 E19.60231
G1 X146.553 Y106.389 E19.60877
G1 X146.592 Y106.549 E19.61424
G1 X146.624 Y106.967 E19.62819
G1 X146.583 Y107.41 E19.64298
G1 X146.471 Y107.878 E19.65899
G1 X146.305 Y108.334 E19.67513
G1 X146.101 Y108.751 E19.69057
G1 X145.879 Y109.1 E19.70433
G1 X145.665 Y109.353 E19.71535
G1 X145.394 Y109.566 E19.72681
G1 X145.033 Y109.778 E19.74074
G1 X144.593 Y109.973 E19.75674
G1 X144.126 Y110.119 E19.77302
G1 X143.653 Y110.204 E19.789
G1 X143.207 Y110.217 E19.80384
G1 X142.815 Y110.151 E19.81706
G1 X142.66 Y110.096 E19.82253
G1 X142.492 Y110.006 E19.82887
G1 X141.361 Y109.276 E19.87364
G1 X140.242 Y108.442 E19.92006
G1 X139.178 Y107.522 E19.96685
G1 X138.184 Y106.515 E20.01391
G1 X136.302 Y104.416 E20.10767
G1 X131.965 Y99.48 E20.32621
G1 X130.676 Y98.082 E20.38946
G1 X129.363 Y96.715 E20.4525
G1 X128.213 Y95.614 E20.50546
G1 X127.054 Y94.608 E20.5565
G1 X125.889 Y93.698 E20.60567
G1 X124.711 Y92.883 E20.65331
G1 X123.519 Y92.163 E20.69963
G1 X122.307 Y91.541 E20.74494
G1 X121.078 Y91.014 E20.78942
G1 X119.827 Y90.587 E20.83338
G1 X119.142 Y90.404 E20.85696
G1 X118.477 Y90.278 E20.87947
G1 X117.833 Y90.208 E20.90102
G1 X117.211 Y90.197 E20.92171
G1 X116.614 Y90.242 E20.94162
G1 X116.041 Y90.345 E20.96099
G1 X115.497 Y90.509 E20.97988
G1 X114.981 Y90.734 E20.99861
G1 X114.482 Y91.041 E21.01809
G1 X114.021 Y91.41 E21.03773
G1 X113.597 Y91.839 E21.0578
G1 X113.21 Y92.325 E21.07846
G1 X112.862 Y92.87 E21.09997
G1 X112.552 Y93.467 E21.12234
G1 X112.278 Y94.118 E21.14583
G1 X112.04 Y94.824 E21.17061
G1 X111.775 Y95.817 E21.20479
G1 X111.576 Y96.815 E21.23864
G1 X111.43 Y97.818 E21.27235
G1 X111.331 Y98.827 E21.30607
G1 X111.237 Y100.841 E21.37313
G1 X111.221 Y102.88 E21.44095
G1 X111.227 Y105.284 E21.52091
G1 X111.277 Y106.05 E21.54644
G1 X111.373 Y106.779 E21.5709
G1 X111.518 Y107.475 E21.59454
G1 X111.711 Y108.139 E21.61754
G1 X111.957 Y108.768 E21.64001
G1 X112.254 Y109.366 E21.66221
G1 X112.607 Y109.931 E21.68437
G1 X113.012 Y110.461 E21.70656
G1 X113.469 Y110.959 E21.72904
G1 X113.978 Y111.424 E21.75197
G1 X114.54 Y111.86 E21.77563
G1 X115.155 Y112.266 E21.80014
G1 X115.82 Y112.645 E21.82559
G1 X116.539 Y113.001 E21.85228
G1 X117.313 Y113.334 E21.8803
G1 X118.03 Y113.601 E21.90575
G1 X119.281 Y114.106 E21.95062
G1 X120.514 Y114.648 E21.99542
G1 X121.724 Y115.258 E22.04049
G1 X122.871 Y115.952 E22.08508
G1 X123.841 Y116.654 E22.1249
G1 X124.791 Y117.42 E22.16549
G1 X125.723 Y118.235 E22.20667
G1 X128.089 Y120.421 E22.31381
G1 X129.401 Y121.563 E22.37166
G1 X130.722 Y122.655 E22.42867
G1 X132.281 Y123.972 E22.49655
G1 X133.842 Y125.321 E22.56517
G1 X135.364 Y126.719 E22.6339
G1 X136.076 Y127.422 E22.66718
G1 X136.775 Y128.155 E22.70087
G1 X137.658 Y129.163 E22.74544
G1 X138.476 Y130.186 E22.789
G1 X139.243 Y131.229 E22.83206
G1 X139.971 Y132.293 E22.87494
G1 X140.634 Y133.33 E22.91588
G1 X141.256 Y134.355 E22.95576
G1 X141.829 Y135.348 E22.99389
G1 X142.349 Y136.282 E23.02945
G1 X142.759 Y137.115 E23.06033
G1 X143.1 Y137.971 E23.09097
G1 X143.358 Y138.813 E23.12026
G1 X143.545 Y139.68 E23.14976
G1 X143.653 Y140.527 E23.17816
G1 X143.686 Y141.408 E23.20748
G1 X143.637 Y142.269 E23.23617
G1 X143.51 Y143.14 E23.26544
G1 X143.244 Y144.195 E23.30163
G1 X142.874 Y145.21 E23.33756
G1 X142.402 Y146.176 E23.37332
G1 X141.818 Y147.11 E23.40996
G1 X141.136 Y147.991 E23.44702
G1 X140.327 Y148.855 E23.48638
G1 X139.393 Y149.696 E23.52819
G1 X138.358 Y150.49 E23.57157
G1 X137.21 Y151.243 E23.61724
G1 X136.036 Y151.902 E23.66202
G1 X134.826 Y152.487 E23.70672
G1 X133.603 Y153.004 E23.75088
G1 X132.338 Y153.477 E23.7958
G1 X131.081 Y153.903 E23.83994
G1 X128.521 Y154.696 E23.92908
G1 X126.432 Y155.364 E24.00203
G1 X124.387 Y156.049 E24.07376
G1 X123.865 Y156.217 E24.092
G1 X123.348 Y156.326 E24.10957
G1 X122.862 Y156.386 E24.12586
G1 X122.352 Y156.418 E24.14285
G1 X121.483 Y156.521 E24.17196
G1 X121.419 Y156.521 E24.17409
G1 X121.055 Y156.465 E24.18634
G1 X120.674 Y156.444 E24.19903
G1 X119.913 Y156.382 E24.22442
G1 X119.169 Y156.27 E24.24945
G1 X118.303 Y156.039 E24.27926
G1 X117.432 Y155.76 E24.30968
G1 X116.61 Y155.451 E24.33888
G1 X115.769 Y155.085 E24.36939
G1 X114.941 Y154.676 E24.40011
G1 X114.154 Y154.236 E24.4301
G1 X113.345 Y153.732 E24.4618
G1 X112.57 Y153.198 E24.4931
G1 X111.793 Y152.608 E24.52555
G1 X111.041 Y151.982 E24.55809
G1 X110.29 Y151.301 E24.59181
G1 X109.557 Y150.58 E24.62601
