;FLAVOR:Marlin
;TIME:525
;Filament used: 0.24203m
;Layer height: 0.2
;Generated with Cura_SteamEngine 3.6.0
M140 S50
M105
M190 S50
M104 S210
M105
M109 S210
M82 ;absolute extrusion mode
; Ender 3 Custom Start G-code
G28 ; Home all axes
G92 E0 ; Reset Extruder
G1 Z2.0 F3000 ; Move Z Axis up little to prevent scratching of Heat Bed
G1 X0.1 Y20 Z0.3 F5000.0 ; Move to start position
G1 X0.1 Y200.0 Z0.3 F1500.0 E15 ; Draw the first line
G1 X0.4 Y200.0 Z0.3 F5000.0 ; Move to side a little
G1 X0.4 Y20 Z0.3 F1500.0 E30 ; Draw the second line
G92 E0 ; Reset Extruder
G1 Z2.0 F3000 ; Move Z Axis up little to prevent scratching of Heat Bed
G90 ; absolute xyz﻿
G92 E0
G1 F1500 E-5
;LAYER_COUNT:3
;LAYER:0
M107
M204 S5000
M205 X30 Y30
G0 F3600 X95.751 Y84.879 Z0.2
M204 S500
M205 X20 Y20
;TYPE:SKIRT
G1 F1500 E0
G1 F2400 X96.637 Y83.944 E0.04284
G1 X97.128 Y83.484 E0.06522
G1 X98.203 Y82.593 E0.11166
G1 X98.777 Y82.176 E0.13526
G1 X99.931 Y81.444 E0.18071
G1 X100.577 Y81.092 E0.20518
G1 X101.874 Y80.491 E0.25272
G1 X102.703 Y80.184 E0.28213
G1 X104.643 Y79.635 E0.34918
G1 X105.297 Y79.491 E0.37146
G1 X105.639 Y79.448 E0.38292
G1 X107.875 Y79.236 E0.45763
G1 X108.641 Y79.216 E0.48311
G1 X110.77 Y79.306 E0.55399
G1 X111.451 Y79.377 E0.57676
G1 X114.413 Y79.869 E0.67662
G1 X114.727 Y79.93 E0.68726
G1 X118.973 Y80.888 E0.83204
G1 X124.214 Y81.788 E1.0089
G1 X129.562 Y82.398 E1.18793
G1 X132.156 Y82.583 E1.27443
G1 X138.081 Y82.792 E1.47162
G1 X139.045 Y82.911 E1.50392
G1 X140.451 Y83.209 E1.55173
G1 X141.159 Y83.408 E1.57619
G1 X141.673 Y83.59 E1.59432
G1 X142.392 Y83.903 E1.6204
G1 X143.839 Y84.657 E1.67467
G1 X144.651 Y85.174 E1.70669
G1 X145.741 Y86.007 E1.75232
G1 X146.213 Y86.411 E1.77298
G1 X146.798 Y86.971 E1.79992
G1 X147.198 Y87.396 E1.81933
G1 X148.497 Y88.929 E1.88616
G1 X148.889 Y89.45 E1.90785
G1 X149.798 Y90.818 E1.96248
G1 X150.147 Y91.422 E1.98568
G1 X150.799 Y92.732 E2.03435
G1 X151.112 Y93.497 E2.06184
G1 X151.68 Y95.246 E2.123
G1 X151.879 Y96.06 E2.15087
G1 X152.046 Y97.067 E2.18482
G1 X152.121 Y98.041 E2.21731
G1 X152.102 Y99.87 E2.27815
G1 X152.055 Y100.538 E2.30042
G1 X151.993 Y100.909 E2.31293
G1 X151.815 Y101.8 E2.34315
G1 X151.652 Y102.426 E2.36467
G1 X151.227 Y103.74 E2.4106
G1 X150.95 Y104.435 E2.43548
G1 X150.19 Y106.023 E2.49404
G1 X149.78 Y106.739 E2.52148
G1 X148.283 Y108.956 E2.61045
G1 X147.844 Y109.524 E2.63433
G1 X146.852 Y110.65 E2.68424
G1 X146.493 Y111.021 E2.70141
G1 X145.517 Y111.942 E2.74605
G1 X145.278 Y112.155 E2.7567
G1 X142.454 Y114.529 E2.8794
G1 X138.495 Y118.183 E3.05859
G1 X134.79 Y122.012 E3.2358
G1 X129.213 Y128.541 E3.5214
G1 X128.803 Y128.972 E3.54118
G1 X127.787 Y129.933 E3.5877
G1 X127.22 Y130.403 E3.61219
G1 X125.349 Y131.756 E3.68899
G1 X124.718 Y132.151 E3.71375
G1 X123.765 Y132.663 E3.74973
G1 X123.275 Y132.896 E3.76778
G1 X122.328 Y133.292 E3.80192
G1 X121.551 Y133.553 E3.82918
G1 X119.801 Y133.999 E3.88924
G1 X118.954 Y134.146 E3.91784
G1 X118.081 Y134.23 E3.94701
G1 X117.408 Y134.254 E3.9694
G1 X116.345 Y134.228 E4.00477
G1 X115.53 Y134.149 E4.032
G1 X114.469 Y133.966 E4.06781
G1 X114.043 Y133.875 E4.0823
G1 X111.755 Y133.294 E4.16082
G1 X111.324 Y133.166 E4.17577
G1 X109.95 Y132.697 E4.22406
G1 X109.226 Y132.392 E4.25019
G1 X108.38 Y131.963 E4.28174
G1 X107.803 Y131.625 E4.30398
G1 X107.362 Y131.298 E4.32224
G1 X106.207 Y130.351 E4.37192
G1 X105.569 Y129.737 E4.40137
G1 X105.042 Y129.143 E4.42778
G1 X104.608 Y128.588 E4.45121
G1 X103.347 Y126.744 E4.52551
G1 X102.97 Y126.106 E4.55016
G1 X102.03 Y124.243 E4.61957
G1 X101.781 Y123.672 E4.64028
G1 X101.463 Y122.817 E4.67062
G1 X101.342 Y122.455 E4.68332
G1 X99.938 Y117.713 E4.84781
G1 X98.174 Y112.676 E5.02531
G1 X96.103 Y107.691 E5.20486
G1 X95.006 Y105.336 E5.29126
G1 X93.615 Y102.598 E5.39341
G1 X93.569 Y102.504 E5.39689
G1 X92.656 Y100.62 E5.46652
G1 X92.335 Y99.801 E5.49578
G1 X91.98 Y98.629 E5.53651
G1 X91.825 Y97.979 E5.55873
G1 X91.747 Y97.283 E5.58203
G1 X91.643 Y95.185 E5.65189
G1 X91.64 Y94.699 E5.66806
G1 X91.677 Y93.708 E5.70104
G1 X91.798 Y92.742 E5.73342
G1 X91.937 Y92.094 E5.75547
G1 X92.144 Y91.368 E5.78058
G1 X92.795 Y89.564 E5.84436
G1 X93.179 Y88.726 E5.87502
G1 X94.014 Y87.237 E5.9318
G1 X94.391 Y86.653 E5.95492
G1 X95.309 Y85.408 E6.00637
G1 X95.751 Y84.879 E6.0293
M204 S5000
M205 X30 Y30
G0 F3600 X96.041 Y85.154
M204 S500
M205 X20 Y20
G1 F2400 X96.927 Y84.219 E6.07214
G1 X97.384 Y83.792 E6.09294
G1 X98.459 Y82.901 E6.13938
G1 X98.992 Y82.514 E6.16129
G1 X100.146 Y81.782 E6.20674
G1 X100.745 Y81.455 E6.22944
G1 X102.042 Y80.854 E6.27699
G1 X102.812 Y80.568 E6.30431
G1 X104.752 Y80.019 E6.37136
G1 X105.677 Y79.846 E6.40266
G1 X107.913 Y79.634 E6.47737
G1 X108.624 Y79.616 E6.50102
G1 X110.753 Y79.706 E6.5719
G1 X111.385 Y79.771 E6.59303
G1 X114.347 Y80.263 E6.69289
G1 X114.639 Y80.32 E6.70279
G1 X118.892 Y81.279 E6.8478
G1 X124.175 Y82.187 E7.02609
G1 X129.509 Y82.796 E7.20465
G1 X132.142 Y82.983 E7.29244
G1 X138.067 Y83.192 E7.48963
G1 X138.962 Y83.302 E7.51962
G1 X140.368 Y83.6 E7.56743
G1 X141.026 Y83.785 E7.59016
G1 X141.54 Y83.967 E7.6083
G1 X142.207 Y84.258 E7.6325
G1 X143.654 Y85.012 E7.68677
G1 X144.408 Y85.491 E7.71648
G1 X145.498 Y86.324 E7.76211
G1 X145.937 Y86.7 E7.78133
G1 X146.522 Y87.26 E7.80827
G1 X146.893 Y87.654 E7.82627
G1 X148.192 Y89.187 E7.8931
G1 X148.556 Y89.671 E7.91324
G1 X149.465 Y91.039 E7.96787
G1 X149.789 Y91.6 E7.98942
G1 X150.441 Y92.91 E8.03809
G1 X150.732 Y93.621 E8.06364
G1 X151.3 Y95.37 E8.1248
G1 X151.484 Y96.125 E8.15065
G1 X151.651 Y97.132 E8.1846
G1 X151.721 Y98.037 E8.21479
G1 X151.702 Y99.866 E8.27562
G1 X151.655 Y100.509 E8.29707
G1 X151.601 Y100.831 E8.30793
G1 X151.423 Y101.722 E8.33815
G1 X151.272 Y102.303 E8.35811
G1 X150.847 Y103.617 E8.40405
G1 X150.589 Y104.262 E8.42715
G1 X149.829 Y105.85 E8.48571
G1 X149.449 Y106.515 E8.51118
G1 X147.952 Y108.732 E8.60015
G1 X147.544 Y109.259 E8.62232
G1 X146.552 Y110.385 E8.67223
G1 X146.219 Y110.73 E8.68818
G1 X145.243 Y111.651 E8.73281
G1 X145.021 Y111.849 E8.74271
G1 X142.175 Y114.242 E8.86638
G1 X138.218 Y117.893 E9.04545
G1 X134.497 Y121.74 E9.22347
G1 X128.909 Y128.281 E9.5096
G1 X128.528 Y128.682 E9.528
G1 X127.512 Y129.643 E9.57451
G1 X126.986 Y130.079 E9.59724
G1 X125.115 Y131.432 E9.67403
G1 X124.529 Y131.799 E9.69703
G1 X123.576 Y132.311 E9.73301
G1 X123.121 Y132.527 E9.74976
G1 X122.174 Y132.923 E9.7839
G1 X121.452 Y133.165 E9.80923
G1 X119.702 Y133.611 E9.8693
G1 X118.916 Y133.748 E9.89583
G1 X118.043 Y133.832 E9.925
G1 X117.418 Y133.854 E9.9458
G1 X116.355 Y133.828 E9.98117
G1 X115.598 Y133.754 E10.00647
G1 X114.537 Y133.571 E10.04228
G1 X114.141 Y133.487 E10.05574
G1 X111.853 Y132.906 E10.13426
G1 X111.453 Y132.787 E10.14814
G1 X110.079 Y132.318 E10.19642
G1 X109.407 Y132.035 E10.22068
G1 X108.561 Y131.606 E10.25223
G1 X108.005 Y131.279 E10.27368
G1 X107.616 Y130.989 E10.28982
G1 X106.461 Y130.042 E10.33949
G1 X105.868 Y129.472 E10.36685
G1 X105.341 Y128.878 E10.39326
G1 X104.939 Y128.362 E10.41502
G1 X103.678 Y126.518 E10.48932
G1 X103.327 Y125.925 E10.51224
G1 X102.387 Y124.062 E10.58164
G1 X102.156 Y123.533 E10.60084
G1 X101.838 Y122.678 E10.63118
G1 X101.726 Y122.341 E10.64299
G1 X100.326 Y117.612 E10.80703
G1 X98.542 Y112.518 E10.98655
G1 X96.477 Y107.549 E11.16552
G1 X95.356 Y105.141 E11.25386
G1 X93.972 Y102.417 E11.35549
G1 X93.929 Y102.33 E11.35871
G1 X93.016 Y100.446 E11.42835
G1 X92.718 Y99.685 E11.45553
G1 X92.363 Y98.513 E11.49626
G1 X92.215 Y97.886 E11.51769
G1 X92.146 Y97.263 E11.53853
G1 X92.042 Y95.165 E11.6084
G1 X92.04 Y94.714 E11.6234
G1 X92.077 Y93.723 E11.65638
G1 X92.189 Y92.826 E11.68645
G1 X92.328 Y92.178 E11.70849
G1 X92.521 Y91.504 E11.73181
G1 X93.172 Y89.7 E11.7956
G1 X93.527 Y88.922 E11.82404
G1 X94.362 Y87.433 E11.88082
G1 X94.713 Y86.89 E11.90233
G1 X95.631 Y85.645 E11.95378
G1 X96.041 Y85.154 E11.97505
M204 S5000
M205 X30 Y30
G1 F1500 E6.97505
G1 F300 Z0.4
;MESH:dot_left_04.stl
G0 F3600 X108.686 Y105.213 Z0.4
M204 S500
M205 X20 Y20
;TYPE:WALL-INNER
G1 F300 Z0.2
G1 F1500 E11.97505
G1 F2400 X108.084 Y105.196 E11.99508
G1 X107.534 Y105.169 E12.0134
G1 X107.305 Y105.149 E12.02104
G1 X106.777 Y105.073 E12.03878
G1 X106.286 Y104.969 E12.05548
G1 X105.809 Y104.839 E12.07192
G1 X105.324 Y104.676 E12.08894
G1 X104.888 Y104.502 E12.10455
G1 X104.453 Y104.302 E12.12048
G1 X104.037 Y104.087 E12.13605
G1 X103.646 Y103.864 E12.15102
G1 X103.241 Y103.611 E12.16691
G1 X102.883 Y103.368 E12.1813
G1 X102.52 Y103.105 E12.19621
G1 X102.193 Y102.853 E12.20994
G1 X101.876 Y102.596 E12.22351
G1 X101.277 Y102.078 E12.24985
G1 X100.938 Y101.767 E12.26515
G1 X100.629 Y101.465 E12.27952
G1 X100.311 Y101.135 E12.29476
G1 X100.037 Y100.833 E12.30833
G1 X99.754 Y100.498 E12.32291
G1 X99.507 Y100.182 E12.33625
G1 X99.266 Y99.852 E12.34984
G1 X99.049 Y99.529 E12.36279
G1 X98.856 Y99.216 E12.37502
G1 X98.664 Y98.875 E12.38803
G1 X98.498 Y98.547 E12.40026
G1 X98.348 Y98.217 E12.41232
G1 X98.224 Y97.912 E12.42327
G1 X98.099 Y97.555 E12.43585
G1 X98 Y97.229 E12.44718
G1 X97.928 Y96.942 E12.45702
G1 X97.86 Y95.611 E12.50135
G1 X97.814 Y94.274 E12.54584
G1 X97.887 Y93.842 E12.56041
G1 X97.996 Y93.365 E12.57669
G1 X98.142 Y92.869 E12.59388
G1 X98.311 Y92.391 E12.61075
G1 X98.516 Y91.897 E12.62854
G1 X98.758 Y91.391 E12.64719
G1 X99.023 Y90.898 E12.66581
G1 X99.323 Y90.399 E12.68517
G1 X99.515 Y90.105 E12.69685
G1 X99.721 Y89.81 E12.70882
G1 X99.918 Y89.544 E12.71983
G1 X100.35 Y89.013 E12.7426
G1 X100.57 Y88.767 E12.75357
G1 X100.801 Y88.524 E12.76472
G1 X101.04 Y88.287 E12.77592
G1 X101.285 Y88.059 E12.78705
G1 X101.782 Y87.64 E12.80867
G1 X102.293 Y87.259 E12.82987
G1 X102.836 Y86.908 E12.85138
G1 X103.121 Y86.742 E12.86235
G1 X103.409 Y86.586 E12.87324
G1 X103.685 Y86.448 E12.8835
G1 X103.995 Y86.306 E12.89484
G1 X104.294 Y86.18 E12.90564
G1 X104.578 Y86.07 E12.91577
G1 X104.897 Y85.959 E12.927
G1 X105.197 Y85.864 E12.93747
G1 X105.531 Y85.77 E12.94901
G1 X105.833 Y85.695 E12.95936
G1 X106.176 Y85.621 E12.97103
G1 X106.496 Y85.562 E12.98185
G1 X106.819 Y85.513 E12.99272
G1 X107.171 Y85.47 E13.00451
G1 X107.505 Y85.439 E13.01567
G1 X107.847 Y85.417 E13.02707
G1 X108.198 Y85.405 E13.03875
G1 X109.296 Y85.422 E13.07527
G1 X109.869 Y85.448 E13.09435
G1 X110.44 Y85.486 E13.11338
G1 X110.996 Y85.539 E13.13196
G1 X111.567 Y85.612 E13.1511
G1 X112.126 Y85.701 E13.16993
G1 X112.687 Y85.814 E13.18896
G1 X113.22 Y85.946 E13.20723
G1 X113.786 Y86.113 E13.22686
G1 X114.306 Y86.295 E13.24518
G1 X114.842 Y86.517 E13.26448
G1 X115.355 Y86.764 E13.28341
G1 X115.852 Y87.043 E13.30237
G1 X116.098 Y87.196 E13.312
G1 X116.583 Y87.533 E13.33165
G1 X116.8 Y87.701 E13.34078
G1 X117.294 Y88.122 E13.36236
G1 X117.515 Y88.332 E13.3725
G1 X117.741 Y88.563 E13.38325
G1 X117.937 Y88.778 E13.39293
G1 X118.142 Y89.02 E13.40348
G1 X118.32 Y89.249 E13.41312
G1 X118.489 Y89.483 E13.42272
G1 X118.661 Y89.743 E13.43309
G1 X118.814 Y89.994 E13.44287
G1 X118.95 Y90.237 E13.45213
G1 X119.086 Y90.507 E13.46219
G1 X119.206 Y90.769 E13.47177
G1 X119.319 Y91.043 E13.48163
G1 X119.422 Y91.325 E13.49161
G1 X119.522 Y91.634 E13.50242
G1 X119.599 Y91.905 E13.51179
G1 X119.672 Y92.206 E13.52209
G1 X119.738 Y92.527 E13.53299
G1 X119.789 Y92.827 E13.54311
G1 X119.832 Y93.148 E13.55388
G1 X119.865 Y93.477 E13.56488
G1 X119.888 Y93.812 E13.57605
G1 X119.902 Y94.162 E13.5877
G1 X119.896 Y94.86 E13.61091
G1 X119.879 Y95.24 E13.62357
G1 X119.815 Y95.964 E13.64774
G1 X119.707 Y96.744 E13.67393
G1 X119.559 Y97.544 E13.70099
G1 X119.472 Y97.926 E13.71402
G1 X119.377 Y98.293 E13.72663
G1 X119.274 Y98.647 E13.73889
G1 X119.163 Y98.988 E13.75082
G1 X119.04 Y99.328 E13.76285
G1 X118.787 Y99.939 E13.78484
G1 X118.648 Y100.232 E13.79563
G1 X118.499 Y100.52 E13.80641
G1 X118.345 Y100.796 E13.81692
G1 X118.025 Y101.302 E13.83684
G1 X117.863 Y101.532 E13.84619
G1 X117.687 Y101.763 E13.85585
G1 X117.328 Y102.188 E13.87436
G1 X117.132 Y102.397 E13.88389
G1 X116.754 Y102.761 E13.90134
G1 X116.349 Y103.102 E13.91895
G1 X115.915 Y103.422 E13.93688
G1 X115.502 Y103.688 E13.95322
G1 X115.054 Y103.942 E13.97035
G1 X114.614 Y104.158 E13.98665
G1 X114.167 Y104.351 E14.00285
G1 X113.705 Y104.523 E14.01924
G1 X113.258 Y104.666 E14.03485
G1 X112.786 Y104.795 E14.05113
G1 X112.323 Y104.902 E14.06693
G1 X111.883 Y104.987 E14.08184
G1 X111.425 Y105.06 E14.09726
G1 X110.993 Y105.114 E14.11174
G1 X110.573 Y105.155 E14.12578
G1 X110.162 Y105.184 E14.13948
G1 X109.366 Y105.214 E14.16598
G1 X108.686 Y105.213 E14.18859
M204 S5000
M205 X30 Y30
G0 F3600 X108.687 Y105.114
G0 X113.673 Y104.429
G0 X113.833 Y104.902
M204 S500
M205 X20 Y20
;TYPE:WALL-OUTER
G1 F2400 X113.364 Y105.052 E14.20497
G1 X112.885 Y105.183 E14.22149
G1 X112.41 Y105.293 E14.23771
G1 X111.95 Y105.381 E14.25328
G1 X111.485 Y105.456 E14.26895
G1 X111.041 Y105.511 E14.28383
G1 X110.604 Y105.554 E14.29843
G1 X110.177 Y105.584 E14.31267
G1 X109.38 Y105.614 E14.3392
G1 X108.675 Y105.613 E14.36265
G1 X108.064 Y105.596 E14.38298
G1 X107.514 Y105.569 E14.40129
G1 X107.25 Y105.545 E14.41011
G1 X106.713 Y105.468 E14.42815
G1 X106.187 Y105.357 E14.44603
G1 X105.692 Y105.222 E14.4631
G1 X105.196 Y105.055 E14.4805
G1 X104.728 Y104.868 E14.49727
G1 X104.286 Y104.665 E14.51344
G1 X103.844 Y104.437 E14.52998
G1 X103.434 Y104.203 E14.54569
G1 X103.029 Y103.95 E14.56157
G1 X102.648 Y103.692 E14.57687
G1 X102.285 Y103.429 E14.59178
G1 X101.941 Y103.164 E14.60622
G1 X101.614 Y102.899 E14.62022
G1 X101.015 Y102.381 E14.64656
G1 X100.667 Y102.061 E14.66229
G1 X100.341 Y101.743 E14.67743
G1 X100.023 Y101.413 E14.69268
G1 X99.731 Y101.091 E14.70713
G1 X99.448 Y100.756 E14.72172
G1 X99.192 Y100.429 E14.73553
G1 X98.943 Y100.088 E14.74958
G1 X98.717 Y99.752 E14.76304
G1 X98.507 Y99.412 E14.77634
G1 X98.315 Y99.071 E14.78935
G1 X98.141 Y98.728 E14.80214
G1 X97.984 Y98.383 E14.81475
G1 X97.846 Y98.044 E14.82692
G1 X97.721 Y97.687 E14.83951
G1 X97.617 Y97.346 E14.85136
G1 X97.531 Y97.005 E14.86306
G1 X97.461 Y95.625 E14.90902
G1 X97.413 Y94.247 E14.95488
G1 X97.493 Y93.768 E14.97103
G1 X97.609 Y93.263 E14.98826
G1 X97.758 Y92.756 E15.00584
G1 X97.938 Y92.246 E15.02383
G1 X98.155 Y91.724 E15.04263
G1 X98.397 Y91.218 E15.06129
G1 X98.68 Y90.692 E15.08115
G1 X98.988 Y90.18 E15.10103
G1 X99.187 Y89.876 E15.11311
G1 X99.393 Y89.581 E15.12508
G1 X99.604 Y89.296 E15.13687
G1 X99.823 Y89.019 E15.14862
G1 X100.052 Y88.746 E15.16047
G1 X100.28 Y88.491 E15.17184
G1 X100.519 Y88.24 E15.18337
G1 X100.767 Y87.994 E15.19499
G1 X101.012 Y87.766 E15.20612
G1 X101.531 Y87.328 E15.22871
G1 X101.804 Y87.119 E15.24015
G1 X102.071 Y86.926 E15.2511
G1 X102.35 Y86.74 E15.26226
G1 X102.635 Y86.562 E15.27343
G1 X102.93 Y86.39 E15.28479
G1 X103.218 Y86.234 E15.29568
G1 X103.518 Y86.084 E15.30684
G1 X103.828 Y85.942 E15.31818
G1 X104.139 Y85.811 E15.3294
G1 X104.447 Y85.692 E15.34039
G1 X104.766 Y85.581 E15.35162
G1 X105.089 Y85.479 E15.36289
G1 X105.423 Y85.385 E15.37443
G1 X105.749 Y85.304 E15.3856
G1 X106.092 Y85.23 E15.39727
G1 X106.429 Y85.168 E15.40867
G1 X106.771 Y85.116 E15.42017
G1 X107.125 Y85.073 E15.43203
G1 X107.473 Y85.04 E15.44366
G1 X107.834 Y85.017 E15.45569
G1 X108.191 Y85.005 E15.46757
G1 X109.314 Y85.022 E15.50493
G1 X109.887 Y85.048 E15.524
G1 X110.469 Y85.087 E15.5434
G1 X111.046 Y85.142 E15.56268
G1 X111.62 Y85.215 E15.58193
G1 X112.194 Y85.307 E15.60126
G1 X112.77 Y85.423 E15.62081
G1 X113.334 Y85.562 E15.64013
G1 X113.905 Y85.731 E15.65993
G1 X114.449 Y85.921 E15.6791
G1 X115.004 Y86.151 E15.69908
G1 X115.539 Y86.408 E15.71882
G1 X116.053 Y86.697 E15.73843
G1 X116.309 Y86.856 E15.74845
G1 X116.566 Y87.029 E15.75876
G1 X116.816 Y87.208 E15.76899
G1 X117.055 Y87.393 E15.77904
G1 X117.319 Y87.612 E15.79045
G1 X117.569 Y87.832 E15.80152
G1 X117.801 Y88.052 E15.81216
G1 X118.027 Y88.283 E15.82291
G1 X118.242 Y88.519 E15.83352
G1 X118.447 Y88.761 E15.84407
G1 X118.645 Y89.015 E15.85478
G1 X118.823 Y89.262 E15.86491
G1 X118.995 Y89.522 E15.87528
G1 X119.156 Y89.786 E15.88556
G1 X119.307 Y90.057 E15.89588
G1 X119.45 Y90.341 E15.90646
G1 X119.576 Y90.617 E15.91655
G1 X119.695 Y90.906 E15.92694
G1 X119.803 Y91.202 E15.93742
